; generated by PrusaSlicer 2.2.0+win64 on 2020-10-06 at 19:43:33 UTC

; 

; external perimeters extrusion width = 0.45mm
; perimeters extrusion width = 0.45mm
; infill extrusion width = 0.45mm
; solid infill extrusion width = 0.45mm
; top infill extrusion width = 0.40mm
; first layer extrusion width = 0.42mm

M107
M190 S85 ; set bed temperature and wait for it to be reached
M104 S230 ; set temperature
G28 ; home all axes
;G29 S1
G1 Z5 F5000 ;E lift nozzle
M109 S230 ; set temperature and wait for it to be reached
G21 ; set units to millimeters
G90 ; use absolute coordinates
M82 ; use absolute distances for extrusion
G92 E0
; Filament gcode
G29 S1 P"heightmap_petg.csv"
G1 Z0.200 F7800.000
G10 ; retract
G92 E0
G1 X110.831 Y101.829
G11 ; unretract
G92 E0
G1 F1800.000
G1 X112.111 Y100.601 E0.05823
G1 X113.612 Y99.657 E0.11646
G1 X115.272 Y99.034 E0.17469
G1 X117.024 Y98.759 E0.23292
G1 X167.507 Y98.746 E1.89072
G1 X169.106 Y98.894 E1.94345
G1 X170.644 Y99.330 E1.99595
G1 X172.078 Y100.038 E2.04844
G1 X173.364 Y101.000 E2.10117
G1 X174.448 Y102.174 E2.15367
G1 X175.304 Y103.533 E2.20640
G1 X175.897 Y105.025 E2.25914
G1 X176.208 Y106.601 E2.31187
G1 X176.249 Y157.814 E3.99363
G1 X176.075 Y159.264 E4.04158
G1 X175.659 Y160.672 E4.08977
G1 X175.019 Y161.984 E4.13772
G1 X174.169 Y163.171 E4.18568
G1 X172.826 Y164.448 E4.24653
G1 X171.237 Y165.416 E4.30762
G1 X169.480 Y166.027 E4.36872
G1 X167.640 Y166.253 E4.42957
G1 X117.171 Y166.248 E6.08690
G1 X115.722 Y166.072 E6.13485
G1 X114.322 Y165.657 E6.18280
G1 X113.010 Y165.015 E6.23075
G1 X111.829 Y164.169 E6.27847
G1 X110.552 Y162.826 E6.33932
G1 X109.584 Y161.237 E6.40042
G1 X108.973 Y159.480 E6.46151
G1 X108.747 Y157.640 E6.52237
G1 X108.752 Y107.171 E8.17969
G1 X108.928 Y105.722 E8.22764
G1 X109.343 Y104.322 E8.27559
G1 X109.985 Y103.010 E8.32355
G1 X110.796 Y101.878 E8.36929
G1 X111.103 Y102.099 F7800.000
G1 F1800.000
G1 X112.364 Y100.882 E8.42681
G1 X113.804 Y99.982 E8.48260
G1 X115.397 Y99.391 E8.53839
G1 X117.069 Y99.134 E8.59394
G1 X167.507 Y99.123 E10.25024
G1 X169.036 Y99.265 E10.30065
G1 X170.519 Y99.686 E10.35130
G1 X171.895 Y100.368 E10.40171
G1 X173.128 Y101.295 E10.45236
G1 X174.166 Y102.426 E10.50277
G1 X174.980 Y103.728 E10.55318
G1 X175.544 Y105.163 E10.60383
G1 X175.836 Y106.670 E10.65424
G1 X175.872 Y157.793 E12.33304
G1 X175.705 Y159.190 E12.37924
G1 X175.306 Y160.539 E12.42544
G1 X174.684 Y161.809 E12.47188
G1 X173.861 Y162.951 E12.51808
G1 X172.574 Y164.166 E12.57621
G1 X171.060 Y165.083 E12.63433
G1 X169.387 Y165.662 E12.69246
G1 X167.623 Y165.876 E12.75081
G1 X117.200 Y165.872 E14.40664
G1 X115.803 Y165.703 E14.45284
G1 X114.454 Y165.304 E14.49905
G1 X113.191 Y164.684 E14.54525
G1 X112.049 Y163.861 E14.59145
G1 X110.834 Y162.574 E14.64958
G1 X109.917 Y161.060 E14.70770
G1 X109.338 Y159.387 E14.76583
G1 X109.124 Y157.623 E14.82418
G1 X109.128 Y107.200 E16.48001
G1 X109.297 Y105.803 E16.52621
G1 X109.696 Y104.454 E16.57242
G1 X110.316 Y103.191 E16.61862
G1 X111.068 Y102.147 E16.66085
G10 ; retract
G92 E0
G1 X166.336 Y156.336 F7800.000
G11 ; unretract
G92 E0
G1 F1800.000
G1 X118.664 Y156.336 E1.56546
G1 X118.664 Y108.664 E3.13092
G1 X166.336 Y108.664 E4.69637
G1 X166.336 Y156.276 E6.25986
G1 X166.713 Y156.713 F7800.000
G1 F1800.000
G1 X118.287 Y156.713 E7.85009
G1 X118.287 Y108.287 E9.44031
G1 X166.713 Y108.287 E11.03053
G1 X166.713 Y156.653 E12.61879
G1 X167.090 Y157.090 F7800.000
G1 F1800.000
G1 X117.910 Y157.090 E14.23377
G1 X117.910 Y107.910 E15.84876
G1 X167.090 Y107.910 E17.46375
G1 X167.090 Y157.030 E19.07677
G1 X166.704 Y156.986 F7800.000
G10 ; retract
G92 E0
G1 X119.522 Y156.242
G11 ; unretract
G92 E0
G1 F1800.000
G1 X118.928 Y155.648 E0.02760
G1 X118.928 Y155.114 E0.04515
G1 X119.886 Y156.072 E0.08969
G1 X120.420 Y156.072 E0.10725
G1 X118.928 Y154.580 E0.17661
G1 X118.928 Y154.046 E0.19416
G1 X120.954 Y156.072 E0.28836
G1 X121.488 Y156.072 E0.30591
G1 X118.928 Y153.512 E0.42493
G1 X118.928 Y152.978 E0.44249
G1 X122.022 Y156.072 E0.58633
G1 X122.556 Y156.072 E0.60389
G1 X118.928 Y152.444 E0.77256
G1 X118.928 Y151.910 E0.79012
G1 X123.090 Y156.072 E0.98362
G1 X123.623 Y156.072 E1.00118
G1 X118.928 Y151.377 E1.21950
G1 X118.928 Y150.843 E1.23706
G1 X124.157 Y156.072 E1.48022
G1 X124.691 Y156.072 E1.49777
G1 X118.928 Y150.309 E1.76576
G1 X118.928 Y149.775 E1.78331
G1 X125.225 Y156.072 E2.07613
G1 X125.759 Y156.072 E2.09368
G1 X118.928 Y149.241 E2.41132
G1 X118.928 Y148.707 E2.42888
G1 X126.293 Y156.072 E2.77135
G1 X126.827 Y156.072 E2.78890
G1 X118.928 Y148.173 E3.15620
G1 X118.928 Y147.639 E3.17375
G1 X127.361 Y156.072 E3.56588
G1 X127.895 Y156.072 E3.58343
G1 X118.928 Y147.105 E4.00038
G1 X118.928 Y146.571 E4.01794
G1 X128.429 Y156.072 E4.45972
G1 X128.963 Y156.072 E4.47727
G1 X118.928 Y146.037 E4.94388
G1 X118.928 Y145.503 E4.96143
G1 X129.497 Y156.072 E5.45287
G1 X130.031 Y156.072 E5.47042
G1 X118.928 Y144.969 E5.98669
G1 X118.928 Y144.435 E6.00424
G1 X130.565 Y156.072 E6.54533
G1 X131.099 Y156.072 E6.56289
G1 X118.928 Y143.901 E7.12880
G1 X118.928 Y143.367 E7.14636
G1 X131.633 Y156.072 E7.73710
G1 X132.167 Y156.072 E7.75466
G1 X118.928 Y142.833 E8.37023
G1 X118.928 Y142.300 E8.38779
G1 X132.700 Y156.072 E9.02819
G1 X133.234 Y156.072 E9.04574
G1 X118.928 Y141.766 E9.71097
G1 X118.928 Y141.232 E9.72853
G1 X133.768 Y156.072 E10.41858
G1 X134.302 Y156.072 E10.43614
G1 X118.928 Y140.698 E11.15102
G1 X118.928 Y140.164 E11.16858
G1 X134.836 Y156.072 E11.90829
G1 X135.370 Y156.072 E11.92584
G1 X118.928 Y139.630 E12.69038
G1 X118.928 Y139.096 E12.70794
G1 X135.904 Y156.072 E13.49730
G1 X136.438 Y156.072 E13.51486
G1 X118.928 Y138.562 E14.32905
G1 X118.928 Y138.028 E14.34661
G1 X136.972 Y156.072 E15.18563
G1 X137.506 Y156.072 E15.20319
G1 X118.928 Y137.494 E16.06703
G1 X118.928 Y136.960 E16.08459
G1 X138.040 Y156.072 E16.97327
G1 X138.574 Y156.072 E16.99082
G1 X118.928 Y136.426 E17.90433
G1 X118.928 Y135.892 E17.92188
G1 X139.108 Y156.072 E18.86021
G1 X139.642 Y156.072 E18.87777
G1 X118.928 Y135.358 E19.84093
G1 X118.928 Y134.824 E19.85849
G1 X140.176 Y156.072 E20.84647
G1 X140.710 Y156.072 E20.86403
G1 X118.928 Y134.290 E21.87684
G1 X118.928 Y133.756 E21.89440
G1 X141.244 Y156.072 E22.93204
G1 X141.778 Y156.072 E22.94960
G1 X118.928 Y133.222 E24.01207
G1 X118.928 Y132.689 E24.02962
G1 X142.311 Y156.072 E25.11692
G1 X142.845 Y156.072 E25.13448
G1 X118.928 Y132.155 E26.24660
G1 X118.928 Y131.621 E26.26416
G1 X143.379 Y156.072 E27.40111
G1 X143.913 Y156.072 E27.41867
G1 X118.928 Y131.087 E28.58045
G1 X118.928 Y130.553 E28.59801
G1 X144.447 Y156.072 E29.78461
G1 X144.981 Y156.072 E29.80217
G1 X118.928 Y130.019 E31.01361
G1 X118.928 Y129.485 E31.03116
G1 X145.515 Y156.072 E32.26743
G1 X146.049 Y156.072 E32.28498
G1 X118.928 Y128.951 E33.54607
G1 X118.928 Y128.417 E33.56363
G1 X146.583 Y156.072 E34.84955
G1 X147.117 Y156.072 E34.86710
G1 X118.928 Y127.883 E36.17785
G1 X118.928 Y127.349 E36.19541
G1 X147.651 Y156.072 E37.53098
G1 X148.185 Y156.072 E37.54854
G1 X118.928 Y126.815 E38.90894
G1 X118.928 Y126.281 E38.92650
G1 X148.719 Y156.072 E40.31173
G1 X149.253 Y156.072 E40.32928
G1 X118.928 Y125.747 E41.73934
G1 X118.928 Y125.213 E41.75690
G1 X149.787 Y156.072 E43.19178
G1 X150.321 Y156.072 E43.20934
G1 X118.928 Y124.679 E44.66905
G1 X118.928 Y124.145 E44.68661
G1 X150.855 Y156.072 E46.17115
G1 X151.388 Y156.072 E46.18870
G1 X118.928 Y123.612 E47.69807
G1 X118.928 Y123.078 E47.71563
G1 X151.922 Y156.072 E49.24982
G1 X152.456 Y156.072 E49.26738
G1 X118.928 Y122.544 E50.82640
G1 X118.928 Y122.010 E50.84396
G1 X152.990 Y156.072 E52.42781
G1 X153.524 Y156.072 E52.44537
G1 X118.928 Y121.476 E54.05404
G1 X118.928 Y120.942 E54.07160
G1 X154.058 Y156.072 E55.70511
G1 X154.592 Y156.072 E55.72266
G1 X118.928 Y120.408 E57.38100
G1 X118.928 Y119.874 E57.39855
G1 X155.126 Y156.072 E59.08172
G1 X155.660 Y156.072 E59.09927
G1 X118.928 Y119.340 E60.80726
G1 X118.928 Y118.806 E60.82482
G1 X156.194 Y156.072 E62.55763
G1 X156.728 Y156.072 E62.57519
G1 X118.928 Y118.272 E64.33284
G1 X118.928 Y117.738 E64.35039
G1 X157.262 Y156.072 E66.13286
G1 X157.796 Y156.072 E66.15042
G1 X118.928 Y117.204 E67.95772
G1 X118.928 Y116.670 E67.97528
G1 X158.330 Y156.072 E69.80740
G1 X158.864 Y156.072 E69.82496
G1 X118.928 Y116.136 E71.68192
G1 X118.928 Y115.602 E71.69947
G1 X159.398 Y156.072 E73.58126
G1 X159.932 Y156.072 E73.59881
G1 X118.928 Y115.068 E75.50542
G1 X118.928 Y114.535 E75.52298
G1 X160.465 Y156.072 E77.45442
G1 X160.999 Y156.072 E77.47197
G1 X118.928 Y114.001 E79.42824
G1 X118.928 Y113.467 E79.44580
G1 X161.533 Y156.072 E81.42689
G1 X162.067 Y156.072 E81.44445
G1 X118.928 Y112.933 E83.45037
G1 X118.928 Y112.399 E83.46792
G1 X162.601 Y156.072 E85.49867
G1 X163.135 Y156.072 E85.51623
G1 X118.928 Y111.865 E87.57181
G1 X118.928 Y111.331 E87.58936
G1 X163.669 Y156.072 E89.66977
G1 X164.203 Y156.072 E89.68732
G1 X118.928 Y110.797 E91.79255
G1 X118.928 Y110.263 E91.81011
G1 X164.737 Y156.072 E93.94017
G1 X165.271 Y156.072 E93.95773
G1 X118.928 Y109.729 E96.11261
G1 X118.928 Y109.195 E96.13017
G1 X165.805 Y156.072 E98.30989
G1 X166.072 Y156.072 E98.31867
G1 X166.072 Y155.805 E98.32744
G1 X119.195 Y108.928 E100.50716
G1 X119.729 Y108.928 E100.52472
G1 X166.072 Y155.271 E102.67961
G1 X166.072 Y154.737 E102.69716
G1 X120.263 Y108.928 E104.82723
G1 X120.797 Y108.928 E104.84478
G1 X166.072 Y154.203 E106.95002
G1 X166.072 Y153.669 E106.96757
G1 X121.331 Y108.928 E109.04798
G1 X121.865 Y108.928 E109.06554
G1 X166.072 Y153.135 E111.12112
G1 X166.072 Y152.601 E111.13867
G1 X122.399 Y108.928 E113.16943
G1 X122.933 Y108.928 E113.18698
G1 X166.072 Y152.067 E115.19291
G1 X166.072 Y151.533 E115.21046
G1 X123.467 Y108.928 E117.19156
G1 X124.001 Y108.928 E117.20912
G1 X166.072 Y150.999 E119.16539
G1 X166.072 Y150.466 E119.18294
G1 X124.534 Y108.928 E121.11438
G1 X125.068 Y108.928 E121.13194
G1 X166.072 Y149.932 E123.03855
G1 X166.072 Y149.398 E123.05611
G1 X125.602 Y108.928 E124.93790
G1 X126.136 Y108.928 E124.95545
G1 X166.072 Y148.864 E126.81241
G1 X166.072 Y148.330 E126.82997
G1 X126.670 Y108.928 E128.66210
G1 X127.204 Y108.928 E128.67965
G1 X166.072 Y147.796 E130.48696
G1 X166.072 Y147.262 E130.50451
G1 X127.738 Y108.928 E132.28699
G1 X128.272 Y108.928 E132.30455
G1 X166.072 Y146.728 E134.06219
G1 X166.072 Y146.194 E134.07975
G1 X128.806 Y108.928 E135.81257
G1 X129.340 Y108.928 E135.83013
G1 X166.072 Y145.660 E137.53812
G1 X166.072 Y145.126 E137.55568
G1 X129.874 Y108.928 E139.23884
G1 X130.408 Y108.928 E139.25640
G1 X166.072 Y144.592 E140.91473
G1 X166.072 Y144.058 E140.93229
G1 X130.942 Y108.928 E142.56580
G1 X131.476 Y108.928 E142.58336
G1 X166.072 Y143.524 E144.19204
G1 X166.072 Y142.990 E144.20959
G1 X132.010 Y108.928 E145.79345
G1 X132.544 Y108.928 E145.81100
G1 X166.072 Y142.456 E147.37003
G1 X166.072 Y141.922 E147.38759
G1 X133.078 Y108.928 E148.92179
G1 X133.611 Y108.928 E148.93934
G1 X166.072 Y141.389 E150.44871
G1 X166.072 Y140.855 E150.46627
G1 X134.145 Y108.928 E151.95081
G1 X134.679 Y108.928 E151.96837
G1 X166.072 Y140.321 E153.42809
G1 X166.072 Y139.787 E153.44564
G1 X135.213 Y108.928 E154.88053
G1 X135.747 Y108.928 E154.89809
G1 X166.072 Y139.253 E156.30815
G1 X166.072 Y138.719 E156.32570
G1 X136.281 Y108.928 E157.71094
G1 X136.815 Y108.928 E157.72849
G1 X166.072 Y138.185 E159.08890
G1 X166.072 Y137.651 E159.10645
G1 X137.349 Y108.928 E160.44203
G1 X137.883 Y108.928 E160.45959
G1 X166.072 Y137.117 E161.77034
G1 X166.072 Y136.583 E161.78789
G1 X138.417 Y108.928 E163.07381
G1 X138.951 Y108.928 E163.09137
G1 X166.072 Y136.049 E164.35247
G1 X166.072 Y135.515 E164.37002
G1 X139.485 Y108.928 E165.60629
G1 X140.019 Y108.928 E165.62384
G1 X166.072 Y134.981 E166.83528
G1 X166.072 Y134.447 E166.85284
G1 X140.553 Y108.928 E168.03945
G1 X141.087 Y108.928 E168.05701
G1 X166.072 Y133.913 E169.21879
G1 X166.072 Y133.379 E169.23635
G1 X141.621 Y108.928 E170.37330
G1 X142.155 Y108.928 E170.39086
G1 X166.072 Y132.845 E171.50299
G1 X166.072 Y132.312 E171.52054
G1 X142.688 Y108.928 E172.60785
G1 X143.222 Y108.928 E172.62540
G1 X166.072 Y131.778 E173.68787
G1 X166.072 Y131.244 E173.70543
G1 X143.756 Y108.928 E174.74308
G1 X144.290 Y108.928 E174.76063
G1 X166.072 Y130.710 E175.77345
G1 X166.072 Y130.176 E175.79101
G1 X144.824 Y108.928 E176.77900
G1 X145.358 Y108.928 E176.79655
G1 X166.072 Y129.642 E177.75971
G1 X166.072 Y129.108 E177.77727
G1 X145.892 Y108.928 E178.71561
G1 X146.426 Y108.928 E178.73316
G1 X166.072 Y128.574 E179.64667
G1 X166.072 Y128.040 E179.66422
G1 X146.960 Y108.928 E180.55290
G1 X147.494 Y108.928 E180.57046
G1 X166.072 Y127.506 E181.43431
G1 X166.072 Y126.972 E181.45187
G1 X148.028 Y108.928 E182.29089
G1 X148.562 Y108.928 E182.30845
G1 X166.072 Y126.438 E183.12265
G1 X166.072 Y125.904 E183.14020
G1 X149.096 Y108.928 E183.92957
G1 X149.630 Y108.928 E183.94713
G1 X166.072 Y125.370 E184.71167
G1 X166.072 Y124.836 E184.72922
G1 X150.164 Y108.928 E185.46894
G1 X150.698 Y108.928 E185.48649
G1 X166.072 Y124.302 E186.20138
G1 X166.072 Y123.768 E186.21893
G1 X151.232 Y108.928 E186.90899
G1 X151.765 Y108.928 E186.92655
G1 X166.072 Y123.234 E187.59178
G1 X166.072 Y122.701 E187.60934
G1 X152.299 Y108.928 E188.24974
G1 X152.833 Y108.928 E188.26729
G1 X166.072 Y122.167 E188.88287
G1 X166.072 Y121.633 E188.90043
G1 X153.367 Y108.928 E189.49117
G1 X153.901 Y108.928 E189.50873
G1 X166.072 Y121.099 E190.07465
G1 X166.072 Y120.565 E190.09220
G1 X154.435 Y108.928 E190.63330
G1 X154.969 Y108.928 E190.65085
G1 X166.072 Y120.031 E191.16712
G1 X166.072 Y119.497 E191.18467
G1 X155.503 Y108.928 E191.67611
G1 X156.037 Y108.928 E191.69367
G1 X166.072 Y118.963 E192.16028
G1 X166.072 Y118.429 E192.17783
G1 X156.571 Y108.928 E192.61961
G1 X157.105 Y108.928 E192.63717
G1 X166.072 Y117.895 E193.05412
G1 X166.072 Y117.361 E193.07168
G1 X157.639 Y108.928 E193.46380
G1 X158.173 Y108.928 E193.48136
G1 X166.072 Y116.827 E193.84866
G1 X166.072 Y116.293 E193.86621
G1 X158.707 Y108.928 E194.20869
G1 X159.241 Y108.928 E194.22624
G1 X166.072 Y115.759 E194.54388
G1 X166.072 Y115.225 E194.56144
G1 X159.775 Y108.928 E194.85426
G1 X160.309 Y108.928 E194.87181
G1 X166.072 Y114.691 E195.13980
G1 X166.072 Y114.157 E195.15736
G1 X160.843 Y108.928 E195.40052
G1 X161.376 Y108.928 E195.41807
G1 X166.072 Y113.624 E195.63640
G1 X166.072 Y113.090 E195.65396
G1 X161.910 Y108.928 E195.84746
G1 X162.444 Y108.928 E195.86502
G1 X166.072 Y112.556 E196.03370
G1 X166.072 Y112.022 E196.05125
G1 X162.978 Y108.928 E196.19510
G1 X163.512 Y108.928 E196.21266
G1 X166.072 Y111.488 E196.33168
G1 X166.072 Y110.954 E196.34924
G1 X164.046 Y108.928 E196.44343
G1 X164.580 Y108.928 E196.46099
G1 X166.072 Y110.420 E196.53035
G1 X166.072 Y109.886 E196.54791
G1 X165.114 Y108.928 E196.59245
G1 X165.648 Y108.928 E196.61000
G1 X166.242 Y109.522 E196.63761
G1 Z0.400 F7800.000
M104 S240 ; set temperature
M140 S90 ; set bed temperature
G1 X166.461 Y156.461
G1 F3600.000
G1 X118.539 Y156.461 E198.33647
G1 X118.539 Y108.539 E200.03534
G1 X166.461 Y108.539 E201.73421
G1 X166.461 Y156.401 E203.43095
G1 X166.868 Y156.868 F7800.000
G1 F3600.000
G1 X118.132 Y156.868 E205.15868
G1 X118.132 Y108.132 E206.88640
G1 X166.868 Y108.132 E208.61413
G1 X166.868 Y156.808 E210.33974
G1 X167.275 Y157.275 F7800.000
G1 F1800.000
G1 X117.725 Y157.275 E212.09633
G1 X117.725 Y107.725 E213.85292
G1 X167.275 Y107.725 E215.60951
G1 X167.275 Y157.215 E217.36398
G1 X166.889 Y157.171 F7800.000
G1 X119.469 Y108.641
G1 F1200.000
G1 X118.824 Y109.285 E217.39647
G1 X118.824 Y109.864 E217.41711
G1 X119.864 Y108.824 E217.46956
G1 X120.443 Y108.824 E217.49019
G1 X118.824 Y110.443 E217.57182
G1 X118.824 Y111.022 E217.59246
G1 X121.022 Y108.824 E217.70327
G1 X121.601 Y108.824 E217.72391
G1 X118.824 Y111.601 E217.86390
G1 X118.824 Y112.180 E217.88454
G1 X122.180 Y108.824 E218.05372
G1 X122.759 Y108.824 E218.07436
G1 X118.824 Y112.759 E218.27272
G1 X118.824 Y113.338 E218.29336
G1 X123.338 Y108.824 E218.52091
G1 X123.917 Y108.824 E218.54155
G1 X118.824 Y113.917 E218.79828
G1 X118.824 Y114.496 E218.81891
G1 X124.496 Y108.824 E219.10483
G1 X125.074 Y108.824 E219.12547
