; generated by PrusaSlicer 2.2.0+win64 on 2020-05-06 at 21:07:08 UTC

; 

; external perimeters extrusion width = 0.45mm
; perimeters extrusion width = 0.45mm
; infill extrusion width = 0.45mm
; solid infill extrusion width = 0.45mm
; top infill extrusion width = 0.40mm
; first layer extrusion width = 0.42mm

M107
M190 S60 ; set bed temperature and wait for it to be reached
M104 S205 ; set temperature
G28 ; home all axes
G29 S1
G1 Z5 F5000 ; lift nozzle
M109 S205 ; set temperature and wait for it to be reached
G21 ; set units to millimeters
G90 ; use absolute coordinates
M82 ; use absolute distances for extrusion
G92 E0
; Filament gcode
G1 Z0.200 F7800.000
G10 ; retract
G92 E0
G1 X138.480 Y85.149
G11 ; unretract
G92 E0
G1 F1200.000
G1 X139.855 Y84.957 E0.04560
G1 X159.962 Y84.954 E0.70587
G1 X160.919 Y85.027 E0.73740
G1 X161.855 Y85.243 E0.76892
G1 X162.741 Y85.595 E0.80023
G1 X163.571 Y86.078 E0.83175
G1 X164.771 Y86.988 E0.88123
G1 X166.056 Y88.109 E0.93722
G1 X167.295 Y89.358 E0.99498
G1 X168.589 Y90.896 E1.06099
G1 X169.723 Y92.500 E1.12552
G1 X170.694 Y94.156 E1.18855
G1 X171.758 Y96.419 E1.27064
G1 X172.418 Y98.269 E1.33517
G1 X172.886 Y100.020 E1.39469
G1 X173.330 Y102.620 E1.48130
G1 X173.459 Y104.336 E1.53780
G1 X173.473 Y106.079 E1.59504
G1 X171.149 Y169.449 E3.67740
G1 X170.952 Y171.300 E3.73853
G1 X170.488 Y173.317 E3.80651
G1 X169.735 Y175.355 E3.87785
G1 X168.687 Y177.334 E3.95140
G1 X167.541 Y178.944 E4.01627
G1 X166.925 Y179.675 E4.04766
G1 X165.242 Y181.313 E4.12480
G1 X163.497 Y182.598 E4.19595
G1 X161.759 Y183.558 E4.26116
G1 X159.148 Y184.561 E4.35301
G1 X157.364 Y184.969 E4.41309
G1 X155.974 Y185.148 E4.45912
G1 X154.593 Y185.210 E4.50453
G1 X145.793 Y185.210 E4.79348
G1 X144.793 Y185.132 E4.82644
G1 X143.750 Y184.882 E4.86163
G1 X142.733 Y184.452 E4.89791
G1 X141.815 Y183.865 E4.93370
G1 X141.007 Y183.136 E4.96942
G1 X128.049 Y168.844 E5.60294
G1 X127.178 Y167.492 E5.65577
G1 X126.668 Y165.993 E5.70776
G1 X126.548 Y165.191 E5.73437
G1 X126.523 Y164.303 E5.76354
G1 X126.523 Y105.221 E7.70371
G1 X126.614 Y103.192 E7.77040
G1 X126.801 Y101.642 E7.82165
G1 X127.249 Y99.461 E7.89479
G1 X127.692 Y97.919 E7.94746
G1 X128.333 Y96.206 E8.00752
G1 X129.256 Y94.243 E8.07876
G1 X130.334 Y92.414 E8.14847
G1 X131.698 Y90.534 E8.22473
G1 X132.809 Y89.246 E8.28061
G1 X133.874 Y88.176 E8.33017
G1 X135.463 Y86.799 E8.39923
G1 X136.459 Y86.057 E8.44001
G1 X137.179 Y85.634 E8.46744
G1 X138.424 Y85.170 E8.51107
G10 ; retract
G92 E0
G1 X137.476 Y149.428 F7800.000
G11 ; unretract
G92 E0
G1 F1200.000
G1 X137.241 Y149.858 E0.01607
G1 X137.127 Y149.999 E0.02203
G1 X136.749 Y150.326 E0.03843
G1 X136.591 Y150.420 E0.04447
G1 X136.128 Y150.592 E0.06071
G1 X135.947 Y150.624 E0.06674
G1 X135.468 Y150.627 E0.08247
G1 X135.286 Y150.594 E0.08853
G1 X134.824 Y150.428 E0.10465
G1 X134.666 Y150.335 E0.11070
G1 X134.296 Y150.026 E0.12653
G1 X134.180 Y149.882 E0.13260
G1 X133.926 Y149.449 E0.14909
G1 X133.783 Y148.733 E0.17304
G1 X133.927 Y148.017 E0.19703
G1 X134.197 Y147.563 E0.21437
G1 X134.313 Y147.421 E0.22041
G1 X134.680 Y147.123 E0.23594
G1 X134.838 Y147.031 E0.24194
G1 X135.269 Y146.876 E0.25697
G1 X135.449 Y146.842 E0.26300
G1 X135.921 Y146.839 E0.27848
G1 X136.103 Y146.869 E0.28455
G1 X136.561 Y147.032 E0.30052
G1 X136.720 Y147.121 E0.30650
G1 X137.099 Y147.438 E0.32272
G1 X137.217 Y147.575 E0.32865
G1 X137.460 Y148.000 E0.34472
G1 X137.522 Y148.167 E0.35059
G1 X137.604 Y148.626 E0.36589
G1 X137.607 Y148.800 E0.37162
G1 X137.534 Y149.259 E0.38687
G1 X137.495 Y149.372 E0.39077
G1 X137.716 Y149.748 F7800.000
G10 ; retract
G92 E0
G1 X148.317 Y165.992
G11 ; unretract
G92 E0
G1 F1200.000
G1 X148.854 Y165.043 E0.03581
G1 X149.033 Y164.797 E0.04579
G1 X149.805 Y164.123 E0.07944
G1 X150.046 Y163.963 E0.08892
G1 X151.017 Y163.572 E0.12330
G1 X151.307 Y163.505 E0.13310
G1 X152.398 Y163.466 E0.16893
G1 X152.696 Y163.506 E0.17881
G1 X153.704 Y163.836 E0.21364
G1 X153.965 Y163.972 E0.22330
G1 X154.776 Y164.600 E0.25698
G1 X154.973 Y164.813 E0.26652
G1 X155.540 Y165.689 E0.30077
G1 X155.655 Y165.963 E0.31053
G1 X155.899 Y167.023 E0.34624
G1 X155.913 Y167.323 E0.35613
G1 X155.772 Y168.395 E0.39163
G1 X155.683 Y168.679 E0.40140
G1 X155.192 Y169.620 E0.43626
G1 X155.015 Y169.852 E0.44585
G1 X154.255 Y170.557 E0.47988
G1 X154.000 Y170.718 E0.48979
G1 X152.976 Y171.148 E0.52624
G1 X152.676 Y171.210 E0.53632
G1 X151.606 Y171.251 E0.57148
G1 X151.300 Y171.205 E0.58165
G1 X150.285 Y170.875 E0.61668
G1 X150.008 Y170.725 E0.62702
G1 X149.169 Y170.054 E0.66231
G1 X148.955 Y169.822 E0.67269
G1 X148.300 Y168.685 E0.71577
G1 X148.068 Y167.353 E0.76016
G1 X148.307 Y166.051 E0.80364
G1 X148.677 Y166.122 F7800.000
G1 F1200.000
G1 X149.171 Y165.247 E0.83664
G1 X149.313 Y165.054 E0.84452
G1 X150.034 Y164.423 E0.87598
G1 X150.222 Y164.298 E0.88339
G1 X151.130 Y163.933 E0.91553
G1 X151.357 Y163.880 E0.92317
G1 X152.380 Y163.844 E0.95678
G1 X152.612 Y163.875 E0.96446
G1 X153.557 Y164.185 E0.99713
G1 X153.761 Y164.291 E1.00468
G1 X154.520 Y164.879 E1.03621
G1 X154.674 Y165.045 E1.04365
G1 X155.205 Y165.866 E1.07575
G1 X155.295 Y166.079 E1.08334
G1 X155.524 Y167.074 E1.11688
G1 X155.535 Y167.308 E1.12456
G1 X155.403 Y168.314 E1.15788
G1 X155.334 Y168.534 E1.16547
G1 X154.873 Y169.417 E1.19816
G1 X154.735 Y169.597 E1.20563
G1 X154.024 Y170.257 E1.23746
G1 X153.825 Y170.382 E1.24519
G1 X152.864 Y170.786 E1.27942
G1 X152.630 Y170.835 E1.28728
G1 X151.627 Y170.873 E1.32023
G1 X151.387 Y170.837 E1.32821
G1 X150.435 Y170.527 E1.36108
G1 X150.218 Y170.409 E1.36920
G1 X149.427 Y169.777 E1.40244
G1 X149.260 Y169.597 E1.41050
G1 X148.660 Y168.554 E1.45001
G1 X148.451 Y167.355 E1.48999
G1 X148.666 Y166.181 E1.52918
G1 X149.036 Y166.253 F7800.000
G1 F1200.000
G1 X149.489 Y165.452 E1.55937
G1 X149.593 Y165.310 E1.56515
G1 X150.264 Y164.724 E1.59442
G1 X150.399 Y164.634 E1.59974
G1 X151.244 Y164.294 E1.62966
G1 X151.406 Y164.256 E1.63514
G1 X152.361 Y164.222 E1.66652
G1 X152.527 Y164.244 E1.67201
G1 X153.410 Y164.534 E1.70252
G1 X153.557 Y164.610 E1.70795
G1 X154.264 Y165.157 E1.73733
G1 X154.375 Y165.277 E1.74268
G1 X154.871 Y166.043 E1.77263
G1 X154.935 Y166.195 E1.77805
G1 X155.148 Y167.126 E1.80941
G1 X155.156 Y167.292 E1.81488
G1 X155.033 Y168.232 E1.84603
G1 X154.984 Y168.390 E1.85144
G1 X154.554 Y169.214 E1.88196
G1 X154.455 Y169.343 E1.88731
G1 X153.793 Y169.957 E1.91693
G1 X153.650 Y170.047 E1.92249
G1 X152.751 Y170.424 E1.95450
G1 X152.584 Y170.459 E1.96012
G1 X151.648 Y170.495 E1.99088
G1 X151.474 Y170.469 E1.99666
G1 X150.584 Y170.179 E2.02739
G1 X150.427 Y170.094 E2.03327
G1 X149.685 Y169.500 E2.06447
G1 X149.566 Y169.372 E2.07021
G1 X149.020 Y168.424 E2.10614
G1 X148.834 Y167.357 E2.14172
G1 X149.025 Y166.312 E2.17660
G1 X148.778 Y165.947 F7800.000
G10 ; retract
G92 E0
G1 X150.000 Y98.424
G11 ; unretract
G92 E0
G1 F1200.000
G1 X159.868 Y92.726 E0.37418
G1 X160.741 Y93.463 E0.41169
G1 X161.810 Y94.538 E0.46148
G1 X162.582 Y95.457 E0.50089
G1 X163.387 Y96.591 E0.54655
G1 X164.193 Y97.994 E0.59970
G1 X164.713 Y99.116 E0.64030
G1 X165.221 Y100.525 E0.68947
G1 X165.594 Y101.953 E0.73793
G1 X165.757 Y102.860 E0.76820
G1 X165.845 Y103.542 E0.79080
G1 X165.924 Y104.647 E0.82715
G1 X165.932 Y105.382 E0.85132
G1 X164.001 Y107.314 E0.94101
G1 X162.883 Y106.449 E0.98740
G1 X161.459 Y105.566 E1.04243
G1 X159.836 Y104.805 E1.10127
G1 X158.508 Y104.357 E1.14733
G1 X156.806 Y103.978 E1.20459
G1 X155.184 Y103.809 E1.25811
G1 X153.551 Y103.824 E1.31176
G1 X151.839 Y104.037 E1.36839
G1 X150.254 Y104.424 E1.42200
G1 X148.690 Y105.000 E1.47672
G1 X147.112 Y105.804 E1.53486
G1 X145.787 Y106.685 E1.58713
G1 X144.569 Y107.703 E1.63924
G1 X143.569 Y108.736 E1.68645
G1 X142.488 Y110.124 E1.74423
G1 X141.736 Y111.342 E1.79124
G1 X141.028 Y112.821 E1.84508
G1 X140.451 Y114.511 E1.90372
G1 X140.103 Y116.153 E1.95883
G1 X139.964 Y117.448 E2.00162
G1 X139.936 Y118.339 E2.03090
G1 X139.936 Y133.764 E2.53743
G1 X139.975 Y134.633 E2.56600
G1 X140.150 Y135.809 E2.60503
G1 X140.517 Y137.108 E2.64936
G1 X141.225 Y138.668 E2.70561
G1 X142.092 Y139.967 E2.75691
G1 X143.131 Y141.097 E2.80731
G1 X144.160 Y141.937 E2.85093
G1 X144.944 Y142.441 E2.88154
G1 X152.144 Y146.597 E3.15453
G1 X152.642 Y146.918 E3.17401
G1 X153.216 Y147.385 E3.19828
G1 X153.908 Y148.145 E3.23205
G1 X154.542 Y149.174 E3.27173
G1 X154.915 Y150.167 E3.30656
G1 X155.089 Y151.048 E3.33607
G1 X155.136 Y151.788 E3.36040
G1 X155.136 Y157.158 E3.53676
G1 X159.625 Y161.647 E3.74524
G1 X163.103 Y161.647 E3.85946
G1 X163.352 Y161.696 E3.86779
G1 X163.483 Y161.780 E3.87289
G1 X163.569 Y161.902 E3.87778
G1 X163.636 Y162.207 E3.88805
G1 X163.636 Y168.561 E4.09669
G1 X163.608 Y169.278 E4.12025
G1 X163.500 Y170.141 E4.14881
G1 X163.264 Y171.146 E4.18272
G1 X162.849 Y172.274 E4.22218
G1 X162.258 Y173.387 E4.26357
G1 X161.475 Y174.462 E4.30726
G1 X160.498 Y175.447 E4.35279
G1 X159.411 Y176.256 E4.39728
G1 X158.292 Y176.860 E4.43906
G1 X157.121 Y177.295 E4.48006
G1 X156.004 Y177.550 E4.51770
G1 X155.164 Y177.647 E4.54548
G1 X154.531 Y177.669 E4.56627
G1 X146.766 Y177.668 E4.82125
G1 X146.764 Y175.252 E4.90058
G1 X146.621 Y174.379 E4.92963
G1 X146.500 Y174.100 E4.93962
G1 X146.208 Y173.560 E4.95980
G1 X146.016 Y173.301 E4.97037
G1 X145.420 Y172.761 E4.99676
G1 X144.850 Y172.358 E5.01970
G1 X144.325 Y171.921 E5.04214
G1 X143.575 Y171.154 E5.07736
G1 X142.753 Y170.013 E5.12356
G1 X142.209 Y168.937 E5.16313
G1 X141.878 Y167.986 E5.19622
G1 X141.702 Y167.229 E5.22173
G1 X141.585 Y166.400 E5.24921
G1 X141.308 Y165.425 E5.28250
G1 X140.620 Y164.522 E5.31977
G1 X140.344 Y164.302 E5.33137
G1 X139.717 Y163.934 E5.35523
G1 X139.406 Y163.815 E5.36619
G1 X138.545 Y163.669 E5.39485
G1 X134.065 Y163.667 E5.54197
G1 X134.065 Y150.856 E5.96263
G1 X134.503 Y151.114 E5.97931
G1 X135.091 Y151.325 E5.99983
G1 X135.403 Y151.382 E6.01025
G1 X136.016 Y151.378 E6.03038
G1 X136.327 Y151.322 E6.04077
G1 X136.917 Y151.103 E6.06144
G1 X137.192 Y150.940 E6.07192
G1 X137.671 Y150.525 E6.09274
G1 X137.870 Y150.280 E6.10312
G1 X138.169 Y149.733 E6.12356
G1 X138.268 Y149.441 E6.13369
G1 X138.361 Y148.855 E6.15319
G1 X138.358 Y148.554 E6.16306
G1 X138.253 Y147.967 E6.18264
G1 X138.145 Y147.678 E6.19277
G1 X137.836 Y147.139 E6.21320
G1 X137.631 Y146.900 E6.22352
G1 X137.150 Y146.497 E6.24413
G1 X136.874 Y146.343 E6.25451
G1 X136.291 Y146.135 E6.27482
G1 X135.979 Y146.085 E6.28521
G1 X135.377 Y146.088 E6.30499
G1 X135.070 Y146.146 E6.31523
G1 X134.518 Y146.344 E6.33451
G1 X134.250 Y146.501 E6.34471
G1 X134.065 Y146.651 E6.35252
G1 X134.064 Y105.246 E7.71220
G1 X134.080 Y104.534 E7.73560
G1 X134.131 Y103.794 E7.75994
G1 X134.281 Y102.628 E7.79855
G1 X134.484 Y101.604 E7.83282
G1 X134.851 Y100.294 E7.87749
G1 X135.361 Y98.942 E7.92496
G1 X135.925 Y97.765 E7.96780
G1 X136.664 Y96.515 E8.01550
G1 X137.504 Y95.348 E8.06274
G1 X138.348 Y94.365 E8.10526
G1 X139.239 Y93.481 E8.14650
G1 X140.126 Y92.723 E8.18481
G1 X149.948 Y98.394 E8.55723
G1 X150.000 Y97.988 F7800.000
G1 F1200.000
G1 X159.898 Y92.274 E8.93254
G1 X160.236 Y92.534 E8.94656
G1 X160.998 Y93.187 E8.97950
G1 X162.088 Y94.284 E9.03030
G1 X162.881 Y95.226 E9.07073
G1 X163.705 Y96.388 E9.11750
G1 X164.529 Y97.821 E9.17177
G1 X165.062 Y98.973 E9.21346
G1 X165.582 Y100.413 E9.26374
G1 X165.962 Y101.872 E9.31324
G1 X166.130 Y102.802 E9.34429
G1 X166.221 Y103.505 E9.36756
G1 X166.301 Y104.631 E9.40465
G1 X166.310 Y105.537 E9.43439
G1 X164.007 Y107.840 E9.54135
G1 X163.704 Y107.561 E9.55488
G1 X162.667 Y106.760 E9.59791
G1 X161.279 Y105.898 E9.65157
G1 X159.696 Y105.156 E9.70900
G1 X158.406 Y104.720 E9.75369
G1 X156.745 Y104.351 E9.80957
G1 X155.167 Y104.187 E9.86168
G1 X153.576 Y104.201 E9.91393
G1 X151.908 Y104.408 E9.96912
G1 X150.364 Y104.786 E10.02132
G1 X148.841 Y105.346 E10.07460
G1 X147.303 Y106.130 E10.13129
G1 X146.013 Y106.988 E10.18216
G1 X144.826 Y107.979 E10.23294
G1 X143.854 Y108.984 E10.27884
G1 X142.798 Y110.340 E10.33528
G1 X142.067 Y111.523 E10.38096
G1 X141.377 Y112.963 E10.43340
G1 X140.815 Y114.611 E10.49057
G1 X140.476 Y116.212 E10.54431
G1 X140.340 Y117.474 E10.58600
G1 X140.313 Y118.345 E10.61461
G1 X140.313 Y133.756 E11.12067
G1 X140.350 Y134.597 E11.14833
G1 X140.520 Y135.730 E11.18593
G1 X140.872 Y136.978 E11.22853
G1 X141.555 Y138.484 E11.28284
G1 X142.390 Y139.734 E11.33217
G1 X143.390 Y140.822 E11.38072
G1 X144.382 Y141.631 E11.42275
G1 X145.140 Y142.119 E11.45236
G1 X152.340 Y146.275 E11.72536
G1 X152.864 Y146.613 E11.74582
G1 X153.476 Y147.110 E11.77171
G1 X154.210 Y147.917 E11.80754
G1 X154.891 Y149.030 E11.85039
G1 X155.279 Y150.063 E11.88663
G1 X155.464 Y150.999 E11.91798
G1 X155.513 Y151.776 E11.94352
G1 X155.513 Y157.002 E12.11514
G1 X159.781 Y161.270 E12.31336
G1 X163.135 Y161.270 E12.42349
G1 X163.496 Y161.341 E12.43558
G1 X163.748 Y161.503 E12.44542
G1 X163.921 Y161.746 E12.45522
G1 X164.013 Y162.167 E12.46935
G1 X164.013 Y168.568 E12.67957
G1 X163.984 Y169.309 E12.70391
G1 X163.871 Y170.207 E12.73365
G1 X163.626 Y171.255 E12.76898
G1 X163.194 Y172.428 E12.81003
G1 X162.579 Y173.587 E12.85313
G1 X161.758 Y174.712 E12.89883
G1 X160.746 Y175.733 E12.94604
G1 X159.614 Y176.574 E12.99236
G1 X158.448 Y177.204 E13.03590
G1 X157.230 Y177.657 E13.07858
G1 X156.068 Y177.923 E13.11771
G1 X155.192 Y178.024 E13.14667
G1 X154.537 Y178.046 E13.16817
G1 X146.389 Y178.045 E13.43574
G1 X146.387 Y175.283 E13.52643
G1 X146.256 Y174.486 E13.55295
G1 X146.160 Y174.265 E13.56087
G1 X145.889 Y173.763 E13.57963
G1 X145.735 Y173.555 E13.58809
G1 X145.184 Y173.056 E13.61251
G1 X144.620 Y172.658 E13.63519
G1 X144.068 Y172.199 E13.65876
G1 X143.286 Y171.397 E13.69554
G1 X142.430 Y170.209 E13.74363
G1 X141.861 Y169.085 E13.78500
G1 X141.515 Y168.091 E13.81958
G1 X141.330 Y167.298 E13.84630
G1 X141.216 Y166.479 E13.87347
G1 X140.964 Y165.597 E13.90357
G1 X140.349 Y164.788 E13.93696
G1 X140.130 Y164.614 E13.94614
G1 X139.553 Y164.275 E13.96810
G1 X139.306 Y164.180 E13.97681
G1 X138.513 Y164.046 E14.00320
G1 X133.688 Y164.043 E14.16165
G1 X133.688 Y150.112 E14.61912
G1 X133.839 Y150.059 E14.62439
G1 X134.025 Y150.291 E14.63414
G1 X134.448 Y150.644 E14.65223
G1 X134.663 Y150.771 E14.66045
G1 X135.188 Y150.960 E14.67877
G1 X135.435 Y151.004 E14.68701
G1 X135.981 Y151.001 E14.70494
G1 X136.228 Y150.957 E14.71316
G1 X136.754 Y150.761 E14.73161
G1 X136.971 Y150.633 E14.73987
G1 X137.399 Y150.262 E14.75847
G1 X137.555 Y150.069 E14.76665
G1 X137.822 Y149.581 E14.78490
G1 X137.901 Y149.350 E14.79291
G1 X137.984 Y148.828 E14.81028
G1 X137.981 Y148.590 E14.81808
G1 X137.887 Y148.067 E14.83552
G1 X137.802 Y147.839 E14.84352
G1 X137.526 Y147.357 E14.86176
G1 X137.365 Y147.169 E14.86989
G1 X136.935 Y146.809 E14.88831
G1 X136.717 Y146.688 E14.89649
G1 X136.197 Y146.502 E14.91463
G1 X135.950 Y146.462 E14.92286
G1 X135.413 Y146.465 E14.94049
G1 X135.170 Y146.511 E14.94862
G1 X134.678 Y146.687 E14.96578
G1 X134.465 Y146.812 E14.97388
G1 X134.046 Y147.152 E14.99160
G1 X133.688 Y147.588 E15.01014
G1 X133.687 Y105.242 E16.40073
G1 X133.703 Y104.517 E16.42455
G1 X133.756 Y103.757 E16.44955
G1 X133.908 Y102.567 E16.48894
G1 X134.117 Y101.517 E16.52411
G1 X134.492 Y100.177 E16.56980
G1 X135.014 Y98.794 E16.61835
G1 X135.592 Y97.588 E16.66227
G1 X136.348 Y96.309 E16.71106
G1 X137.207 Y95.114 E16.75938
G1 X138.072 Y94.108 E16.80293
G1 X138.984 Y93.203 E16.84513
G1 X139.841 Y92.471 E16.88214
G1 X140.102 Y92.274 E16.89290
G1 X149.948 Y97.958 E17.26624
G1 X150.000 Y97.553 F7800.000
G1 F1200.000
G1 X159.928 Y91.821 E17.64268
G1 X160.474 Y92.241 E17.66531
G1 X161.255 Y92.910 E17.69907
G1 X162.367 Y94.029 E17.75088
G1 X163.180 Y94.995 E17.79234
G1 X164.023 Y96.184 E17.84020
G1 X164.864 Y97.647 E17.89562
G1 X165.411 Y98.829 E17.93839
G1 X165.942 Y100.301 E17.98977
G1 X166.331 Y101.790 E18.04032
G1 X166.503 Y102.744 E18.07215
G1 X166.596 Y103.467 E18.09609
G1 X166.678 Y104.616 E18.13390
G1 X166.689 Y105.692 E18.16923
G1 X164.018 Y108.363 E18.29327
G1 X163.461 Y107.850 E18.31814
G1 X162.452 Y107.070 E18.36001
G1 X161.099 Y106.230 E18.41231
G1 X159.555 Y105.506 E18.46831
G1 X158.305 Y105.084 E18.51164
G1 X156.684 Y104.724 E18.56615
