; generated by PrusaSlicer 2.2.0+win64 on 2020-05-07 at 09:12:59 UTC

; 

; external perimeters extrusion width = 0.45mm
; perimeters extrusion width = 0.45mm
; infill extrusion width = 0.45mm
; solid infill extrusion width = 0.45mm
; top infill extrusion width = 0.40mm
; first layer extrusion width = 0.42mm

M107
M190 S60 ; set bed temperature and wait for it to be reached
M104 S205 ; set temperature
G28 ; home all axes
G29 S1
G1 Z5 F5000 ; lift nozzle
M109 S205 ; set temperature and wait for it to be reached
G21 ; set units to millimeters
G90 ; use absolute coordinates
M82 ; use absolute distances for extrusion
G92 E0
; Filament gcode
G1 Z0.200 F7800.000
G10 ; retract
G92 E0
G1 X62.334 Y85.554
G11 ; unretract
G92 E0
G1 F1200.000
G1 X63.709 Y85.361 E0.04560
G1 X83.820 Y85.358 E0.70602
G1 X84.783 Y85.432 E0.73774
G1 X85.724 Y85.651 E0.76947
G1 X86.622 Y86.010 E0.80119
G1 X87.454 Y86.499 E0.83292
G1 X88.616 Y87.381 E0.88080
G1 X89.935 Y88.533 E0.93832
G1 X91.234 Y89.852 E0.99911
G1 X92.526 Y91.405 E1.06544
G1 X93.575 Y92.896 E1.12530
G1 X94.549 Y94.554 E1.18844
G1 X95.615 Y96.821 E1.27073
G1 X96.316 Y98.800 E1.33966
G1 X96.740 Y100.409 E1.39429
G1 X97.187 Y103.019 E1.48127
G1 X97.317 Y104.738 E1.53787
G1 X97.331 Y106.483 E1.59518
G1 X95.006 Y169.853 E3.67754
G1 X94.810 Y171.704 E3.73867
G1 X94.346 Y173.721 E3.80665
G1 X93.592 Y175.759 E3.87799
G1 X92.544 Y177.739 E3.95154
G1 X91.399 Y179.348 E4.01642
G1 X90.783 Y180.079 E4.04780
G1 X89.099 Y181.717 E4.12494
G1 X87.355 Y183.002 E4.19609
G1 X85.616 Y183.962 E4.26130
G1 X83.005 Y184.965 E4.35315
G1 X81.222 Y185.374 E4.41323
G1 X79.832 Y185.552 E4.45926
G1 X78.450 Y185.614 E4.50467
G1 X69.652 Y185.615 E4.79361
G1 X68.651 Y185.536 E4.82658
G1 X67.608 Y185.287 E4.86177
G1 X66.590 Y184.855 E4.89808
G1 X65.673 Y184.270 E4.93381
G1 X64.867 Y183.542 E4.96949
G1 X51.906 Y169.248 E5.60308
G1 X51.035 Y167.896 E5.65591
G1 X50.526 Y166.397 E5.70790
G1 X50.381 Y164.998 E5.75408
G1 X50.381 Y105.625 E7.70379
G1 X50.466 Y103.654 E7.76858
G1 X50.654 Y102.077 E7.82074
G1 X51.086 Y99.949 E7.89202
G1 X51.515 Y98.432 E7.94380
G1 X52.142 Y96.728 E8.00343
G1 X53.047 Y94.774 E8.07415
G1 X54.136 Y92.903 E8.14521
G1 X55.490 Y91.023 E8.22133
G1 X56.545 Y89.782 E8.27479
G1 X57.726 Y88.586 E8.33000
G1 X59.333 Y87.195 E8.39979
G1 X60.318 Y86.460 E8.44016
G1 X61.033 Y86.040 E8.46739
G1 X62.278 Y85.575 E8.51101
G10 ; retract
G92 E0
G1 X60.985 Y150.403 F7800.000
G11 ; unretract
G92 E0
G1 F1200.000
G1 X60.607 Y150.730 E0.01640
G1 X60.449 Y150.824 E0.02243
G1 X59.986 Y150.996 E0.03867
G1 X59.805 Y151.029 E0.04471
G1 X59.326 Y151.031 E0.06043
G1 X59.144 Y150.999 E0.06650
G1 X58.682 Y150.833 E0.08262
G1 X58.524 Y150.739 E0.08866
G1 X58.153 Y150.430 E0.10450
G1 X58.038 Y150.286 E0.11057
G1 X57.784 Y149.853 E0.12705
G1 X57.640 Y149.138 E0.15100
G1 X57.785 Y148.421 E0.17500
G1 X58.054 Y147.967 E0.19233
G1 X58.171 Y147.825 E0.19838
G1 X58.538 Y147.527 E0.21390
G1 X58.696 Y147.435 E0.21991
G1 X59.127 Y147.280 E0.23494
G1 X59.307 Y147.246 E0.24096
G1 X59.779 Y147.244 E0.25645
G1 X59.961 Y147.273 E0.26251
G1 X60.419 Y147.436 E0.27848
G1 X60.578 Y147.525 E0.28446
G1 X60.957 Y147.842 E0.30069
G1 X61.074 Y147.980 E0.30662
G1 X61.318 Y148.404 E0.32269
G1 X61.380 Y148.571 E0.32855
G1 X61.462 Y149.030 E0.34386
G1 X61.464 Y149.205 E0.34959
G1 X61.392 Y149.663 E0.36483
G1 X61.334 Y149.833 E0.37071
G1 X61.099 Y150.262 E0.38678
G1 X61.022 Y150.356 E0.39077
G1 X61.100 Y150.786 F7800.000
G10 ; retract
G92 E0
G1 X72.175 Y166.396
G11 ; unretract
G92 E0
G1 F1200.000
G1 X72.712 Y165.447 E0.03581
G1 X72.891 Y165.201 E0.04579
G1 X73.663 Y164.527 E0.07944
G1 X73.903 Y164.367 E0.08892
G1 X74.875 Y163.976 E0.12330
G1 X75.165 Y163.909 E0.13310
G1 X76.256 Y163.870 E0.16893
G1 X76.554 Y163.910 E0.17881
G1 X77.562 Y164.241 E0.21364
G1 X77.823 Y164.376 E0.22330
G1 X78.634 Y165.004 E0.25698
G1 X78.831 Y165.218 E0.26652
G1 X79.398 Y166.093 E0.30077
G1 X79.513 Y166.367 E0.31053
G1 X79.756 Y167.427 E0.34624
G1 X79.771 Y167.728 E0.35613
G1 X79.630 Y168.800 E0.39163
G1 X79.541 Y169.083 E0.40140
G1 X79.050 Y170.024 E0.43626
G1 X78.872 Y170.256 E0.44585
G1 X78.113 Y170.961 E0.47988
G1 X77.857 Y171.122 E0.48979
G1 X76.834 Y171.552 E0.52624
G1 X76.534 Y171.614 E0.53632
G1 X75.464 Y171.656 E0.57148
G1 X75.158 Y171.610 E0.58165
G1 X74.143 Y171.279 E0.61668
G1 X73.866 Y171.129 E0.62702
G1 X73.027 Y170.458 E0.66231
G1 X72.813 Y170.226 E0.67269
G1 X72.158 Y169.089 E0.71577
G1 X71.925 Y167.757 E0.76016
G1 X72.164 Y166.455 E0.80364
G1 X72.535 Y166.526 F7800.000
G1 F1200.000
G1 X73.029 Y165.652 E0.83664
G1 X73.171 Y165.458 E0.84452
G1 X73.892 Y164.828 E0.87598
G1 X74.080 Y164.703 E0.88339
G1 X74.988 Y164.337 E0.91553
G1 X75.215 Y164.285 E0.92317
G1 X76.237 Y164.248 E0.95678
G1 X76.470 Y164.279 E0.96446
G1 X77.415 Y164.589 E0.99713
G1 X77.619 Y164.695 E1.00468
G1 X78.378 Y165.283 E1.03621
G1 X78.532 Y165.450 E1.04365
G1 X79.063 Y166.270 E1.07575
G1 X79.153 Y166.483 E1.08334
G1 X79.381 Y167.478 E1.11688
G1 X79.392 Y167.712 E1.12456
G1 X79.260 Y168.718 E1.15788
G1 X79.191 Y168.939 E1.16547
G1 X78.731 Y169.821 E1.19816
G1 X78.592 Y170.002 E1.20563
G1 X77.882 Y170.661 E1.23746
G1 X77.683 Y170.787 E1.24519
G1 X76.722 Y171.190 E1.27942
G1 X76.488 Y171.239 E1.28728
G1 X75.485 Y171.278 E1.32023
G1 X75.245 Y171.241 E1.32821
G1 X74.293 Y170.931 E1.36108
G1 X74.075 Y170.814 E1.36920
G1 X73.285 Y170.181 E1.40244
G1 X73.118 Y170.001 E1.41050
G1 X72.518 Y168.959 E1.45001
G1 X72.308 Y167.759 E1.48999
G1 X72.524 Y166.585 E1.52918
G1 X72.894 Y166.657 F7800.000
G1 F1200.000
G1 X73.346 Y165.856 E1.55937
G1 X73.451 Y165.714 E1.56515
G1 X74.122 Y165.128 E1.59442
G1 X74.257 Y165.038 E1.59974
G1 X75.102 Y164.698 E1.62966
G1 X75.264 Y164.660 E1.63514
G1 X76.219 Y164.626 E1.66652
G1 X76.385 Y164.648 E1.67201
G1 X77.268 Y164.938 E1.70252
G1 X77.414 Y165.014 E1.70795
G1 X78.122 Y165.562 E1.73733
G1 X78.233 Y165.682 E1.74268
G1 X78.729 Y166.447 E1.77263
G1 X78.792 Y166.599 E1.77805
G1 X79.006 Y167.530 E1.80941
G1 X79.014 Y167.696 E1.81488
G1 X78.891 Y168.637 E1.84603
G1 X78.842 Y168.794 E1.85144
G1 X78.411 Y169.618 E1.88196
G1 X78.312 Y169.747 E1.88731
G1 X77.651 Y170.361 E1.91693
G1 X77.508 Y170.451 E1.92249
G1 X76.609 Y170.828 E1.95450
G1 X76.442 Y170.863 E1.96012
G1 X75.506 Y170.899 E1.99088
G1 X75.332 Y170.873 E1.99666
G1 X74.442 Y170.583 E2.02739
G1 X74.285 Y170.498 E2.03327
G1 X73.543 Y169.905 E2.06447
G1 X73.424 Y169.776 E2.07021
G1 X72.878 Y168.828 E2.10614
G1 X72.691 Y167.761 E2.14172
G1 X72.883 Y166.716 E2.17660
G1 X72.636 Y166.351 F7800.000
G10 ; retract
G92 E0
G1 X64.794 Y99.467
G11 ; unretract
G92 E0
G1 F1200.000
G1 X82.922 Y99.467 E0.59530
G1 X82.922 Y93.595 E0.78814
G1 X83.727 Y93.130 E0.81866
G1 X84.600 Y93.869 E0.85623
G1 X85.639 Y94.910 E0.90453
G1 X86.422 Y95.839 E0.94441
G1 X87.232 Y96.976 E0.99026
G1 X88.041 Y98.378 E1.04343
G1 X88.616 Y99.632 E1.08873
G1 X89.073 Y100.912 E1.13335
G1 X89.449 Y102.347 E1.18208
G1 X89.614 Y103.258 E1.21247
G1 X89.703 Y103.943 E1.23515
G1 X89.782 Y105.050 E1.27160
G1 X89.790 Y105.787 E1.29579
G1 X87.859 Y107.717 E1.38543
G1 X86.698 Y106.824 E1.43355
G1 X85.305 Y105.967 E1.48725
G1 X85.118 Y105.860 E1.49431
G1 X83.648 Y105.191 E1.54734
G1 X82.147 Y104.702 E1.59920
G1 X80.425 Y104.344 E1.65694
G1 X78.929 Y104.210 E1.70628
G1 X77.222 Y104.242 E1.76234
G1 X75.629 Y104.454 E1.81510
G1 X73.784 Y104.937 E1.87772
G1 X72.362 Y105.488 E1.92782
G1 X70.885 Y106.260 E1.98254
G1 X69.573 Y107.143 E2.03449
G1 X68.354 Y108.174 E2.08690
G1 X67.226 Y109.371 E2.14091
G1 X66.264 Y110.650 E2.19346
G1 X65.508 Y111.905 E2.24156
G1 X64.846 Y113.322 E2.29293
G1 X64.307 Y114.921 E2.34835
G1 X63.959 Y116.566 E2.40357
G1 X63.821 Y117.856 E2.44618
G1 X63.794 Y118.744 E2.47533
G1 X63.794 Y134.169 E2.98186
G1 X63.833 Y135.044 E3.01064
G1 X64.011 Y136.227 E3.04993
G1 X64.382 Y137.533 E3.09451
G1 X65.079 Y139.067 E3.14982
G1 X65.948 Y140.369 E3.20124
G1 X66.988 Y141.501 E3.25170
G1 X68.018 Y142.341 E3.29536
G1 X68.802 Y142.845 E3.32596
G1 X76.001 Y147.001 E3.59895
G1 X76.500 Y147.322 E3.61843
G1 X77.076 Y147.791 E3.64281
G1 X77.769 Y148.554 E3.67666
G1 X78.403 Y149.585 E3.71642
G1 X78.774 Y150.575 E3.75112
G1 X78.947 Y151.454 E3.78056
G1 X78.994 Y152.192 E3.80482
G1 X78.994 Y157.563 E3.98119
G1 X83.483 Y162.052 E4.18966
G1 X86.961 Y162.052 E4.30389
G1 X87.210 Y162.101 E4.31221
G1 X87.341 Y162.185 E4.31731
G1 X87.427 Y162.306 E4.32221
G1 X87.494 Y162.612 E4.33247
G1 X87.494 Y168.965 E4.54111
G1 X87.466 Y169.682 E4.56468
G1 X87.358 Y170.545 E4.59323
G1 X87.122 Y171.550 E4.62715
G1 X86.707 Y172.678 E4.66660
G1 X86.116 Y173.791 E4.70799
G1 X85.368 Y174.820 E4.74976
G1 X84.356 Y175.851 E4.79720
G1 X83.269 Y176.660 E4.84169
G1 X82.150 Y177.264 E4.88347
G1 X80.979 Y177.699 E4.92447
G1 X79.862 Y177.955 E4.96211
G1 X79.021 Y178.051 E4.98989
G1 X78.389 Y178.073 E5.01068
G1 X70.624 Y178.072 E5.26566
G1 X70.622 Y175.656 E5.34499
G1 X70.479 Y174.783 E5.37404
G1 X70.358 Y174.504 E5.38403
G1 X70.066 Y173.964 E5.40421
G1 X69.874 Y173.705 E5.41478
G1 X69.278 Y173.166 E5.44117
G1 X68.708 Y172.762 E5.46411
G1 X68.182 Y172.326 E5.48655
G1 X67.433 Y171.558 E5.52177
G1 X66.611 Y170.417 E5.56797
G1 X66.067 Y169.342 E5.60754
G1 X65.736 Y168.390 E5.64063
G1 X65.559 Y167.633 E5.66614
G1 X65.443 Y166.805 E5.69362
G1 X65.165 Y165.830 E5.72691
G1 X64.478 Y164.926 E5.76418
G1 X64.202 Y164.707 E5.77578
G1 X63.575 Y164.339 E5.79964
G1 X63.264 Y164.219 E5.81060
G1 X62.403 Y164.073 E5.83926
G1 X57.923 Y164.071 E5.98638
G1 X57.923 Y151.261 E6.40704
G1 X58.360 Y151.518 E6.42372
G1 X58.948 Y151.730 E6.44424
G1 X59.261 Y151.786 E6.45466
G1 X59.874 Y151.782 E6.47479
G1 X60.185 Y151.727 E6.48518
G1 X60.775 Y151.507 E6.50585
G1 X61.050 Y151.345 E6.51633
G1 X61.529 Y150.929 E6.53715
G1 X61.728 Y150.684 E6.54753
G1 X62.027 Y150.138 E6.56797
G1 X62.126 Y149.846 E6.57810
G1 X62.219 Y149.259 E6.59760
G1 X62.215 Y148.959 E6.60747
G1 X62.110 Y148.372 E6.62705
G1 X62.003 Y148.083 E6.63718
G1 X61.693 Y147.543 E6.65761
G1 X61.489 Y147.304 E6.66793
G1 X61.008 Y146.901 E6.68854
G1 X60.732 Y146.747 E6.69892
G1 X60.149 Y146.539 E6.71923
G1 X59.837 Y146.489 E6.72962
G1 X59.234 Y146.492 E6.74940
G1 X58.928 Y146.550 E6.75964
G1 X58.375 Y146.749 E6.77892
G1 X58.108 Y146.905 E6.78912
G1 X57.923 Y147.056 E6.79693
G1 X57.922 Y105.651 E8.15658
G1 X57.940 Y104.891 E8.18157
G1 X57.984 Y104.249 E8.20270
G1 X58.131 Y103.076 E8.24150
G1 X58.328 Y102.070 E8.27516
G1 X58.685 Y100.772 E8.31937
G1 X59.180 Y99.438 E8.36611
G1 X59.735 Y98.261 E8.40884
G1 X60.472 Y96.993 E8.45699
G1 X61.218 Y95.936 E8.49946
G1 X62.193 Y94.784 E8.54904
G1 X63.104 Y93.880 E8.59119
G1 X63.990 Y93.131 E8.62929
G1 X64.794 Y93.595 E8.65977
G1 X64.794 Y99.407 E8.85064
G1 X65.171 Y99.090 F7800.000
G1 F1200.000
G1 X82.545 Y99.090 E9.42117
G1 X82.545 Y93.377 E9.60878
G1 X83.756 Y92.678 E9.65471
G1 X84.077 Y92.923 E9.66798
G1 X84.857 Y93.593 E9.70172
G1 X85.917 Y94.655 E9.75102
G1 X86.720 Y95.608 E9.79193
G1 X87.549 Y96.772 E9.83887
G1 X88.377 Y98.205 E9.89321
G1 X88.966 Y99.490 E9.93963
G1 X89.434 Y100.800 E9.98532
G1 X89.818 Y102.266 E10.03507
G1 X89.987 Y103.200 E10.06626
G1 X90.078 Y103.905 E10.08960
G1 X90.159 Y105.035 E10.12678
G1 X90.168 Y105.941 E10.15655
G1 X87.865 Y108.245 E10.26353
G1 X87.545 Y107.951 E10.27780
G1 X86.483 Y107.135 E10.32177
G1 X84.946 Y106.197 E10.38090
G1 X83.511 Y105.543 E10.43267
G1 X82.050 Y105.067 E10.48315
G1 X80.370 Y104.718 E10.53950
G1 X78.915 Y104.587 E10.58745
G1 X77.250 Y104.619 E10.64214
G1 X75.702 Y104.825 E10.69342
G1 X73.900 Y105.296 E10.75458
G1 X72.517 Y105.832 E10.80328
G1 X71.078 Y106.584 E10.85662
G1 X69.800 Y107.445 E10.90720
G1 X68.613 Y108.449 E10.95826
G1 X67.517 Y109.610 E11.01071
G1 X66.577 Y110.861 E11.06208
G1 X65.841 Y112.082 E11.10890
G1 X65.197 Y113.462 E11.15892
G1 X64.672 Y115.021 E11.21293
G1 X64.332 Y116.626 E11.26679
G1 X64.198 Y117.882 E11.30830
G1 X64.171 Y118.749 E11.33678
G1 X64.171 Y134.160 E11.84285
G1 X64.209 Y135.008 E11.87070
G1 X64.380 Y136.147 E11.90855
G1 X64.737 Y137.403 E11.95142
G1 X65.410 Y138.883 E12.00480
G1 X66.246 Y140.136 E12.05425
G1 X67.247 Y141.226 E12.10286
G1 X68.240 Y142.036 E12.14493
G1 X68.998 Y142.523 E12.17453
G1 X76.198 Y146.679 E12.44753
G1 X76.722 Y147.017 E12.46800
G1 X77.336 Y147.517 E12.49399
G1 X78.072 Y148.326 E12.52992
G1 X78.752 Y149.442 E12.57284
G1 X79.138 Y150.471 E12.60895
G1 X79.322 Y151.406 E12.64022
G1 X79.371 Y152.180 E12.66569
G1 X79.371 Y157.406 E12.83731
G1 X83.639 Y161.675 E13.03553
G1 X86.992 Y161.675 E13.14566
G1 X87.354 Y161.745 E13.15775
G1 X87.606 Y161.907 E13.16759
G1 X87.779 Y162.150 E13.17739
G1 X87.871 Y162.571 E13.19152
G1 X87.871 Y168.972 E13.40174
G1 X87.842 Y169.713 E13.42608
G1 X87.729 Y170.612 E13.45582
G1 X87.484 Y171.659 E13.49115
G1 X87.052 Y172.832 E13.53220
G1 X86.436 Y173.991 E13.57530
G1 X85.670 Y175.047 E13.61814
G1 X84.604 Y176.137 E13.66820
G1 X83.472 Y176.979 E13.71452
G1 X82.306 Y177.608 E13.75805
G1 X81.087 Y178.061 E13.80073
G1 X79.926 Y178.327 E13.83987
G1 X79.050 Y178.428 E13.86882
G1 X78.395 Y178.450 E13.89032
G1 X70.247 Y178.449 E14.15789
G1 X70.245 Y175.687 E14.24859
G1 X70.114 Y174.891 E14.27510
G1 X70.018 Y174.669 E14.28302
G1 X69.747 Y174.167 E14.30178
G1 X69.593 Y173.960 E14.31025
G1 X69.042 Y173.461 E14.33466
G1 X68.478 Y173.062 E14.35735
G1 X67.926 Y172.603 E14.38091
G1 X67.143 Y171.802 E14.41770
G1 X66.287 Y170.614 E14.46578
G1 X65.719 Y169.489 E14.50715
G1 X65.373 Y168.495 E14.54173
G1 X65.188 Y167.702 E14.56845
G1 X65.073 Y166.883 E14.59563
G1 X64.822 Y166.001 E14.62572
G1 X64.207 Y165.192 E14.65912
G1 X63.988 Y165.018 E14.66829
G1 X63.411 Y164.679 E14.69026
G1 X63.164 Y164.585 E14.69896
G1 X62.371 Y164.450 E14.72535
G1 X57.546 Y164.448 E14.88381
G1 X57.546 Y150.517 E15.34128
G1 X57.697 Y150.464 E15.34654
G1 X57.883 Y150.695 E15.35630
G1 X58.306 Y151.048 E15.37439
G1 X58.521 Y151.175 E15.38260
G1 X59.046 Y151.364 E15.40092
G1 X59.293 Y151.409 E15.40917
G1 X59.839 Y151.406 E15.42709
G1 X60.085 Y151.361 E15.43531
G1 X60.612 Y151.165 E15.45376
G1 X60.829 Y151.037 E15.46202
G1 X61.257 Y150.666 E15.48063
G1 X61.413 Y150.473 E15.48880
G1 X61.680 Y149.985 E15.50705
G1 X61.759 Y149.754 E15.51506
G1 X61.842 Y149.232 E15.53243
G1 X61.839 Y148.994 E15.54023
G1 X61.745 Y148.472 E15.55768
G1 X61.660 Y148.243 E15.56567
G1 X61.384 Y147.761 E15.58392
G1 X61.223 Y147.573 E15.59205
G1 X60.793 Y147.213 E15.61046
G1 X60.575 Y147.092 E15.61864
G1 X60.055 Y146.906 E15.63679
G1 X59.808 Y146.866 E15.64501
G1 X59.271 Y146.869 E15.66264
G1 X59.027 Y146.915 E15.67078
G1 X58.536 Y147.092 E15.68793
G1 X58.323 Y147.216 E15.69603
G1 X57.904 Y147.556 E15.71375
G1 X57.546 Y147.993 E15.73229
G1 X57.545 Y105.647 E17.12286
G1 X57.564 Y104.873 E17.14827
G1 X57.609 Y104.212 E17.17002
G1 X57.758 Y103.016 E17.20960
G1 X57.961 Y101.984 E17.24415
G1 X58.326 Y100.656 E17.28936
G1 X58.832 Y99.291 E17.33717
G1 X59.400 Y98.085 E17.38097
G1 X60.155 Y96.790 E17.43019
G1 X60.919 Y95.705 E17.47375
G1 X61.916 Y94.528 E17.52441
G1 X62.848 Y93.602 E17.56755
G1 X63.634 Y92.928 E17.60156
G1 X63.961 Y92.679 E17.61507
G1 X65.171 Y93.377 E17.66093
G1 X65.171 Y99.030 E17.84657
G1 X65.548 Y98.713 F7800.000
G1 F1200.000
G1 X82.168 Y98.713 E18.39234
G1 X82.168 Y93.159 E18.57471
G1 X83.786 Y92.225 E18.63606
G1 X84.315 Y92.630 E18.65794
G1 X85.113 Y93.316 E18.69249
G1 X86.195 Y94.400 E18.74279
G1 X87.019 Y95.376 E18.78474
G1 X87.867 Y96.568 E18.83277
G1 X88.712 Y98.032 E18.88828
G1 X89.315 Y99.348 E18.93581
G1 X89.795 Y100.689 E18.98259
G1 X90.186 Y102.184 E19.03335
G1 X90.360 Y103.143 E19.06533
G1 X90.453 Y103.868 E19.08933
G1 X90.536 Y105.019 E19.12725
G1 X90.547 Y106.096 E19.16260
G1 X87.876 Y108.767 E19.28665
G1 X87.302 Y108.239 E19.31226
G1 X86.269 Y107.446 E19.35503
G1 X84.774 Y106.533 E19.41253
G1 X83.374 Y105.895 E19.46306
G1 X81.953 Y105.432 E19.51216
G1 X80.314 Y105.092 E19.56711
G1 X78.902 Y104.965 E19.61368
G1 X77.279 Y104.995 E19.66698
G1 X75.775 Y105.196 E19.71681
G1 X74.017 Y105.655 E19.77649
G1 X72.673 Y106.176 E19.82379
G1 X71.271 Y106.909 E19.87575
G1 X70.028 Y107.746 E19.92496
G1 X68.873 Y108.724 E19.97467
