; generated by PrusaSlicer 2.2.0+win64 on 2020-10-29 at 07:25:38 UTC

; 

; external perimeters extrusion width = 0.45mm
; perimeters extrusion width = 0.45mm
; infill extrusion width = 0.45mm
; solid infill extrusion width = 0.45mm
; top infill extrusion width = 0.40mm
; support material extrusion width = 0.35mm
; first layer extrusion width = 0.42mm

M73 P0 R24
M107
M190 S60 ; set bed temperature and wait for it to be reached
M104 S200 ; set temperature
G28 ; home all axes
;G29 S1
G1 Z5 F5000 ;E lift nozzle
M109 S200 ; set temperature and wait for it to be reached
G21 ; set units to millimeters
G90 ; use absolute coordinates
M82 ; use absolute distances for extrusion
G92 E0
; Filament gcode
G29 S1 P"heightmap_pla.csv"
M109 S200; heat nozzle to first_layer_temperature
G92 E0 ; reset extruder

G1 X0 Y200 Z0.2 F3000.0 ; move to start-line position2
G1 X0 Y20 Z0.2 F1500.0 E15 ; draw 1st line
M73 P0 R24
G1 X0.5 Y20 Z0.2 F5000.0 ; move to side a little
G1 X0.5 Y200 Z0.2F1500.0 E30 ; draw 2nd line
G92 E0 ; reset extruder
G1 Z1.0 F1000 ; move z up little to prevent scratching of surface
G1 Z0.200 F7800.000
G10 ; retract
G92 E0
G1 X123.841 Y103.012
G11 ; unretract
G92 E0
G1 F1200.000
G1 X124.629 Y102.219 E0.03265
G1 X125.511 Y101.532 E0.06530
G1 X126.473 Y100.964 E0.09794
G1 X127.500 Y100.523 E0.13059
G1 X128.575 Y100.217 E0.16324
G1 X130.286 Y100.018 E0.21355
G1 X150.046 Y99.848 E0.79081
G1 X155.790 Y100.103 E0.95876
G1 X157.304 Y100.456 E1.00418
G1 X158.732 Y101.072 E1.04960
G1 X159.542 Y101.568 E1.07734
G1 X160.287 Y102.145 E1.10488
G1 X160.966 Y102.798 E1.13241
G1 X161.571 Y103.521 E1.15994
G1 X162.095 Y104.304 E1.18747
G1 X162.532 Y105.140 E1.21500
G1 X162.876 Y106.017 E1.24254
G1 X163.124 Y106.926 E1.27007
G1 X163.321 Y108.740 E1.32335
G1 X163.321 Y156.449 E2.71704
G1 X163.194 Y157.882 E2.75906
G1 X162.837 Y159.268 E2.80086
G1 X162.374 Y160.357 E2.83543
G1 X161.769 Y161.374 E2.86999
G1 X161.027 Y162.305 E2.90477
G1 X160.172 Y163.123 E2.93934
G1 X159.214 Y163.817 E2.97390
G1 X158.164 Y164.379 E3.00868
G1 X157.055 Y164.791 E3.04325
G1 X155.893 Y165.051 E3.07802
G1 X154.597 Y165.152 E3.11600
G1 X130.317 Y165.152 E3.82528
G1 X128.921 Y165.021 E3.86624
G1 X127.564 Y164.669 E3.90719
G1 X126.409 Y164.173 E3.94389
G1 X125.344 Y163.521 E3.98037
G1 X124.382 Y162.724 E4.01685
G1 X123.539 Y161.793 E4.05355
G1 X122.838 Y160.751 E4.09024
G1 X122.296 Y159.626 E4.12672
G1 X121.918 Y158.428 E4.16342
G1 X121.716 Y157.195 E4.19990
G1 X121.680 Y108.698 E5.61660
G1 X121.807 Y107.280 E5.65819
G1 X122.163 Y105.902 E5.69978
G1 X122.599 Y104.865 E5.73264
G1 X123.161 Y103.898 E5.76529
G1 X123.805 Y103.059 E5.79618
G1 X124.104 Y103.290 F7800.000
G1 F1200.000
G1 X124.906 Y102.477 E5.82955
G1 X125.755 Y101.823 E5.86086
G1 X126.687 Y101.279 E5.89238
G1 X127.681 Y100.859 E5.92390
G1 X128.714 Y100.573 E5.95521
G1 X130.296 Y100.395 E6.00172
G1 X150.048 Y100.225 E6.57873
G1 X155.706 Y100.472 E6.74419
G1 X157.161 Y100.806 E6.78779
G1 X158.527 Y101.390 E6.83118
G1 X160.028 Y102.419 E6.88434
G1 X161.271 Y103.748 E6.93750
G1 X162.197 Y105.314 E6.99065
G1 X162.764 Y107.044 E7.04381
G1 X162.944 Y108.740 E7.09365
G1 X162.944 Y156.441 E8.48708
G1 X162.822 Y157.821 E8.52755
G1 X162.474 Y159.163 E8.56803
G1 X162.028 Y160.207 E8.60122
G1 X161.444 Y161.182 E8.63440
G1 X160.728 Y162.074 E8.66780
G1 X159.904 Y162.855 E8.70098
G1 X158.981 Y163.518 E8.73417
G1 X157.977 Y164.050 E8.76736
G1 X156.911 Y164.441 E8.80054
G1 X155.794 Y164.685 E8.83394
G1 X154.597 Y164.775 E8.86900
G1 X130.319 Y164.775 E9.57820
G1 X128.975 Y164.647 E9.61764
G1 X127.669 Y164.306 E9.65707
G1 X126.567 Y163.830 E9.69213
G1 X125.545 Y163.201 E9.72719
G1 X124.623 Y162.433 E9.76226
G1 X123.820 Y161.540 E9.79732
G1 X123.153 Y160.542 E9.83238
G1 X122.636 Y159.459 E9.86744
G1 X122.280 Y158.321 E9.90229
G1 X122.089 Y157.136 E9.93736
G1 X122.057 Y108.700 E11.35225
G1 X122.181 Y107.334 E11.39231
G1 X122.526 Y106.007 E11.43237
G1 X122.947 Y105.013 E11.46389
G1 X123.488 Y104.088 E11.49520
G1 X124.067 Y103.338 E11.52290
G10 ; retract
G92 E0
G1 X150.042 Y108.602 F7800.000
G11 ; unretract
G92 E0
G1 F1200.000
G1 X150.042 Y113.817 E0.15235
G1 X149.757 Y113.495 E0.16490
G1 X149.466 Y113.260 E0.17583
G1 X149.287 Y113.157 E0.18184
G1 X149.287 Y108.771 E0.30996
G1 X148.533 Y108.771 E0.33199
G1 X148.533 Y112.883 E0.45210
G1 X148.287 Y112.844 E0.45939
G1 X147.912 Y112.844 E0.47033
G1 X147.779 Y112.863 E0.47426
G1 X147.779 Y108.771 E0.59380
G1 X147.025 Y108.771 E0.61583
G1 X147.025 Y113.094 E0.74210
G1 X146.733 Y113.260 E0.75191
G1 X146.442 Y113.495 E0.76284
G1 X146.271 Y113.686 E0.77032
G1 X146.271 Y108.771 E0.91388
G1 X145.517 Y108.771 E0.93591
G1 X145.517 Y156.229 E2.32222
G1 X146.271 Y156.229 E2.34425
G1 X146.271 Y151.324 E2.48752
G1 X146.597 Y151.639 E2.50076
G1 X146.907 Y151.848 E2.51170
G1 X147.025 Y151.905 E2.51551
G1 X147.025 Y156.229 E2.64181
G1 X147.779 Y156.229 E2.66384
G1 X147.779 Y152.138 E2.78334
G1 X148.117 Y152.164 E2.79325
G1 X148.533 Y152.124 E2.80546
G1 X148.533 Y156.229 E2.92537
G1 X149.287 Y156.229 E2.94740
G1 X149.287 Y151.851 E3.07528
G1 X149.629 Y151.617 E3.08739
G1 X149.900 Y151.358 E3.09833
G1 X150.042 Y151.171 E3.10518
G1 X150.042 Y156.229 E3.25293
G1 X150.796 Y156.229 E3.27496
G1 X150.796 Y108.771 E4.66127
G1 X151.550 Y108.771 E4.68330
G1 X151.550 Y156.229 E6.06961
G1 X152.304 Y156.229 E6.09164
G1 X152.304 Y108.771 E7.47796
G1 X153.058 Y108.771 E7.49999
G1 X153.058 Y156.229 E8.88630
G1 X153.812 Y156.229 E8.90833
G1 X153.812 Y108.771 E10.29465
G1 X154.567 Y108.771 E10.31668
G1 X154.567 Y156.398 E11.70795
G10 ; retract
G92 E0
G1 X146.271 Y148.454 F7800.000
G11 ; unretract
G92 E0
G1 F1200.000
G1 X146.271 Y116.824 E0.92397
G1 X146.597 Y117.139 E0.93721
G1 X146.907 Y117.348 E0.94814
G1 X147.025 Y117.405 E0.95196
G1 X147.025 Y147.594 E1.83384
G1 X147.474 Y147.419 E1.84793
G1 X147.779 Y147.363 E1.85697
G1 X147.779 Y117.638 E2.72532
G1 X148.117 Y117.664 E2.73522
G1 X148.533 Y117.624 E2.74743
G1 X148.533 Y147.383 E3.61675
G1 X148.725 Y147.419 E3.62244
G1 X149.078 Y147.543 E3.63338
G1 X149.287 Y147.657 E3.64035
G1 X149.287 Y117.351 E4.52565
G1 X149.629 Y117.117 E4.53776
G1 X149.900 Y116.858 E4.54869
G1 X150.042 Y116.671 E4.55555
G1 X150.042 Y148.638 E5.48937
G10 ; retract
G92 E0
G1 X148.533 Y150.361 F7800.000
G11 ; unretract
G92 E0
G1 F1200.000
G1 X148.533 Y149.366 E0.02905
G1 X148.371 Y149.233 E0.03518
G1 X148.239 Y149.184 E0.03929
G1 X148.100 Y149.167 E0.04340
G1 X147.960 Y149.184 E0.04751
G1 X147.779 Y149.267 E0.05333
G1 X147.779 Y150.429 E0.08727
G10 ; retract
G92 E0
G1 X144.762 Y156.398 F7800.000
G11 ; unretract
G92 E0
G1 F1200.000
G1 X144.762 Y108.771 E1.39127
G1 X144.008 Y108.771 E1.41330
G1 X144.008 Y156.229 E2.79961
G1 X143.254 Y156.229 E2.82165
G1 X143.254 Y108.771 E4.20796
M73 P4 R23
G1 X142.500 Y108.771 E4.22999
G1 X142.500 Y156.229 E5.61630
G1 X141.746 Y156.229 E5.63833
G1 X141.746 Y108.771 E7.02465
G1 X140.992 Y108.771 E7.04668
G1 X140.992 Y156.229 E8.43299
G1 X140.238 Y156.229 E8.45502
G1 X140.238 Y108.771 E9.84134
G1 X139.483 Y108.771 E9.86337
G1 X139.483 Y156.229 E11.24968
G1 X138.729 Y156.229 E11.27171
G1 X138.729 Y108.771 E12.65802
G1 X137.975 Y108.771 E12.68005
G1 X137.975 Y156.229 E14.06637
G1 X137.221 Y156.229 E14.08840
G1 X137.221 Y108.771 E15.47471
G1 X136.467 Y108.771 E15.49674
G1 X136.467 Y156.229 E16.88306
G1 X135.713 Y156.229 E16.90509
G1 X135.713 Y108.771 E18.29140
G1 X134.958 Y108.771 E18.31343
G1 X134.958 Y156.229 E19.69975
G1 X134.204 Y156.229 E19.72178
G1 X134.204 Y108.771 E21.10809
G1 X133.450 Y108.771 E21.13012
G1 X133.450 Y156.229 E22.51643
G1 X132.696 Y156.229 E22.53846
G1 X132.696 Y108.771 E23.92478
G1 X131.942 Y108.771 E23.94681
G1 X131.942 Y156.229 E25.33312
G1 X131.188 Y156.229 E25.35515
G1 X131.188 Y108.771 E26.74147
G1 X130.433 Y108.771 E26.76350
G1 X130.433 Y156.398 E28.15477
G10 ; retract
G92 E0
G1 X147.779 Y115.929 F7800.000
G11 ; unretract
G92 E0
G1 F1200.000
G1 X147.779 Y114.767 E0.03394
G1 X147.960 Y114.684 E0.03977
G1 X148.100 Y114.667 E0.04387
G1 X148.239 Y114.684 E0.04798
G1 X148.371 Y114.733 E0.05209
G1 X148.533 Y114.866 E0.05822
G1 X148.533 Y115.861 E0.08727
G10 ; retract
G92 E0
G1 X149.178 Y150.494 F7800.000
G11 ; unretract
G92 E0
G1 F1200.000
G1 X148.969 Y150.731 E0.00922
G1 X148.709 Y150.911 E0.01846
G1 X148.413 Y151.022 E0.02768
G1 X148.100 Y151.061 E0.03691
G1 X147.786 Y151.022 E0.04615
G1 X147.490 Y150.911 E0.05537
G1 X147.230 Y150.731 E0.06461
G1 X147.021 Y150.494 E0.07383
G1 X146.874 Y150.215 E0.08306
G1 X146.799 Y149.908 E0.09229
G1 X146.798 Y149.592 E0.10152
G1 X146.875 Y149.285 E0.11075
G1 X147.021 Y149.006 E0.11997
G1 X147.231 Y148.769 E0.12921
G1 X147.491 Y148.590 E0.13843
G1 X147.786 Y148.477 E0.14767
G1 X148.100 Y148.440 E0.15689
G1 X148.413 Y148.477 E0.16612
G1 X148.709 Y148.590 E0.17536
G1 X148.969 Y148.769 E0.18458
G1 X149.178 Y149.006 E0.19382
G1 X149.324 Y149.285 E0.20304
G1 X149.401 Y149.592 E0.21227
G1 X149.400 Y149.908 E0.22150
G1 X149.325 Y150.215 E0.23072
G1 X149.206 Y150.441 E0.23821
G1 X149.313 Y150.780 F7800.000
G1 X149.475 Y150.715
G1 F1200.000
G1 X149.365 Y150.864 E0.24362
G1 X149.158 Y151.063 E0.25200
G1 X148.923 Y151.223 E0.26031
G1 X148.662 Y151.339 E0.26866
G1 X148.384 Y151.412 E0.27705
G1 X148.100 Y151.437 E0.28539
G1 X147.815 Y151.412 E0.29372
G1 X147.537 Y151.339 E0.30211
G1 X147.276 Y151.223 E0.31046
G1 X147.041 Y151.063 E0.31878
G1 X146.834 Y150.864 E0.32715
G1 X146.663 Y150.633 E0.33554
G1 X146.534 Y150.379 E0.34386
G1 X146.452 Y150.106 E0.35220
G1 X146.415 Y149.821 E0.36060
G1 X146.426 Y149.536 E0.36893
G1 X146.487 Y149.256 E0.37729
G1 X146.595 Y148.991 E0.38565
G1 X146.744 Y148.747 E0.39401
G1 X146.932 Y148.533 E0.40233
G1 X147.155 Y148.354 E0.41070
G1 X147.406 Y148.213 E0.41908
G1 X147.674 Y148.117 E0.42741
G1 X147.956 Y148.070 E0.43575
G1 X148.243 Y148.070 E0.44415
G1 X148.525 Y148.117 E0.45248
G1 X148.793 Y148.213 E0.46081
G1 X149.044 Y148.354 E0.46920
G1 X149.267 Y148.533 E0.47756
G1 X149.455 Y148.747 E0.48588
G1 X149.604 Y148.991 E0.49424
G1 X149.712 Y149.257 E0.50263
G1 X149.773 Y149.536 E0.51096
G1 X149.784 Y149.821 E0.51929
G1 X149.747 Y150.106 E0.52769
G1 X149.665 Y150.379 E0.53603
G1 X149.511 Y150.667 E0.54556
G1 X149.290 Y150.707 F7800.000
G10 ; retract
G92 E0
G1 X148.100 Y116.561
G11 ; unretract
G92 E0
G1 F1200.000
G1 X147.786 Y116.522 E0.00923
G1 X147.490 Y116.411 E0.01845
G1 X147.230 Y116.231 E0.02769
G1 X147.021 Y115.994 E0.03691
G1 X146.874 Y115.715 E0.04615
G1 X146.799 Y115.408 E0.05537
G1 X146.798 Y115.092 E0.06460
G1 X146.875 Y114.785 E0.07384
G1 X147.021 Y114.506 E0.08306
G1 X147.231 Y114.269 E0.09230
G1 X147.491 Y114.090 E0.10152
G1 X147.786 Y113.977 E0.11075
G1 X148.100 Y113.940 E0.11998
G1 X148.413 Y113.977 E0.12921
G1 X148.709 Y114.090 E0.13844
G1 X148.969 Y114.269 E0.14766
G1 X149.178 Y114.506 E0.15690
G1 X149.324 Y114.785 E0.16612
G1 X149.401 Y115.092 E0.17536
G1 X149.400 Y115.408 E0.18459
G1 X149.325 Y115.715 E0.19381
G1 X149.178 Y115.994 E0.20305
G1 X148.969 Y116.231 E0.21227
G1 X148.709 Y116.411 E0.22151
G1 X148.413 Y116.522 E0.23073
G1 X148.159 Y116.554 E0.23821
G1 X147.941 Y116.835 F7800.000
G1 X148.066 Y116.934
G1 F1200.000
G1 X147.815 Y116.912 E0.24555
G1 X147.537 Y116.839 E0.25395
G1 X147.276 Y116.723 E0.26230
G1 X147.041 Y116.563 E0.27062
G1 X146.834 Y116.364 E0.27899
G1 X146.663 Y116.133 E0.28737
G1 X146.534 Y115.879 E0.29570
G1 X146.452 Y115.605 E0.30406
G1 X146.415 Y115.321 E0.31244
G1 X146.426 Y115.036 E0.32077
G1 X146.487 Y114.757 E0.32910
G1 X146.595 Y114.491 E0.33750
G1 X146.744 Y114.247 E0.34585
G1 X146.932 Y114.033 E0.35417
G1 X147.155 Y113.854 E0.36253
G1 X147.406 Y113.713 E0.37092
G1 X147.674 Y113.617 E0.37925
G1 X147.956 Y113.570 E0.38758
G1 X148.243 Y113.570 E0.39598
G1 X148.525 Y113.617 E0.40432
G1 X148.793 Y113.713 E0.41265
G1 X149.044 Y113.854 E0.42103
G1 X149.267 Y114.033 E0.42940
G1 X149.455 Y114.247 E0.43772
G1 X149.604 Y114.491 E0.44607
G1 X149.712 Y114.757 E0.45447
G1 X149.773 Y115.036 E0.46280
G1 X149.784 Y115.321 E0.47113
G1 X149.747 Y115.606 E0.47953
G1 X149.665 Y115.879 E0.48787
G1 X149.536 Y116.133 E0.49619
G1 X149.365 Y116.364 E0.50457
G1 X149.158 Y116.563 E0.51294
G1 X148.923 Y116.723 E0.52127
G1 X148.662 Y116.839 E0.52962
G1 X148.384 Y116.912 E0.53801
G1 X148.126 Y116.935 E0.54558
G1 X147.942 Y116.716 F7800.000
G1 Z0.400 F7800.000
G1 X148.100 Y116.477
G1 F900.000
G1 X147.806 Y116.441 E0.55490
G1 X147.529 Y116.336 E0.56423
G1 X147.286 Y116.168 E0.57355
G1 X147.090 Y115.947 E0.58288
G1 X146.953 Y115.685 E0.59221
G1 X146.882 Y115.398 E0.60153
G1 X146.882 Y115.102 E0.61086
G1 X146.953 Y114.815 E0.62018
G1 X147.090 Y114.553 E0.62951
G1 X147.286 Y114.332 E0.63883
G1 X147.529 Y114.164 E0.64816
G1 X147.806 Y114.059 E0.65748
G1 X148.082 Y114.025 E0.66625
G1 X148.391 Y114.058 E0.67607
G1 X148.670 Y114.164 E0.68545
G1 X148.913 Y114.332 E0.69477
G1 X149.109 Y114.553 E0.70410
G1 X149.246 Y114.815 E0.71342
G1 X149.317 Y115.102 E0.72275
G1 X149.317 Y115.398 E0.73208
G1 X149.246 Y115.685 E0.74140
G1 X149.109 Y115.947 E0.75073
G1 X148.913 Y116.168 E0.76005
G1 X148.670 Y116.336 E0.76938
G1 X148.393 Y116.441 E0.77870
G1 X148.159 Y116.469 E0.78614
G1 X147.952 Y116.733 F7800.000
G1 X148.053 Y117.020
G1 F900.000
G1 X147.800 Y116.999 E0.79416
G1 X147.508 Y116.923 E0.80365
G1 X147.234 Y116.799 E0.81314
G1 X146.985 Y116.630 E0.82263
G1 X146.768 Y116.422 E0.83212
G1 X146.589 Y116.180 E0.84161
G1 X146.454 Y115.912 E0.85108
G1 X146.363 Y115.610 E0.86102
G1 X146.327 Y115.325 E0.87007
G1 X146.340 Y115.025 E0.87956
G1 X146.403 Y114.731 E0.88903
G1 X146.523 Y114.440 E0.89897
G1 X146.673 Y114.195 E0.90803
G1 X146.872 Y113.969 E0.91752
G1 X147.106 Y113.780 E0.92701
G1 X147.369 Y113.633 E0.93650
G1 X147.652 Y113.533 E0.94599
G1 X147.948 Y113.482 E0.95545
G1 X148.264 Y113.485 E0.96539
G1 X148.547 Y113.533 E0.97445
G1 X148.830 Y113.633 E0.98394
G1 X149.093 Y113.780 E0.99343
G1 X149.327 Y113.969 E1.00292
G1 X149.526 Y114.195 E1.01241
G1 X149.684 Y114.451 E1.02190
G1 X149.796 Y114.730 E1.03139
G1 X149.859 Y115.025 E1.04088
G1 X149.872 Y115.325 E1.05037
G1 X149.834 Y115.624 E1.05986
G1 X149.746 Y115.912 E1.06935
G1 X149.610 Y116.180 E1.07884
G1 X149.431 Y116.422 E1.08833
G1 X149.214 Y116.630 E1.09782
G1 X148.965 Y116.799 E1.10731
G1 X148.691 Y116.923 E1.11680
G1 X148.399 Y116.999 E1.12629
G1 X148.113 Y117.023 E1.13535
G1 X147.927 Y116.799 F7800.000
G1 X148.091 Y116.750
G1 F1200.000
G1 X147.847 Y116.725 E1.13799
G1 X147.601 Y116.660 E1.14070
G1 X147.369 Y116.558 E1.14343
G1 X147.100 Y116.366 E1.14697
G1 X146.862 Y116.094 E1.15084
G1 X146.709 Y115.811 E1.15429
G1 X146.635 Y115.553 E1.15717
G1 X146.605 Y115.313 E1.15975
G1 X146.611 Y115.059 E1.16248
G1 X146.702 Y114.712 E1.16633
G1 X146.871 Y114.392 E1.17020
G1 X147.063 Y114.169 E1.17336
G1 X147.262 Y114.011 E1.17608
G1 X147.483 Y113.886 E1.17880
G1 X147.733 Y113.796 E1.18164
G1 X148.072 Y113.754 E1.18531
G1 X148.463 Y113.795 E1.18953
G1 X148.716 Y113.886 E1.19241
G1 X148.937 Y114.011 E1.19512
G1 X149.099 Y114.134 E1.19731
G1 X149.304 Y114.359 E1.20057
G1 X149.435 Y114.577 E1.20329
G1 X149.531 Y114.812 E1.20601
G1 X149.589 Y115.077 E1.20893
G1 X149.587 Y115.423 E1.21262
G1 X149.504 Y115.774 E1.21649
G1 X149.374 Y116.035 E1.21962
G1 X149.222 Y116.238 E1.22234
G1 X149.040 Y116.415 E1.22506
G1 X148.789 Y116.581 E1.22829
G1 X148.466 Y116.702 E1.23198
G1 X148.151 Y116.746 E1.23539
G10 ; retract
G92 E0
G1 X148.082 Y148.525 F7800.000
G11 ; unretract
G92 E0
G1 F900.000
G1 X148.391 Y148.558 E0.00982
G1 X148.670 Y148.664 E0.01920
G1 X148.913 Y148.832 E0.02852
G1 X149.109 Y149.053 E0.03785
G1 X149.246 Y149.315 E0.04717
G1 X149.317 Y149.602 E0.05650
G1 X149.317 Y149.898 E0.06583
G1 X149.246 Y150.185 E0.07515
G1 X149.109 Y150.447 E0.08448
G1 X148.913 Y150.668 E0.09380
G1 X148.670 Y150.836 E0.10313
G1 X148.393 Y150.941 E0.11245
G1 X148.100 Y150.977 E0.12178
G1 X147.806 Y150.941 E0.13111
G1 X147.529 Y150.836 E0.14043
G1 X147.286 Y150.668 E0.14976
G1 X147.090 Y150.447 E0.15908
G1 X146.953 Y150.185 E0.16841
G1 X146.882 Y149.898 E0.17773
G1 X146.882 Y149.602 E0.18706
G1 X146.953 Y149.315 E0.19638
