; generated by PrusaSlicer 2.2.0+win64 on 2020-11-03 at 11:30:47 UTC

; 

; external perimeters extrusion width = 0.45mm
; perimeters extrusion width = 0.45mm
; infill extrusion width = 0.45mm
; solid infill extrusion width = 0.45mm
; top infill extrusion width = 0.40mm
; support material extrusion width = 0.35mm
; first layer extrusion width = 0.42mm

M107
M190 S70 ; set bed temperature and wait for it to be reached
M104 S200 ; set temperature
G28 ; home all axes
;G29 S1
G1 Z5 F5000 ;E lift nozzle
M109 S200 ; set temperature and wait for it to be reached
G21 ; set units to millimeters
G90 ; use absolute coordinates
M82 ; use absolute distances for extrusion
G92 E0
; Filament gcode
G29 S1 P"heightmap_pla.csv"
M109 S200; heat nozzle to first_layer_temperature
G92 E0 ; reset extruder

G1 X0 Y200 Z0.2 F3000.0 ; move to start-line position2
G1 X0 Y20 Z0.2 F1500.0 E15 ; draw 1st line
G1 X0.5 Y20 Z0.2 F5000.0 ; move to side a little
G1 X0.5 Y200 Z0.2F1500.0 E30 ; draw 2nd line
G92 E0 ; reset extruder
G1 Z1.0 F1000 ; move z up little to prevent scratching of surface
G1 Z0.200 F7800.000
G10 ; retract
G92 E0
G1 X118.485 Y113.217
G11 ; unretract
G92 E0
G1 F1200.000
G1 X127.279 Y104.421 E0.39449
G1 X128.436 Y103.518 E0.44103
G1 X129.728 Y102.822 E0.48758
G1 X131.225 Y102.325 E0.53759
G1 X132.786 Y102.105 E0.58759
G1 X148.265 Y101.691 E1.07871
G1 X152.432 Y101.689 E1.21085
G1 X153.887 Y101.812 E1.25716
G1 X155.308 Y102.177 E1.30371
G1 X156.648 Y102.775 E1.35025
G1 X157.864 Y103.584 E1.39656
G1 X158.580 Y104.219 E1.42692
G1 X165.006 Y110.651 E1.71528
G1 X165.836 Y111.690 E1.75744
G1 X166.499 Y112.841 E1.79959
G1 X167.035 Y114.270 E1.84798
G1 X167.315 Y115.770 E1.89637
G1 X168.882 Y133.426 E2.45856
G1 X168.887 Y134.602 E2.49586
G1 X168.734 Y135.768 E2.53315
G1 X168.208 Y137.469 E2.58962
G1 X167.349 Y139.029 E2.64609
G1 X156.523 Y153.897 E3.22942
G1 X155.910 Y154.632 E3.25977
G1 X155.219 Y155.295 E3.29013
G1 X154.131 Y156.095 E3.33297
G1 X152.932 Y156.718 E3.37582
G1 X145.118 Y159.588 E3.63983
G1 X144.054 Y159.849 E3.67458
G1 X142.966 Y159.976 E3.70933
G1 X141.870 Y159.965 E3.74408
G1 X140.784 Y159.818 E3.77884
G1 X139.167 Y159.344 E3.83227
G1 X132.483 Y156.958 E4.05736
G1 X131.461 Y156.506 E4.09280
G1 X130.404 Y155.856 E4.13218
G1 X129.449 Y155.062 E4.17156
G1 X128.616 Y154.141 E4.21094
G1 X127.921 Y153.112 E4.25032
G1 X127.275 Y151.722 E4.29894
G1 X116.611 Y121.832 E5.30544
G1 X116.335 Y120.749 E5.34089
G1 X116.199 Y119.633 E5.37656
G1 X116.206 Y118.515 E5.41201
G1 X116.356 Y117.407 E5.44746
G1 X116.667 Y116.266 E5.48498
G1 X117.132 Y115.170 E5.52274
G1 X117.742 Y114.147 E5.56050
G1 X118.447 Y113.264 E5.59636
G1 X118.742 Y113.500 F7800.000
G1 F1200.000
G1 X127.530 Y104.702 E5.99074
G1 X128.651 Y103.829 E6.03582
G1 X129.903 Y103.157 E6.08090
G1 X131.335 Y102.687 E6.12868
G1 X132.820 Y102.481 E6.17624
G1 X148.274 Y102.068 E6.66656
G1 X152.432 Y102.066 E6.79841
G1 X153.834 Y102.185 E6.84303
G1 X155.196 Y102.537 E6.88765
G1 X156.480 Y103.113 E6.93228
G1 X157.649 Y103.895 E6.97690
G1 X164.730 Y110.908 E7.29297
G1 X165.536 Y111.919 E7.33398
G1 X166.174 Y113.035 E7.37476
G1 X166.676 Y114.388 E7.42052
G1 X166.941 Y115.813 E7.46650
G1 X168.506 Y133.449 E8.02803
G1 X168.510 Y134.578 E8.06384
G1 X168.362 Y135.704 E8.09987
G1 X167.856 Y137.334 E8.15398
G1 X167.034 Y138.821 E8.20786
G1 X156.224 Y153.668 E8.79035
G1 X154.979 Y155.005 E8.84829
G1 X153.925 Y155.779 E8.88975
G1 X152.771 Y156.377 E8.93098
G1 X145.010 Y159.226 E9.19318
G1 X143.983 Y159.479 E9.22672
G1 X142.940 Y159.599 E9.26004
G1 X141.890 Y159.588 E9.29335
G1 X140.842 Y159.445 E9.32689
G1 X139.299 Y158.990 E9.37791
G1 X132.618 Y156.606 E9.60287
G1 X131.651 Y156.180 E9.63641
G1 X130.627 Y155.552 E9.67448
G1 X129.710 Y154.790 E9.71232
G1 X128.909 Y153.905 E9.75016
G1 X128.243 Y152.915 E9.78800
G1 X127.628 Y151.587 E9.83443
G1 X116.971 Y121.717 E10.84026
G1 X116.706 Y120.679 E10.87425
G1 X116.576 Y119.615 E10.90824
G1 X116.583 Y118.536 E10.94246
G1 X116.727 Y117.474 E10.97646
G1 X117.029 Y116.371 E11.01272
G1 X117.476 Y115.327 E11.04875
G1 X118.063 Y114.346 E11.08500
G1 X118.704 Y113.547 E11.11750
G10 ; retract
G92 E0
G1 X125.885 Y120.318 F7800.000
G11 ; unretract
G92 E0
G1 F1200.000
G1 X134.168 Y112.035 E0.37151
G1 X133.635 Y111.502 E0.39543
G1 X125.472 Y119.665 E0.76155
G1 X124.939 Y119.132 E0.78547
G1 X133.221 Y110.849 E1.15698
G10 ; retract
G92 E0
G1 X130.524 Y116.749 F7800.000
G11 ; unretract
G92 E0
G1 F1200.000
G1 X132.606 Y114.666 E0.07607
G1 X133.530 Y115.591 E0.10983
G1 X131.545 Y117.576 E0.18233
G1 X132.449 Y118.479 E0.21533
G1 X132.449 Y117.851 E0.23156
G1 X132.949 Y117.351 E0.24983
G1 X133.619 Y117.351 E0.26713
G1 X134.455 Y116.515 E0.29766
G1 X135.379 Y117.439 E0.33142
G1 X135.129 Y117.689 E0.34056
G1 X135.393 Y117.210 F7800.000
G1 F1200.000
G1 X141.337 Y111.265 E0.60718
G1 X140.804 Y110.732 E0.63110
G1 X134.980 Y116.556 E0.89234
G1 X134.446 Y116.023 E0.91626
G1 X136.301 Y114.168 E0.99945
G1 X135.768 Y113.635 E1.02336
G1 X133.913 Y115.490 E1.10655
G1 X133.380 Y114.957 E1.13047
G1 X135.235 Y113.102 E1.21365
G1 X134.701 Y112.569 E1.23757
G1 X132.847 Y114.423 E1.32076
G1 X132.575 Y114.152 E1.33292
G1 X130.107 Y116.621 E1.44365
G1 X130.378 Y116.892 E1.45581
G1 X126.538 Y120.731 E1.62803
G1 X127.072 Y121.265 E1.65194
G1 X130.911 Y117.425 E1.82416
G1 X131.445 Y117.958 E1.84808
G1 X127.605 Y121.798 E2.02029
G1 X128.138 Y122.331 E2.04421
G1 X132.098 Y118.372 E2.22180
G1 X133.184 Y125.818 F7800.000
G1 F1200.000
G1 X132.404 Y126.597 E2.25675
G1 X131.871 Y126.064 E2.28067
G1 X133.014 Y124.921 E2.33193
G1 X133.014 Y123.855 E2.36575
G1 X131.338 Y125.531 E2.44093
G1 X130.805 Y124.998 E2.46484
G1 X133.014 Y122.788 E2.56394
G1 X133.014 Y121.722 E2.59776
G1 X129.791 Y124.945 E2.74231
G1 X129.791 Y123.984 E2.77278
G1 X129.738 Y123.931 E2.77516
G1 X133.014 Y120.655 E2.92209
G1 X133.014 Y119.589 E2.95591
G1 X129.205 Y123.398 E3.12676
G1 X128.672 Y122.865 E3.15068
G1 X132.511 Y119.025 E3.32289
G1 X132.991 Y119.505 E3.34442
G1 X132.991 Y118.545 E3.37486
G1 X133.643 Y117.893 E3.40412
G1 X135.753 Y117.916 E3.47104
G1 X141.871 Y111.798 E3.74543
G1 X142.404 Y112.332 E3.76935
G1 X136.819 Y117.916 E4.01984
G1 X137.885 Y117.917 E4.05365
G1 X142.937 Y112.865 E4.28024
G1 X143.471 Y113.398 E4.30416
G1 X138.952 Y117.917 E4.50684
G1 X140.018 Y117.917 E4.54066
G1 X144.004 Y113.932 E4.71944
G1 X144.485 Y114.413 E4.74101
G1 X148.455 Y110.443 E4.91907
G1 X148.507 Y110.495 E4.92141
G1 X141.084 Y117.918 E5.25435
G1 X142.144 Y117.925 E5.28796
G1 X149.040 Y111.028 E5.59728
G1 X149.573 Y111.562 E5.62120
G1 X142.872 Y118.263 E5.92177
G1 X143.051 Y118.447 E5.92991
G1 X143.182 Y118.768 E5.94091
G1 X143.182 Y119.020 E5.94889
G1 X150.107 Y112.095 E6.25950
G1 X150.440 Y112.428 E6.27443
G1 X152.425 Y110.443 E6.36346
G1 X152.625 Y110.643 E6.37245
G1 X143.182 Y120.086 E6.79599
G1 X143.182 Y121.152 E6.82981
G1 X153.158 Y111.176 E7.27726
G1 X153.691 Y111.710 E7.30118
G1 X143.183 Y122.219 E7.77253
G1 X143.183 Y123.285 E7.80635
G1 X154.225 Y112.243 E8.30161
G1 X154.758 Y112.776 E8.32553
G1 X152.903 Y114.631 E8.40871
G1 X153.437 Y115.164 E8.43263
G1 X155.291 Y113.310 E8.51582
G1 X155.825 Y113.843 E8.53974
G1 X153.970 Y115.697 E8.62292
G1 X154.503 Y116.231 E8.64684
G1 X156.358 Y114.376 E8.73002
G1 X156.891 Y114.909 E8.75394
G1 X151.986 Y119.814 E8.97394
G1 X151.986 Y120.881 E9.00777
G1 X157.424 Y115.443 E9.25169
G1 X157.958 Y115.976 E9.27561
G1 X151.986 Y121.947 E9.54345
G1 X151.986 Y123.014 E9.57727
G1 X158.491 Y116.509 E9.86903
G1 X158.602 Y116.621 E9.87403
G1 X156.618 Y118.606 E9.96306
G1 X157.039 Y119.027 E9.98198
G1 X151.986 Y124.080 E10.20862
G1 X151.986 Y125.147 E10.24245
G1 X157.573 Y119.561 E10.49302
G1 X158.106 Y120.094 E10.51693
G1 X151.816 Y126.383 E10.79903
G10 ; retract
G92 E0
G1 X155.076 Y125.256 F7800.000
G11 ; unretract
G92 E0
G1 F1200.000
G1 X155.209 Y125.124 E0.00594
G1 X155.209 Y124.057 E0.03977
G1 X151.986 Y127.280 E0.18432
G1 X151.986 Y128.347 E0.21815
G1 X153.218 Y127.115 E0.27338
G1 X153.751 Y127.648 E0.29730
G1 X151.986 Y129.413 E0.37646
G1 X151.986 Y130.480 E0.41028
G1 X154.284 Y128.182 E0.51336
G1 X154.817 Y128.715 E0.53727
G1 X151.986 Y131.546 E0.66427
G1 X151.986 Y132.613 E0.69809
G1 X155.351 Y129.248 E0.84900
G1 X155.884 Y129.781 E0.87292
G1 X151.986 Y133.679 E1.04775
G1 X151.986 Y134.746 E1.08158
G1 X156.417 Y130.315 E1.28033
G1 X156.950 Y130.848 E1.30424
G1 X151.986 Y135.812 E1.52691
G1 X151.986 Y136.879 E1.56074
G1 X157.484 Y131.381 E1.80732
G1 X158.017 Y131.915 E1.83124
G1 X151.986 Y137.945 E2.10175
G1 X151.986 Y139.012 E2.13557
G1 X158.550 Y132.448 E2.43000
G1 X159.084 Y132.981 E2.45391
G1 X151.909 Y140.155 E2.77569
G1 X151.681 Y141.450 E2.81740
G1 X159.617 Y133.514 E3.17334
G1 X160.150 Y134.048 E3.19725
G1 X151.867 Y142.330 E3.56876
G10 ; retract
G92 E0
G1 X148.608 Y123.192 F7800.000
G11 ; unretract
G92 E0
G1 F1200.000
G1 X148.817 Y122.984 E0.00936
G1 X148.817 Y121.917 E0.04320
G1 X148.195 Y122.539 E0.07111
G1 X147.662 Y122.006 E0.09503
G1 X148.818 Y120.850 E0.14688
G1 X148.818 Y119.783 E0.18072
G1 X147.128 Y121.472 E0.25650
G1 X146.595 Y120.939 E0.28042
G1 X148.570 Y118.964 E0.36899
G10 ; retract
G92 E0
G1 X151.816 Y118.917 F7800.000
G11 ; unretract
G92 E0
G1 F1200.000
G1 X152.009 Y118.725 E0.00864
G1 X152.009 Y117.893 E0.03502
G1 X151.774 Y117.893 E0.04246
G1 X151.609 Y118.059 E0.04989
G1 X151.466 Y117.916 E0.05630
G1 X150.685 Y117.915 E0.08106
G1 X150.878 Y117.723 E0.08970
G1 X149.913 Y117.693 F7800.000
G1 F1200.000
G1 X152.697 Y114.909 E0.19140
G1 X153.622 Y115.833 E0.22516
G1 X151.965 Y117.489 E0.28565
G10 ; retract
G92 E0
G1 X145.621 Y148.411 F7800.000
G11 ; unretract
G92 E0
G1 F1200.000
G1 X142.492 Y149.560 E0.10572
G1 X139.381 Y148.400 E0.21102
G1 X139.380 Y143.211 E0.37561
G1 X139.407 Y142.812 E0.38829
G1 X139.529 Y142.281 E0.40558
G1 X139.743 Y141.772 E0.42307
G1 X139.965 Y141.417 E0.43636
G1 X140.389 Y140.940 E0.45661
G1 X140.702 Y140.691 E0.46929
G1 X141.116 Y140.448 E0.48452
G1 X141.627 Y140.245 E0.50196
G1 X142.119 Y140.149 E0.51785
G1 X142.415 Y140.130 E0.52726
G1 X142.918 Y140.143 E0.54322
G1 X143.562 Y140.306 E0.56428
G1 X144.012 Y140.510 E0.57996
G1 X144.358 Y140.737 E0.59308
G1 X144.707 Y141.031 E0.60756
G1 X145.077 Y141.484 E0.62610
G1 X145.346 Y141.958 E0.64339
G1 X145.481 Y142.314 E0.65545
G1 X145.572 Y142.688 E0.66769
G1 X145.620 Y143.194 E0.68378
G1 X145.621 Y148.351 E0.84736
G1 X145.244 Y148.148 F7800.000
G1 F1200.000
G1 X142.493 Y149.158 E0.94031
G1 X139.758 Y148.138 E1.03288
G1 X139.757 Y143.223 E1.18876
G1 X139.781 Y142.867 E1.20008
G1 X139.889 Y142.397 E1.21540
G1 X140.078 Y141.947 E1.23088
G1 X140.268 Y141.644 E1.24221
G1 X140.649 Y141.215 E1.26042
G1 X140.916 Y141.003 E1.27121
G1 X141.282 Y140.788 E1.28470
G1 X141.734 Y140.608 E1.30011
G1 X142.167 Y140.523 E1.31411
G1 X142.422 Y140.507 E1.32221
G1 X142.866 Y140.519 E1.33630
G1 X143.436 Y140.664 E1.35496
G1 X143.830 Y140.842 E1.36866
G1 X144.133 Y141.040 E1.38013
G1 X144.437 Y141.297 E1.39278
G1 X144.765 Y141.697 E1.40919
G1 X145.004 Y142.119 E1.42455
G1 X145.120 Y142.425 E1.43495
G1 X145.199 Y142.751 E1.44559
G1 X145.243 Y143.212 E1.46026
G1 X145.244 Y148.088 E1.61491
G1 X144.867 Y147.885 F7800.000
G1 F1200.000
G1 X142.494 Y148.756 E1.69508
G1 X140.135 Y147.877 E1.77493
G1 X140.134 Y143.236 E1.92210
G1 X140.155 Y142.923 E1.93207
G1 X140.249 Y142.513 E1.94540
G1 X140.414 Y142.121 E1.95888
G1 X140.571 Y141.871 E1.96824
G1 X140.909 Y141.490 E1.98441
G1 X141.130 Y141.315 E1.99333
G1 X141.449 Y141.128 E2.00507
G1 X141.841 Y140.971 E2.01846
G1 X142.216 Y140.898 E2.03057
G1 X142.429 Y140.885 E2.03736
G1 X142.814 Y140.895 E2.04957
G1 X143.311 Y141.021 E2.06584
G1 X143.648 Y141.173 E2.07755
G1 X143.907 Y141.343 E2.08738
G1 X144.168 Y141.563 E2.09820
G1 X144.453 Y141.911 E2.11248
G1 X144.661 Y142.279 E2.12590
G1 X144.759 Y142.537 E2.13464
G1 X144.826 Y142.814 E2.14368
G1 X144.866 Y143.230 E2.15692
G1 X144.867 Y147.825 E2.30265
G1 X144.961 Y148.274 F7800.000
G10 ; retract
G92 E0
G1 X141.130 Y128.332
G11 ; unretract
G92 E0
G1 F1200.000
G1 X149.933 Y128.332 E0.27919
G1 X149.933 Y139.541 E0.63469
G1 X148.477 Y147.800 E0.90066
G1 X142.490 Y149.998 E1.10296
G1 X136.536 Y147.874 E1.30344
G1 X135.067 Y139.541 E1.57181
G1 X135.067 Y119.968 E2.19257
G1 X141.124 Y119.970 E2.38468
G1 X141.130 Y128.272 E2.64798
G1 X141.507 Y127.955 F7800.000
G1 F1200.000
G1 X150.310 Y127.955 E2.92718
G1 X150.310 Y139.574 E3.29568
G1 X148.811 Y148.079 E3.56958
G1 X142.491 Y150.399 E3.78309
G1 X136.203 Y148.156 E3.99485
G1 X134.690 Y139.574 E4.27123
G1 X134.690 Y119.591 E4.90499
G1 X141.501 Y119.593 E5.12102
G1 X141.507 Y127.895 E5.38431
G1 X141.884 Y127.578 F7800.000
G1 F1200.000
G1 X150.114 Y127.578 E5.64533
G1 X150.117 Y119.214 E5.91059
G1 X150.688 Y119.214 E5.92869
G1 X150.688 Y139.607 E6.57546
G1 X149.145 Y148.358 E6.85729
G1 X142.493 Y150.800 E7.08201
G1 X135.870 Y148.437 E7.30506
G1 X134.312 Y139.607 E7.58944
G1 X134.312 Y119.214 E8.23621
G1 X141.878 Y119.217 E8.47615
G1 X141.884 Y127.518 E8.73943
G1 X141.981 Y127.966 F7800.000
G10 ; retract
G92 E0
G1 X141.031 Y120.919
G11 ; unretract
G92 E0
G1 F1200.000
G1 X140.346 Y120.234 E0.03084
G1 X139.810 Y120.234 E0.04790
G1 X140.861 Y121.285 E0.09523
G1 X140.862 Y121.821 E0.11230
G1 X139.275 Y120.234 E0.18378
G1 X138.739 Y120.234 E0.20084
G1 X140.862 Y122.357 E0.29647
G1 X140.862 Y122.893 E0.31354
G1 X138.203 Y120.233 E0.43331
G1 X137.667 Y120.233 E0.45037
G1 X140.863 Y123.429 E0.59428
G1 X140.863 Y123.964 E0.61135
G1 X137.132 Y120.233 E0.77941
G1 X136.596 Y120.233 E0.79647
G1 X140.864 Y124.500 E0.98868
G1 X140.864 Y125.036 E1.00575
G1 X136.060 Y120.233 E1.22210
G1 X135.525 Y120.233 E1.23916
G1 X140.864 Y125.572 E1.47966
G1 X140.865 Y126.108 E1.49672
G1 X135.331 Y120.574 E1.74599
G1 X135.331 Y121.109 E1.76304
G1 X140.865 Y126.644 E2.01233
G1 X140.866 Y127.180 E2.02939
G1 X135.331 Y121.645 E2.27869
G1 X135.331 Y122.180 E2.29575
G1 X140.866 Y127.716 E2.54507
G1 X140.866 Y128.252 E2.56213
G1 X135.331 Y122.716 E2.81147
G1 X135.331 Y123.251 E2.82853
G1 X149.669 Y137.590 E3.47436
G1 X149.669 Y137.055 E3.49141
G1 X141.211 Y128.596 E3.87240
G1 X141.746 Y128.596 E3.88946
G1 X149.669 Y136.519 E4.24633
G1 X149.669 Y135.984 E4.26338
G1 X142.282 Y128.596 E4.59613
G1 X142.817 Y128.596 E4.61319
G1 X149.669 Y135.448 E4.92182
G1 X149.669 Y134.913 E4.93887
G1 X143.353 Y128.596 E5.22339
G1 X143.888 Y128.596 E5.24044
G1 X149.669 Y134.377 E5.50083
G1 X149.669 Y133.842 E5.51789
G1 X144.424 Y128.596 E5.75416
G1 X144.959 Y128.596 E5.77122
G1 X149.669 Y133.306 E5.98337
G1 X149.669 Y132.771 E6.00042
G1 X145.495 Y128.596 E6.18846
G1 X146.030 Y128.596 E6.20551
G1 X149.669 Y132.235 E6.36943
G1 X149.669 Y131.700 E6.38648
G1 X146.566 Y128.596 E6.52628
G1 X147.101 Y128.596 E6.54333
G1 X149.669 Y131.164 E6.65901
G1 X149.669 Y130.629 E6.67606
G1 X147.637 Y128.596 E6.76762
G1 X148.172 Y128.596 E6.78467
G1 X149.669 Y130.093 E6.85211
G1 X149.669 Y129.558 E6.86917
G1 X148.708 Y128.596 E6.91248
G1 X149.243 Y128.596 E6.92954
G1 X149.839 Y129.192 E6.95638
G1 X150.401 Y127.766 F7800.000
G1 F1200.000
G1 X150.402 Y119.403 E7.09462
G10 ; retract
G92 E0
G1 X149.839 Y138.295 F7800.000
G11 ; unretract
G92 E0
G1 F1200.000
G1 X135.331 Y123.787 E0.65348
G1 X135.331 Y124.322 E0.67053
G1 X149.669 Y138.661 E1.31636
G1 X149.669 Y139.197 E1.33342
G1 X135.331 Y124.858 E1.97925
G1 X135.331 Y125.393 E1.99631
G1 X149.637 Y139.700 E2.64069
G1 X149.557 Y140.155 E2.65541
G1 X135.331 Y125.929 E3.29618
G1 X135.331 Y126.464 E3.31324
G1 X149.477 Y140.611 E3.95039
G1 X149.396 Y141.066 E3.96512
G1 X135.331 Y127.000 E4.59865
G1 X135.331 Y127.535 E4.61571
G1 X149.316 Y141.521 E5.24563
G1 X149.236 Y141.976 E5.26035
G1 X135.331 Y128.071 E5.88666
G1 X135.331 Y128.606 E5.90372
G1 X149.156 Y142.432 E6.52641
G1 X149.075 Y142.887 E6.54113
G1 X135.331 Y129.142 E7.16021
G1 X135.331 Y129.677 E7.17726
G1 X148.995 Y143.342 E7.79273
G1 X148.915 Y143.797 E7.80745
G1 X135.331 Y130.213 E8.41930
G1 X135.331 Y130.748 E8.43635
G1 X148.835 Y144.252 E9.04458
G1 X148.754 Y144.708 E9.05930
G1 X135.331 Y131.284 E9.66392
G1 X135.331 Y131.819 E9.68097
