; generated by PrusaSlicer 2.2.0+win64 on 2020-05-07 at 09:13:57 UTC

; 

; external perimeters extrusion width = 0.45mm
; perimeters extrusion width = 0.45mm
; infill extrusion width = 0.45mm
; solid infill extrusion width = 0.45mm
; top infill extrusion width = 0.40mm
; first layer extrusion width = 0.42mm

M107
M190 S60 ; set bed temperature and wait for it to be reached
M104 S205 ; set temperature
G28 ; home all axes
G29 S1
G1 Z5 F5000 ; lift nozzle
M109 S205 ; set temperature and wait for it to be reached
G21 ; set units to millimeters
G90 ; use absolute coordinates
M82 ; use absolute distances for extrusion
G92 E0
; Filament gcode
G1 Z0.200 F7800.000
G10 ; retract
G92 E0
G1 X126.534 Y89.299
G11 ; unretract
G92 E0
G1 F1200.000
G1 X126.839 Y88.441 E0.02989
G1 X127.259 Y87.641 E0.05957
G1 X128.284 Y86.030 E0.12226
G1 X129.769 Y84.080 E0.20276
G1 X131.194 Y82.507 E0.27247
G1 X132.939 Y80.890 E0.35060
G1 X135.427 Y79.019 E0.45281
G1 X137.256 Y77.907 E0.52311
G1 X139.218 Y76.932 E0.59504
G1 X142.032 Y75.858 E0.69394
G1 X144.002 Y75.316 E0.76106
G1 X146.001 Y74.930 E0.82789
G1 X147.941 Y74.705 E0.89202
G1 X150.003 Y74.624 E0.95981
G1 X151.905 Y74.693 E1.02229
G1 X153.910 Y74.916 E1.08855
G1 X156.059 Y75.330 E1.16041
G1 X158.110 Y75.903 E1.23034
G1 X159.952 Y76.576 E1.29474
G1 X162.692 Y77.881 E1.39443
G1 X164.357 Y78.874 E1.45807
G1 X166.019 Y80.047 E1.52487
G1 X167.611 Y81.367 E1.59279
G1 X169.247 Y82.967 E1.66794
G1 X170.781 Y84.756 E1.74531
G1 X172.266 Y86.863 E1.82994
G1 X173.876 Y89.803 E1.94004
G1 X174.801 Y92.022 E2.01898
G1 X175.539 Y94.413 E2.10114
G1 X176.110 Y97.269 E2.19679
G1 X176.315 Y99.193 E2.26035
G1 X176.377 Y100.930 E2.31739
G1 X176.377 Y169.020 E4.55336
G1 X176.320 Y170.720 E4.60923
G1 X176.088 Y172.867 E4.68014
G1 X175.653 Y175.136 E4.75600
G1 X174.799 Y177.966 E4.85306
G1 X173.881 Y180.201 E4.93243
G1 X172.625 Y182.559 E5.02016
G1 X171.012 Y184.944 E5.11471
G1 X169.019 Y187.273 E5.21536
G1 X167.312 Y188.901 E5.29281
G1 X165.174 Y190.576 E5.38201
G1 X162.925 Y191.994 E5.46933
G1 X160.242 Y193.307 E5.56742
G1 X157.737 Y194.218 E5.65492
G1 X155.222 Y194.856 E5.74015
G1 X152.303 Y195.276 E5.83700
G1 X149.697 Y195.376 E5.92261
G1 X146.901 Y195.195 E6.01464
G1 X144.232 Y194.737 E6.10357
G1 X141.622 Y194.012 E6.19252
G1 X139.444 Y193.169 E6.26921
G1 X136.323 Y191.549 E6.38470
G1 X134.310 Y190.204 E6.46419
G1 X132.036 Y188.311 E6.56134
G1 X130.674 Y186.952 E6.62451
G1 X129.235 Y185.261 E6.69742
G1 X127.758 Y183.178 E6.78130
G1 X126.338 Y180.641 E6.87675
G1 X125.409 Y178.540 E6.95222
G1 X124.509 Y175.778 E7.04759
G1 X123.928 Y172.997 E7.14090
G1 X123.646 Y169.924 E7.24223
G1 X123.655 Y167.753 E7.31352
G1 X126.306 Y90.775 E9.84284
G1 X126.525 Y89.358 E9.88992
G10 ; retract
G92 E0
G1 X168.429 Y137.492 F7800.000
G11 ; unretract
G92 E0
G1 F1200.000
G1 X168.295 Y138.346 E0.02838
G1 X168.182 Y138.627 E0.03834
G1 X167.872 Y139.199 E0.05969
G1 X167.672 Y139.438 E0.06994
G1 X167.169 Y139.892 E0.09218
G1 X166.904 Y140.052 E0.10235
G1 X166.303 Y140.304 E0.12376
G1 X165.998 Y140.369 E0.13398
G1 X165.334 Y140.410 E0.15582
G1 X165.026 Y140.377 E0.16599
G1 X164.231 Y140.137 E0.19326
G1 X163.607 Y139.711 E0.21807
G1 X163.410 Y139.539 E0.22667
G1 X162.878 Y138.799 E0.25661
G1 X162.637 Y138.050 E0.28244
G1 X162.601 Y137.772 E0.29163
G1 X162.609 Y137.140 E0.31241
G1 X162.658 Y136.860 E0.32174
G1 X162.914 Y136.147 E0.34661
G1 X163.053 Y135.927 E0.35515
G1 X163.529 Y135.349 E0.37975
G1 X163.732 Y135.189 E0.38825
G1 X164.382 Y134.798 E0.41315
G1 X165.189 Y134.603 E0.44041
G1 X165.500 Y134.587 E0.45063
G1 X166.149 Y134.663 E0.47209
G1 X166.444 Y134.743 E0.48215
G1 X167.027 Y135.022 E0.50336
G1 X167.289 Y135.200 E0.51378
G1 X167.779 Y135.688 E0.53649
G1 X167.967 Y135.950 E0.54706
G1 X168.275 Y136.586 E0.57027
G1 X168.419 Y137.433 E0.59847
G1 X168.047 Y137.494 F7800.000
G1 F1200.000
G1 X167.929 Y138.245 E0.62343
G1 X167.840 Y138.467 E0.63127
G1 X167.559 Y138.986 E0.65066
G1 X167.399 Y139.176 E0.65880
G1 X166.943 Y139.588 E0.67898
G1 X166.732 Y139.715 E0.68706
G1 X166.189 Y139.943 E0.70640
G1 X165.947 Y139.994 E0.71454
G1 X165.343 Y140.032 E0.73442
G1 X165.102 Y140.006 E0.74238
G1 X164.396 Y139.793 E0.76659
G1 X163.838 Y139.412 E0.78877
G1 X163.690 Y139.284 E0.79520
G1 X163.219 Y138.627 E0.82175
G1 X163.006 Y137.967 E0.84451
G1 X162.978 Y137.750 E0.85169
G1 X162.985 Y137.175 E0.87057
G1 X163.024 Y136.957 E0.87785
G1 X163.255 Y136.313 E0.90031
G1 X163.359 Y136.148 E0.90672
G1 X163.794 Y135.620 E0.92919
G1 X163.947 Y135.500 E0.93558
G1 X164.527 Y135.151 E0.95781
G1 X165.243 Y134.978 E0.98201
G1 X165.487 Y134.965 E0.99004
G1 X166.077 Y135.034 E1.00954
G1 X166.313 Y135.098 E1.01755
G1 X166.838 Y135.350 E1.03669
G1 X167.048 Y135.492 E1.04502
G1 X167.491 Y135.933 E1.06554
G1 X167.641 Y136.143 E1.07403
G1 X167.912 Y136.702 E1.09441
G1 X168.036 Y137.435 E1.11883
G1 X167.664 Y137.497 F7800.000
G1 F1200.000
G1 X167.563 Y138.145 E1.14037
G1 X167.498 Y138.306 E1.14609
G1 X167.245 Y138.773 E1.16352
G1 X167.127 Y138.914 E1.16955
G1 X166.718 Y139.283 E1.18767
G1 X166.561 Y139.378 E1.19367
G1 X166.076 Y139.581 E1.21094
G1 X165.896 Y139.620 E1.21699
G1 X165.352 Y139.654 E1.23490
G1 X165.177 Y139.635 E1.24066
G1 X164.560 Y139.449 E1.26181
G1 X163.971 Y139.028 E1.28559
G1 X163.560 Y138.455 E1.30876
G1 X163.376 Y137.884 E1.32845
G1 X163.356 Y137.728 E1.33361
G1 X163.362 Y137.211 E1.35061
G1 X163.390 Y137.054 E1.35582
G1 X163.596 Y136.479 E1.37588
G1 X163.665 Y136.369 E1.38015
G1 X164.059 Y135.891 E1.40049
G1 X164.161 Y135.811 E1.40477
G1 X164.671 Y135.504 E1.42433
G1 X165.297 Y135.353 E1.44547
G1 X165.475 Y135.343 E1.45132
G1 X166.006 Y135.405 E1.46886
G1 X166.181 Y135.453 E1.47482
G1 X166.650 Y135.677 E1.49189
G1 X166.807 Y135.784 E1.49813
G1 X167.202 Y136.178 E1.51646
G1 X167.316 Y136.337 E1.52287
G1 X167.549 Y136.818 E1.54043
G1 X167.654 Y137.437 E1.56106
G1 X168.010 Y137.699 F7800.000
G10 ; retract
G92 E0
G1 X161.513 Y149.871
G11 ; unretract
G92 E0
G1 F1200.000
G1 X162.724 Y150.667 E0.04759
G1 X163.501 Y151.725 E0.09071
G1 X163.824 Y152.639 E0.12253
G1 X163.914 Y153.437 E0.14889
G1 X163.914 Y158.574 E0.31759
G1 X163.800 Y159.457 E0.34684
G1 X163.513 Y160.216 E0.37349
G1 X163.352 Y160.524 E0.38489
G1 X162.623 Y161.426 E0.42297
G1 X161.460 Y162.153 E0.46802
G1 X160.012 Y162.436 E0.51648
G1 X158.568 Y162.165 E0.56472
G1 X157.383 Y161.435 E0.61043
G1 X156.568 Y160.409 E0.65343
G1 X156.192 Y159.436 E0.68770
G1 X156.086 Y158.571 E0.71632
G1 X156.086 Y153.436 E0.88493
G1 X156.178 Y152.625 E0.91175
G1 X156.564 Y151.599 E0.94774
G1 X157.419 Y150.534 E0.99257
G1 X158.694 Y149.793 E1.04103
G1 X160.136 Y149.572 E1.08892
G1 X161.454 Y149.858 E1.13323
G1 X161.365 Y150.225 F7800.000
G1 F1200.000
G1 X162.460 Y150.945 E1.17628
G1 X163.164 Y151.904 E1.21534
G1 X163.454 Y152.724 E1.24392
G1 X163.537 Y153.458 E1.26816
G1 X163.537 Y158.550 E1.43538
G1 X163.432 Y159.365 E1.46238
G1 X163.169 Y160.061 E1.48682
G1 X163.035 Y160.316 E1.49625
G1 X162.370 Y161.140 E1.53103
G1 X161.319 Y161.796 E1.57172
G1 X160.010 Y162.052 E1.61551
G1 X158.706 Y161.807 E1.65908
G1 X157.637 Y161.148 E1.70033
G1 X156.899 Y160.220 E1.73927
G1 X156.560 Y159.344 E1.77011
G1 X156.463 Y158.548 E1.79644
G1 X156.463 Y153.458 E1.96360
G1 X156.547 Y152.714 E1.98818
G1 X156.895 Y151.788 E2.02066
G1 X157.669 Y150.825 E2.06121
G1 X158.823 Y150.154 E2.10508
G1 X160.122 Y149.955 E2.14821
G1 X161.306 Y150.212 E2.18800
G1 X161.216 Y150.578 F7800.000
G1 F1200.000
G1 X162.197 Y151.222 E2.22652
G1 X162.827 Y152.082 E2.26152
G1 X163.084 Y152.809 E2.28686
G1 X163.160 Y153.479 E2.30899
G1 X163.160 Y158.526 E2.47471
G1 X163.064 Y159.273 E2.49947
G1 X162.824 Y159.906 E2.52169
G1 X162.718 Y160.107 E2.52915
G1 X162.116 Y160.854 E2.56065
G1 X161.179 Y161.440 E2.59695
G1 X160.009 Y161.668 E2.63609
G1 X158.845 Y161.449 E2.67499
G1 X157.891 Y160.862 E2.71177
G1 X157.230 Y160.030 E2.74665
G1 X156.929 Y159.251 E2.77407
G1 X156.840 Y158.525 E2.79811
G1 X156.840 Y153.479 E2.96381
G1 X156.917 Y152.803 E2.98616
G1 X157.227 Y151.977 E3.01512
G1 X157.919 Y151.116 E3.05140
G1 X158.953 Y150.515 E3.09066
G1 X160.108 Y150.338 E3.12904
G1 X161.157 Y150.566 E3.16431
G1 X161.534 Y150.336 F7800.000
G10 ; retract
G92 E0
G1 X165.353 Y166.078
G11 ; unretract
G92 E0
G1 F1200.000
G1 X166.188 Y166.169 E0.02755
G1 X166.484 Y166.258 E0.03771
G1 X167.056 Y166.539 E0.05865
G1 X167.309 Y166.716 E0.06878
G1 X167.773 Y167.180 E0.09034
G1 X167.956 Y167.434 E0.10061
G1 X168.270 Y168.071 E0.12393
G1 X168.429 Y168.989 E0.15452
G1 X168.298 Y169.834 E0.18259
G1 X168.187 Y170.116 E0.19255
G1 X167.878 Y170.690 E0.21396
G1 X167.678 Y170.933 E0.22429
G1 X167.178 Y171.385 E0.24642
G1 X166.912 Y171.548 E0.25665
G1 X166.305 Y171.803 E0.27829
G1 X165.994 Y171.870 E0.28872
G1 X165.314 Y171.911 E0.31111
G1 X165.002 Y171.869 E0.32144
G1 X164.373 Y171.691 E0.34292
G1 X164.098 Y171.551 E0.35302
G1 X163.563 Y171.182 E0.37439
G1 X163.349 Y170.962 E0.38446
G1 X162.968 Y170.447 E0.40548
G1 X162.834 Y170.175 E0.41546
G1 X162.653 Y169.606 E0.43505
G1 X162.596 Y169.292 E0.44553
G1 X162.636 Y168.409 E0.47458
G1 X162.919 Y167.644 E0.50134
G1 X163.054 Y167.419 E0.50997
G1 X163.531 Y166.849 E0.53436
G1 X163.729 Y166.689 E0.54274
G1 X164.385 Y166.297 E0.56781
G1 X165.295 Y166.091 E0.59845
G1 X165.372 Y166.460 F7800.000
G1 F1200.000
G1 X166.112 Y166.540 E0.62290
G1 X166.345 Y166.610 E0.63089
G1 X166.864 Y166.865 E0.64987
G1 X167.066 Y167.006 E0.65797
G1 X167.485 Y167.425 E0.67742
G1 X167.631 Y167.629 E0.68566
G1 X167.908 Y168.189 E0.70617
G1 X168.047 Y168.992 E0.73294
G1 X167.932 Y169.734 E0.75760
G1 X167.844 Y169.956 E0.76544
G1 X167.563 Y170.479 E0.78492
G1 X167.404 Y170.671 E0.79312
G1 X166.951 Y171.082 E0.81320
G1 X166.740 Y171.211 E0.82134
G1 X166.191 Y171.442 E0.84087
G1 X165.943 Y171.495 E0.84920
G1 X165.327 Y171.532 E0.86946
G1 X165.079 Y171.499 E0.87771
G1 X164.511 Y171.338 E0.89708
G1 X164.292 Y171.227 E0.90515
G1 X163.808 Y170.893 E0.92447
G1 X163.638 Y170.717 E0.93249
G1 X163.292 Y170.250 E0.95158
G1 X163.185 Y170.033 E0.95952
G1 X163.020 Y169.515 E0.97737
G1 X162.975 Y169.267 E0.98565
G1 X163.010 Y168.484 E1.01138
G1 X163.261 Y167.808 E1.03507
G1 X163.362 Y167.638 E1.04157
G1 X163.797 Y167.120 E1.06377
G1 X163.946 Y166.999 E1.07007
G1 X164.529 Y166.650 E1.09238
G1 X165.313 Y166.472 E1.11880
G1 X165.391 Y166.841 F7800.000
G1 F1200.000
G1 X166.037 Y166.911 E1.14014
G1 X166.207 Y166.962 E1.14597
G1 X166.672 Y167.191 E1.16299
G1 X166.823 Y167.296 E1.16905
G1 X167.197 Y167.670 E1.18639
G1 X167.307 Y167.823 E1.19260
G1 X167.546 Y168.307 E1.21031
G1 X167.664 Y168.996 E1.23326
G1 X167.566 Y169.635 E1.25451
G1 X167.502 Y169.797 E1.26023
G1 X167.249 Y170.267 E1.27777
G1 X167.131 Y170.410 E1.28385
G1 X166.724 Y170.779 E1.30187
G1 X166.567 Y170.875 E1.30792
G1 X166.078 Y171.081 E1.32534
G1 X165.892 Y171.120 E1.33157
G1 X165.341 Y171.154 E1.34971
G1 X165.155 Y171.129 E1.35586
G1 X164.649 Y170.985 E1.37313
G1 X164.485 Y170.902 E1.37917
G1 X164.053 Y170.603 E1.39644
G1 X163.926 Y170.473 E1.40242
G1 X163.615 Y170.053 E1.41957
G1 X163.536 Y169.892 E1.42547
G1 X163.386 Y169.424 E1.44158
G1 X163.354 Y169.242 E1.44767
G1 X163.384 Y168.560 E1.47008
G1 X163.602 Y167.971 E1.49070
G1 X163.671 Y167.857 E1.49508
G1 X164.062 Y167.390 E1.51509
G1 X164.162 Y167.309 E1.51931
G1 X164.673 Y167.003 E1.53886
G1 X165.332 Y166.853 E1.56105
G1 X165.573 Y166.485 F7800.000
G10 ; retract
G92 E0
G1 X153.774 Y167.906
G11 ; unretract
G92 E0
G1 F1200.000
G1 X153.927 Y169.012 E0.03666
G1 X153.778 Y169.951 E0.06787
G1 X153.682 Y170.340 E0.08104
G1 X153.145 Y171.320 E0.11772
G1 X152.941 Y171.589 E0.12884
G1 X151.998 Y172.386 E0.16936
G1 X150.725 Y172.867 E0.21404
G1 X149.277 Y172.867 E0.26157
G1 X147.986 Y172.378 E0.30692
G1 X146.966 Y171.501 E0.35109
G1 X146.300 Y170.330 E0.39534
G1 X146.069 Y168.936 E0.44172
G1 X146.334 Y167.578 E0.48717
G1 X147.086 Y166.360 E0.53417
G1 X148.177 Y165.518 E0.57943
G1 X149.470 Y165.105 E0.62402
G1 X150.911 Y165.175 E0.67137
G1 X152.165 Y165.719 E0.71628
G1 X153.149 Y166.646 E0.76065
G1 X153.747 Y167.853 E0.80488
G1 X153.408 Y168.019 F7800.000
G1 F1200.000
G1 X153.546 Y169.009 E0.83769
G1 X153.408 Y169.876 E0.86654
G1 X153.328 Y170.202 E0.87756
G1 X152.828 Y171.114 E0.91172
G1 X152.666 Y171.328 E0.92054
G1 X151.804 Y172.056 E0.95757
G1 X150.656 Y172.489 E0.99787
G1 X149.346 Y172.490 E1.04087
G1 X148.182 Y172.049 E1.08178
G1 X147.262 Y171.258 E1.12162
G1 X146.661 Y170.202 E1.16152
G1 X146.452 Y168.942 E1.20345
G1 X146.691 Y167.718 E1.24441
G1 X147.371 Y166.617 E1.28690
G1 X148.355 Y165.856 E1.32774
G1 X149.518 Y165.485 E1.36783
G1 X150.824 Y165.548 E1.41076
G1 X151.955 Y166.039 E1.45124
G1 X152.841 Y166.874 E1.49123
G1 X153.382 Y167.965 E1.53123
G1 X153.043 Y168.131 F7800.000
G1 F1200.000
G1 X153.164 Y169.005 E1.56019
G1 X153.039 Y169.801 E1.58667
G1 X152.974 Y170.064 E1.59555
G1 X152.511 Y170.908 E1.62717
G1 X152.391 Y171.067 E1.63370
G1 X151.610 Y171.726 E1.66725
G1 X150.587 Y172.112 E1.70316
G1 X149.415 Y172.113 E1.74163
G1 X148.377 Y171.720 E1.77809
G1 X147.557 Y171.014 E1.81361
G1 X147.022 Y170.074 E1.84916
G1 X146.835 Y168.947 E1.88665
G1 X147.048 Y167.857 E1.92312
G1 X147.656 Y166.873 E1.96110
G1 X148.533 Y166.195 E1.99752
G1 X149.565 Y165.865 E2.03310
G1 X150.737 Y165.922 E2.07161
G1 X151.744 Y166.359 E2.10767
G1 X152.534 Y167.102 E2.14328
G1 X153.017 Y168.078 E2.17903
G1 X153.434 Y168.219 F7800.000
G10 ; retract
G92 E0
G1 X163.485 Y119.123
G11 ; unretract
G92 E0
G1 F1200.000
G1 X163.012 Y118.510 E0.02541
G1 X162.876 Y118.280 E0.03418
G1 X162.642 Y117.543 E0.05958
G1 X162.594 Y117.286 E0.06816
G1 X162.622 Y116.547 E0.09246
G1 X162.679 Y116.271 E0.10170
G1 X162.905 Y115.680 E0.12247
G1 X163.040 Y115.436 E0.13163
G1 X163.509 Y114.870 E0.15577
G1 X163.705 Y114.708 E0.16412
G1 X164.369 Y114.304 E0.18965
G1 X165.313 Y114.081 E0.22151
G1 X166.141 Y114.158 E0.24882
G1 X166.433 Y114.240 E0.25877
G1 X167.008 Y114.510 E0.27962
G1 X167.264 Y114.681 E0.28975
G1 X167.745 Y115.145 E0.31170
G1 X167.934 Y115.400 E0.32210
G1 X168.261 Y116.044 E0.34584
G1 X168.428 Y116.980 E0.37706
G1 X168.312 Y117.788 E0.40387
G1 X168.206 Y118.066 E0.41363
G1 X167.901 Y118.657 E0.43546
G1 X167.706 Y118.900 E0.44570
G1 X167.227 Y119.350 E0.46727
G1 X166.966 Y119.516 E0.47743
G1 X166.358 Y119.788 E0.49931
G1 X166.051 Y119.859 E0.50967
G1 X165.374 Y119.913 E0.53197
G1 X165.066 Y119.881 E0.54212
G1 X164.450 Y119.719 E0.56305
G1 X164.170 Y119.594 E0.57313
G1 X163.534 Y119.157 E0.59846
G1 X163.747 Y118.845 F7800.000
G1 F1200.000
G1 X163.325 Y118.298 E0.62118
G1 X163.222 Y118.125 E0.62777
G1 X163.009 Y117.451 E0.65099
G1 X162.972 Y117.258 E0.65742
G1 X162.998 Y116.593 E0.67930
G1 X163.042 Y116.377 E0.68652
G1 X163.248 Y115.839 E0.70542
G1 X163.353 Y115.650 E0.71255
G1 X163.777 Y115.138 E0.73437
G1 X163.924 Y115.016 E0.74066
G1 X164.516 Y114.656 E0.76341
G1 X165.337 Y114.462 E0.79110
G1 X166.072 Y114.530 E0.81534
G1 X166.300 Y114.595 E0.82314
G1 X166.822 Y114.839 E0.84206
G1 X167.027 Y114.976 E0.85014
G1 X167.461 Y115.395 E0.86997
G1 X167.612 Y115.599 E0.87830
G1 X167.900 Y116.165 E0.89916
G1 X168.046 Y116.987 E0.92656
G1 X167.944 Y117.693 E0.95000
G1 X167.861 Y117.912 E0.95769
G1 X167.583 Y118.450 E0.97759
G1 X167.428 Y118.644 E0.98572
G1 X166.995 Y119.051 E1.00525
G1 X166.787 Y119.183 E1.01334
G1 X166.237 Y119.429 E1.03311
G1 X165.993 Y119.485 E1.04135
G1 X165.379 Y119.535 E1.06158
G1 X165.134 Y119.509 E1.06965
G1 X164.575 Y119.362 E1.08862
G1 X164.355 Y119.264 E1.09655
G1 X163.797 Y118.879 E1.11881
G1 X164.010 Y118.568 F7800.000
G1 F1200.000
G1 X163.637 Y118.086 E1.13883
G1 X163.569 Y117.970 E1.14325
G1 X163.375 Y117.359 E1.16430
G1 X163.351 Y117.231 E1.16859
G1 X163.373 Y116.638 E1.18805
G1 X163.406 Y116.483 E1.19324
G1 X163.590 Y115.999 E1.21028
G1 X163.666 Y115.863 E1.21537
G1 X164.044 Y115.406 E1.23487
G1 X164.143 Y115.324 E1.23909
G1 X164.663 Y115.008 E1.25907
G1 X165.360 Y114.843 E1.28258
G1 X166.002 Y114.902 E1.30376
G1 X166.168 Y114.949 E1.30942
G1 X166.636 Y115.168 E1.32640
G1 X166.789 Y115.270 E1.33243
G1 X167.177 Y115.645 E1.35013
G1 X167.290 Y115.798 E1.35640
