; generated by PrusaSlicer 2.2.0+win64 on 2020-05-06 at 16:25:52 UTC

; 

; external perimeters extrusion width = 0.45mm
; perimeters extrusion width = 0.45mm
; infill extrusion width = 0.45mm
; solid infill extrusion width = 0.45mm
; top infill extrusion width = 0.40mm
; first layer extrusion width = 0.42mm

M107
M190 S60 ; set bed temperature and wait for it to be reached
M104 S205 ; set temperature
G28 ; home all axes
G29 S1
G1 Z5 F5000 ; lift nozzle
M109 S205 ; set temperature and wait for it to be reached
G21 ; set units to millimeters
G90 ; use absolute coordinates
M82 ; use absolute distances for extrusion
G92 E0
; Filament gcode
G1 Z0.200 F7800.000
G10 ; retract
G92 E0
G1 X106.690 Y84.170
G11 ; unretract
G92 E0
G1 F1200.000
G1 X108.595 Y82.105 E0.09226
G1 X110.764 Y80.216 E0.18669
G1 X112.888 Y78.716 E0.27210
G1 X115.511 Y77.259 E0.37063
G1 X118.193 Y76.140 E0.46606
G1 X120.188 Y75.518 E0.53467
G1 X122.080 Y75.087 E0.59840
G1 X124.291 Y74.763 E0.67179
G1 X126.645 Y74.626 E0.74921
G1 X173.420 Y74.629 E2.28521
G1 X175.610 Y74.753 E2.35727
G1 X177.688 Y75.045 E2.42616
G1 X179.932 Y75.550 E2.50168
G1 X182.554 Y76.414 E2.59234
G1 X185.834 Y77.966 E2.71152
G1 X188.344 Y79.546 E2.80891
G1 X190.640 Y81.404 E2.90590
G1 X193.165 Y83.998 E3.02477
G1 X195.273 Y86.889 E3.14226
G1 X196.785 Y89.597 E3.24412
G1 X197.817 Y92.087 E3.33264
G1 X198.829 Y95.655 E3.45440
G1 X199.266 Y98.608 E3.55245
G1 X199.377 Y100.950 E3.62944
G1 X199.375 Y169.150 E5.86900
G1 X199.273 Y171.314 E5.94014
G1 X198.864 Y174.161 E6.03461
G1 X198.147 Y176.957 E6.12940
G1 X196.834 Y180.297 E6.24725
G1 X195.354 Y182.998 E6.34836
G1 X193.219 Y185.939 E6.46772
G1 X190.964 Y188.314 E6.57526
G1 X188.471 Y190.363 E6.68122
G1 X185.569 Y192.190 E6.79384
G1 X182.345 Y193.665 E6.91029
G1 X179.333 Y194.605 E7.01388
G1 X176.264 Y195.172 E7.11636
G1 X172.932 Y195.377 E7.22598
G1 X125.890 Y195.353 E8.77076
G1 X123.077 Y195.082 E8.86358
G1 X120.363 Y194.528 E8.95454
G1 X117.865 Y193.743 E9.04052
G1 X115.327 Y192.652 E9.13122
G1 X112.842 Y191.254 E9.22488
G1 X110.348 Y189.448 E9.32597
G1 X108.259 Y187.551 E9.41865
G1 X106.624 Y185.749 E9.49855
G1 X105.165 Y183.787 E9.57885
G1 X103.627 Y181.225 E9.67698
G1 X102.434 Y178.603 E9.77156
G1 X101.542 Y175.900 E9.86503
G1 X100.898 Y172.763 E9.97021
G1 X100.691 Y170.880 E10.03241
G1 X100.623 Y169.024 E10.09339
G1 X100.626 Y100.800 E12.33377
G1 X100.709 Y98.871 E12.39716
G1 X100.957 Y96.837 E12.46444
G1 X101.549 Y94.084 E12.55693
G1 X102.426 Y91.416 E12.64916
G1 X103.494 Y89.037 E12.73478
G1 X105.070 Y86.342 E12.83729
G1 X106.655 Y84.218 E12.92431
G10 ; retract
G92 E0
G1 X130.798 Y86.007 F7800.000
G11 ; unretract
G92 E0
G1 F1200.000
G1 X130.570 Y87.282 E0.04251
G1 X130.469 Y87.493 E0.05020
G1 X129.949 Y88.378 E0.08392
G1 X129.781 Y88.561 E0.09206
G1 X129.010 Y89.203 E0.12502
G1 X128.795 Y89.334 E0.13327
G1 X127.847 Y89.684 E0.16644
G1 X127.601 Y89.740 E0.17476
G1 X126.503 Y89.746 E0.21079
G1 X126.245 Y89.711 E0.21936
G1 X125.246 Y89.353 E0.25421
G1 X125.028 Y89.227 E0.26247
G1 X124.225 Y88.576 E0.29641
G1 X124.060 Y88.378 E0.30487
G1 X123.512 Y87.468 E0.33974
G1 X123.421 Y87.227 E0.34821
G1 X123.222 Y86.198 E0.38263
G1 X123.215 Y85.940 E0.39110
G1 X123.392 Y84.866 E0.42686
G1 X123.475 Y84.617 E0.43546
G1 X124.010 Y83.684 E0.47079
G1 X124.170 Y83.485 E0.47918
G1 X124.978 Y82.799 E0.51399
G1 X125.199 Y82.674 E0.52231
G1 X126.226 Y82.294 E0.55827
G1 X126.477 Y82.252 E0.56662
G1 X127.575 Y82.259 E0.60268
G1 X127.814 Y82.303 E0.61067
G1 X128.805 Y82.671 E0.64537
G1 X129.014 Y82.799 E0.65343
G1 X129.828 Y83.482 E0.68833
G1 X129.977 Y83.666 E0.69611
G1 X130.500 Y84.559 E0.73008
G1 X130.582 Y84.771 E0.73754
G1 X130.788 Y85.948 E0.77680
G1 X130.415 Y86.007 F7800.000
G1 F1200.000
G1 X130.208 Y87.165 E0.81545
G1 X129.645 Y88.152 E0.85277
G1 X129.520 Y88.287 E0.85878
G1 X128.790 Y88.896 E0.89000
G1 X128.631 Y88.993 E0.89613
G1 X127.740 Y89.321 E0.92731
G1 X127.557 Y89.363 E0.93346
G1 X126.528 Y89.368 E0.96727
G1 X126.335 Y89.342 E0.97367
G1 X125.405 Y89.010 E1.00610
G1 X125.242 Y88.916 E1.01226
G1 X124.491 Y88.306 E1.04404
G1 X124.368 Y88.158 E1.05035
G1 X123.853 Y87.303 E1.08313
G1 X123.785 Y87.124 E1.08942
G1 X123.598 Y86.157 E1.12176
G1 X123.593 Y85.967 E1.12802
G1 X123.759 Y84.957 E1.16163
G1 X123.821 Y84.772 E1.16801
G1 X124.322 Y83.897 E1.20113
G1 X124.442 Y83.749 E1.20737
G1 X125.195 Y83.109 E1.23983
G1 X125.358 Y83.017 E1.24598
G1 X126.323 Y82.660 E1.27977
G1 X126.507 Y82.630 E1.28588
G1 X127.539 Y82.636 E1.31980
G1 X127.714 Y82.668 E1.32563
G1 X128.639 Y83.011 E1.35803
G1 X128.793 Y83.106 E1.36396
G1 X129.558 Y83.747 E1.39674
G1 X129.666 Y83.881 E1.40239
G1 X130.159 Y84.724 E1.43445
G1 X130.217 Y84.872 E1.43969
G1 X130.405 Y85.948 E1.47553
G1 X130.751 Y86.225 F7800.000
G10 ; retract
G92 E0
G1 X142.354 Y134.577
G11 ; unretract
G92 E0
G1 F1200.000
G1 X143.187 Y134.667 E0.02752
G1 X143.484 Y134.757 E0.03768
G1 X144.056 Y135.038 E0.05862
G1 X144.309 Y135.214 E0.06876
G1 X144.774 Y135.679 E0.09034
G1 X144.956 Y135.933 E0.10062
G1 X145.271 Y136.570 E0.12395
G1 X145.429 Y137.488 E0.15453
G1 X145.296 Y138.340 E0.18284
G1 X145.183 Y138.623 E0.19285
G1 X144.872 Y139.198 E0.21431
G1 X144.670 Y139.439 E0.22465
G1 X144.159 Y139.897 E0.24717
G1 X143.890 Y140.058 E0.25748
G1 X143.281 Y140.309 E0.27908
G1 X142.970 Y140.371 E0.28951
G1 X142.283 Y140.407 E0.31209
G1 X141.972 Y140.362 E0.32241
G1 X141.348 Y140.179 E0.34379
G1 X141.077 Y140.039 E0.35378
G1 X140.556 Y139.672 E0.37473
G1 X140.347 Y139.461 E0.38446
G1 X139.986 Y138.965 E0.40463
G1 X139.849 Y138.720 E0.41382
G1 X139.635 Y138.021 E0.43783
G1 X139.595 Y137.759 E0.44655
G1 X139.645 Y136.871 E0.47575
G1 X139.922 Y136.138 E0.50149
G1 X140.056 Y135.915 E0.51004
G1 X140.543 Y135.336 E0.53487
G1 X140.745 Y135.175 E0.54336
G1 X141.403 Y134.788 E0.56841
G1 X142.295 Y134.589 E0.59844
G1 X142.372 Y134.958 F7800.000
G1 F1200.000
G1 X143.112 Y135.038 E0.62287
G1 X143.345 Y135.109 E0.63087
G1 X143.864 Y135.363 E0.64985
G1 X144.066 Y135.504 E0.65795
G1 X144.485 Y135.924 E0.67742
G1 X144.632 Y136.128 E0.68567
G1 X144.908 Y136.688 E0.70619
G1 X145.047 Y137.491 E0.73295
G1 X144.930 Y138.240 E0.75782
G1 X144.841 Y138.463 E0.76571
G1 X144.558 Y138.985 E0.78521
G1 X144.398 Y139.176 E0.79341
G1 X143.934 Y139.592 E0.81386
G1 X143.720 Y139.721 E0.82207
G1 X143.171 Y139.946 E0.84154
G1 X142.923 Y139.996 E0.84986
G1 X142.301 Y140.029 E0.87031
G1 X142.053 Y139.993 E0.87854
G1 X141.489 Y139.827 E0.89785
G1 X141.273 Y139.715 E0.90582
G1 X140.800 Y139.382 E0.92483
G1 X140.635 Y139.216 E0.93252
G1 X140.304 Y138.761 E0.95099
G1 X140.198 Y138.572 E0.95813
G1 X140.004 Y137.937 E0.97993
G1 X139.973 Y137.740 E0.98645
G1 X140.018 Y136.950 E1.01245
G1 X140.262 Y136.303 E1.03516
G1 X140.364 Y136.135 E1.04162
G1 X140.807 Y135.608 E1.06423
G1 X140.960 Y135.487 E1.07062
G1 X141.545 Y135.142 E1.09293
G1 X142.313 Y134.970 E1.11878
G1 X142.390 Y135.339 F7800.000
G1 F1200.000
G1 X143.036 Y135.409 E1.14013
G1 X143.206 Y135.461 E1.14596
G1 X143.672 Y135.689 E1.16298
G1 X143.823 Y135.795 E1.16904
G1 X144.197 Y136.169 E1.18641
G1 X144.307 Y136.322 E1.19262
G1 X144.546 Y136.806 E1.21033
G1 X144.665 Y137.494 E1.23327
G1 X144.564 Y138.139 E1.25470
G1 X144.499 Y138.302 E1.26046
G1 X144.244 Y138.772 E1.27801
G1 X144.126 Y138.914 E1.28407
G1 X143.709 Y139.287 E1.30245
G1 X143.550 Y139.383 E1.30855
G1 X143.061 Y139.584 E1.32589
G1 X142.876 Y139.621 E1.33212
G1 X142.318 Y139.650 E1.35044
G1 X142.134 Y139.623 E1.35656
G1 X141.630 Y139.475 E1.37381
G1 X141.469 Y139.392 E1.37974
G1 X141.044 Y139.093 E1.39683
G1 X140.923 Y138.971 E1.40248
G1 X140.622 Y138.558 E1.41926
G1 X140.547 Y138.423 E1.42433
G1 X140.372 Y137.852 E1.44393
G1 X140.352 Y137.722 E1.44825
G1 X140.391 Y137.029 E1.47104
G1 X140.603 Y136.468 E1.49073
G1 X140.671 Y136.355 E1.49509
G1 X141.072 Y135.880 E1.51549
G1 X141.174 Y135.798 E1.51978
G1 X141.687 Y135.496 E1.53935
G1 X142.331 Y135.351 E1.56102
G1 X142.573 Y134.984 F7800.000
G10 ; retract
G92 E0
G1 X138.440 Y149.840
G11 ; unretract
G92 E0
G1 F1200.000
G1 X139.604 Y150.554 E0.04487
G1 X140.431 Y151.585 E0.08824
G1 X140.828 Y152.640 E0.12528
G1 X140.914 Y153.437 E0.15158
G1 X140.914 Y158.571 E0.32019
G1 X140.804 Y159.447 E0.34918
G1 X140.529 Y160.171 E0.37460
G1 X140.400 Y160.455 E0.38485
G1 X139.544 Y161.498 E0.42915
G1 X138.253 Y162.229 E0.47789
G1 X136.814 Y162.429 E0.52558
G1 X135.401 Y162.092 E0.57330
G1 X134.280 Y161.337 E0.61769
G1 X133.527 Y160.330 E0.65898
G1 X133.185 Y159.403 E0.69142
G1 X133.086 Y158.567 E0.71905
G1 X133.086 Y153.435 E0.88759
G1 X133.178 Y152.623 E0.91442
G1 X133.573 Y151.580 E0.95105
G1 X134.415 Y150.537 E0.99507
G1 X135.627 Y149.814 E1.04141
G1 X137.027 Y149.567 E1.08810
G1 X138.381 Y149.829 E1.13338
G1 X138.301 Y150.197 F7800.000
G1 F1200.000
G1 X139.351 Y150.841 E1.17384
G1 X140.099 Y151.774 E1.21308
G1 X140.458 Y152.728 E1.24658
G1 X140.537 Y153.457 E1.27065
G1 X140.537 Y158.547 E1.43781
G1 X140.435 Y159.355 E1.46454
G1 X140.077 Y160.254 E1.49633
G1 X139.297 Y161.204 E1.53668
G1 X138.130 Y161.865 E1.58075
G1 X136.833 Y162.046 E1.62375
G1 X135.555 Y161.742 E1.66689
G1 X134.544 Y161.060 E1.70693
G1 X133.862 Y160.148 E1.74433
G1 X133.554 Y159.314 E1.77351
G1 X133.463 Y158.545 E1.79894
G1 X133.463 Y153.456 E1.96605
G1 X133.547 Y152.712 E1.99063
G1 X133.904 Y151.770 E2.02372
G1 X134.666 Y150.826 E2.06355
G1 X135.761 Y150.173 E2.10543
G1 X137.023 Y149.950 E2.14751
G1 X138.242 Y150.186 E2.18827
G1 X138.162 Y150.554 F7800.000
G1 F1200.000
G1 X139.098 Y151.128 E2.22433
G1 X139.767 Y151.963 E2.25945
G1 X140.089 Y152.817 E2.28941
G1 X140.160 Y153.477 E2.31123
G1 X140.160 Y158.524 E2.47695
G1 X140.067 Y159.263 E2.50143
G1 X139.754 Y160.054 E2.52934
G1 X139.051 Y160.911 E2.56575
G1 X138.006 Y161.502 E2.60515
G1 X136.851 Y161.663 E2.64346
G1 X135.709 Y161.391 E2.68202
G1 X134.808 Y160.783 E2.71771
G1 X134.197 Y159.966 E2.75121
G1 X133.924 Y159.225 E2.77713
G1 X133.840 Y158.522 E2.80037
G1 X133.840 Y153.477 E2.96605
G1 X133.917 Y152.802 E2.98837
G1 X134.236 Y151.960 E3.01794
G1 X134.917 Y151.115 E3.05357
G1 X135.896 Y150.532 E3.09099
G1 X136.509 Y150.422 E3.11144
G1 X137.020 Y150.333 E3.12847
G1 X138.103 Y150.543 E3.16471
G1 X138.480 Y150.311 F7800.000
G10 ; retract
G92 E0
G1 X142.317 Y166.079
G11 ; unretract
G92 E0
G1 F1200.000
G1 X143.151 Y166.157 E0.02750
G1 X143.443 Y166.243 E0.03751
G1 X144.018 Y166.514 E0.05839
G1 X144.276 Y166.689 E0.06860
G1 X144.753 Y167.153 E0.09048
G1 X144.941 Y167.409 E0.10091
G1 X145.266 Y168.055 E0.12464
G1 X145.429 Y168.984 E0.15560
G1 X145.303 Y169.817 E0.18328
G1 X145.193 Y170.098 E0.19317
G1 X144.885 Y170.678 E0.21475
G1 X144.685 Y170.923 E0.22513
G1 X144.185 Y171.378 E0.24734
G1 X143.918 Y171.543 E0.25764
G1 X143.314 Y171.800 E0.27918
G1 X143.006 Y171.865 E0.28954
G1 X142.319 Y171.910 E0.31212
G1 X142.009 Y171.869 E0.32240
G1 X141.383 Y171.693 E0.34376
G1 X141.109 Y171.556 E0.35383
G1 X140.582 Y171.196 E0.37478
G1 X140.372 Y170.988 E0.38448
G1 X140.006 Y170.500 E0.40452
G1 X139.866 Y170.256 E0.41375
G1 X139.641 Y169.551 E0.43805
G1 X139.597 Y169.288 E0.44680
G1 X139.641 Y168.384 E0.47651
G1 X139.914 Y167.654 E0.50211
G1 X140.044 Y167.431 E0.51061
G1 X140.522 Y166.857 E0.53513
G1 X140.720 Y166.694 E0.54356
G1 X141.375 Y166.300 E0.56866
G1 X142.258 Y166.092 E0.59845
G1 X142.340 Y166.460 F7800.000
G1 F1200.000
G1 X143.079 Y166.530 E0.62285
G1 X143.309 Y166.597 E0.63070
G1 X143.831 Y166.842 E0.64964
G1 X144.036 Y166.982 E0.65780
G1 X144.468 Y167.401 E0.67756
G1 X144.618 Y167.607 E0.68592
G1 X144.904 Y168.175 E0.70680
G1 X145.046 Y168.988 E0.73392
G1 X144.936 Y169.719 E0.75818
G1 X144.850 Y169.940 E0.76598
G1 X144.570 Y170.468 E0.78561
G1 X144.410 Y170.662 E0.79386
G1 X143.957 Y171.076 E0.81400
G1 X143.744 Y171.207 E0.82221
G1 X143.200 Y171.438 E0.84163
G1 X142.954 Y171.491 E0.84990
G1 X142.332 Y171.531 E0.87035
G1 X142.085 Y171.498 E0.87853
G1 X141.520 Y171.340 E0.89782
G1 X141.301 Y171.230 E0.90587
G1 X140.823 Y170.903 E0.92487
G1 X140.657 Y170.739 E0.93255
G1 X140.322 Y170.293 E0.95088
G1 X140.214 Y170.103 E0.95804
G1 X140.008 Y169.462 E0.98016
G1 X139.975 Y169.266 E0.98668
G1 X140.015 Y168.462 E1.01312
G1 X140.256 Y167.816 E1.03575
G1 X140.354 Y167.648 E1.04216
G1 X140.789 Y167.125 E1.06448
G1 X140.938 Y167.002 E1.07082
G1 X141.521 Y166.652 E1.09315
G1 X142.281 Y166.473 E1.11880
G1 X142.363 Y166.841 F7800.000
G1 F1200.000
G1 X143.008 Y166.902 E1.14009
G1 X143.175 Y166.950 E1.14580
G1 X143.644 Y167.171 E1.16280
G1 X143.797 Y167.275 E1.16890
G1 X144.182 Y167.650 E1.18653
G1 X144.295 Y167.804 E1.19283
G1 X144.542 Y168.295 E1.21085
G1 X144.664 Y168.993 E1.23413
G1 X144.570 Y169.621 E1.25498
G1 X144.506 Y169.782 E1.26068
G1 X144.254 Y170.258 E1.27838
G1 X144.136 Y170.402 E1.28449
G1 X143.730 Y170.773 E1.30255
G1 X143.571 Y170.871 E1.30868
G1 X143.086 Y171.077 E1.32598
G1 X142.902 Y171.116 E1.33215
G1 X142.345 Y171.153 E1.35048
G1 X142.161 Y171.128 E1.35656
G1 X141.656 Y170.987 E1.37379
G1 X141.493 Y170.905 E1.37980
G1 X141.064 Y170.611 E1.39686
G1 X140.942 Y170.490 E1.40251
G1 X140.637 Y170.085 E1.41915
G1 X140.561 Y169.951 E1.42423
G1 X140.376 Y169.373 E1.44416
G1 X140.354 Y169.244 E1.44845
G1 X140.388 Y168.539 E1.47163
G1 X140.598 Y167.978 E1.49128
G1 X140.665 Y167.864 E1.49562
G1 X141.056 Y167.394 E1.51572
G1 X141.157 Y167.311 E1.51998
G1 X141.667 Y167.004 E1.53955
G1 X142.304 Y166.853 E1.56104
G1 X142.541 Y166.483 F7800.000
G10 ; retract
G92 E0
G1 X130.776 Y167.914
G11 ; unretract
G92 E0
G1 F1200.000
G1 X130.926 Y169.007 E0.03623
G1 X130.789 Y169.915 E0.06636
G1 X130.697 Y170.296 E0.07924
G1 X130.170 Y171.284 E0.11600
G1 X129.967 Y171.558 E0.12722
G1 X129.030 Y172.365 E0.16782
G1 X127.770 Y172.856 E0.21222
G1 X126.341 Y172.876 E0.25915
G1 X125.081 Y172.431 E0.30303
G1 X124.000 Y171.541 E0.34901
G1 X123.308 Y170.353 E0.39415
G1 X123.068 Y168.970 E0.44026
G1 X123.316 Y167.622 E0.48528
G1 X124.065 Y166.379 E0.53290
G1 X125.220 Y165.492 E0.58073
G1 X126.552 Y165.093 E0.62641
G1 X127.980 Y165.190 E0.67340
G1 X129.236 Y165.766 E0.71878
G1 X130.188 Y166.698 E0.76252
G1 X130.750 Y167.860 E0.80492
G1 X130.410 Y168.025 F7800.000
G1 F1200.000
G1 X130.545 Y169.005 E0.83741
G1 X130.418 Y169.842 E0.86522
G1 X130.342 Y170.161 E0.87599
G1 X129.851 Y171.081 E0.91023
G1 X129.689 Y171.300 E0.91916
G1 X128.833 Y172.037 E0.95626
G1 X127.697 Y172.480 E0.99630
G1 X126.403 Y172.498 E1.03879
G1 X125.269 Y172.097 E1.07827
G1 X124.292 Y171.293 E1.11984
G1 X123.668 Y170.222 E1.16054
G1 X123.451 Y168.972 E1.20221
G1 X123.675 Y167.757 E1.24276
G1 X124.351 Y166.635 E1.28579
G1 X125.395 Y165.833 E1.32902
G1 X126.593 Y165.473 E1.37010
G1 X127.886 Y165.562 E1.41264
G1 X129.019 Y166.081 E1.45360
G1 X129.877 Y166.921 E1.49301
G1 X130.384 Y167.971 E1.53130
G1 X130.045 Y168.135 F7800.000
G1 F1200.000
G1 X130.164 Y169.002 E1.56003
G1 X130.048 Y169.770 E1.58553
G1 X129.986 Y170.026 E1.59419
G1 X129.532 Y170.879 E1.62593
G1 X129.411 Y171.041 E1.63255
G1 X128.636 Y171.709 E1.66616
G1 X127.623 Y172.103 E1.70184
G1 X126.465 Y172.120 E1.73988
G1 X125.458 Y171.764 E1.77496
G1 X124.583 Y171.045 E1.81214
G1 X124.028 Y170.091 E1.84839
G1 X123.834 Y168.974 E1.88562
G1 X124.033 Y167.893 E1.92170
G1 X124.637 Y166.891 E1.96014
G1 X125.570 Y166.174 E1.99876
G1 X126.634 Y165.854 E2.03526
G1 X127.791 Y165.933 E2.07333
G1 X128.802 Y166.396 E2.10987
G1 X129.566 Y167.144 E2.14496
G1 X130.019 Y168.081 E2.17913
G1 X130.435 Y168.225 F7800.000
G10 ; retract
G92 E0
G1 X145.429 Y116.983
G11 ; unretract
G92 E0
G1 F1200.000
G1 X145.310 Y117.796 E0.02697
G1 X145.205 Y118.065 E0.03645
G1 X144.903 Y118.652 E0.05814
G1 X144.709 Y118.894 E0.06832
G1 X144.228 Y119.348 E0.09002
G1 X143.966 Y119.514 E0.10023
G1 X143.376 Y119.781 E0.12148
G1 X143.068 Y119.853 E0.13187
G1 X142.387 Y119.914 E0.15432
G1 X142.076 Y119.879 E0.16462
G1 X141.443 Y119.718 E0.18604
G1 X141.167 Y119.586 E0.19610
G1 X140.624 Y119.234 E0.21736
G1 X140.406 Y119.018 E0.22743
G1 X140.014 Y118.524 E0.24814
G1 X139.875 Y118.258 E0.25800
G1 X139.677 Y117.710 E0.27714
G1 X139.610 Y117.403 E0.28746
G1 X139.616 Y116.512 E0.31672
G1 X139.829 Y115.847 E0.33964
