; generated by PrusaSlicer 2.2.0+win64 on 2020-10-26 at 07:37:27 UTC

; 

; external perimeters extrusion width = 0.45mm
; perimeters extrusion width = 0.45mm
; infill extrusion width = 0.45mm
; solid infill extrusion width = 0.45mm
; top infill extrusion width = 0.40mm
; first layer extrusion width = 0.42mm

M107
M190 S60 ; set bed temperature and wait for it to be reached
M104 S200 ; set temperature
G28 ; home all axes
;G29 S1
G1 Z5 F5000 ;E lift nozzle
M109 S200 ; set temperature and wait for it to be reached
G21 ; set units to millimeters
G90 ; use absolute coordinates
M82 ; use absolute distances for extrusion
G92 E0
; Filament gcode
G29 S1 P"heightmap_pla.csv"
M109 S200; heat nozzle to first_layer_temperature
G92 E0 ; reset extruder

G1 X0 Y200 Z0.2 F3000.0 ; move to start-line position2
G1 X0 Y20 Z0.2 F1500.0 E15 ; draw 1st line
G1 X0.5 Y20 Z0.2 F5000.0 ; move to side a little
G1 X0.5 Y200 Z0.2F1500.0 E30 ; draw 2nd line
G92 E0 ; reset extruder
G1 Z1.0 F1000 ; move z up little to prevent scratching of surface
G1 Z0.200 F7800.000
G10 ; retract
G92 E0
G1 X115.733 Y106.947
G11 ; unretract
G92 E0
G1 F1200.000
G1 X116.996 Y105.692 E0.05457
G1 X118.488 Y104.719 E0.10914
G1 X120.152 Y104.067 E0.16394
G1 X121.907 Y103.766 E0.21851
G1 X162.507 Y103.746 E1.46290
G1 X164.078 Y103.889 E1.51123
G1 X165.603 Y104.314 E1.55978
G1 X167.028 Y105.008 E1.60833
G1 X168.298 Y105.941 E1.65665
G1 X169.381 Y107.088 E1.70498
G1 X170.243 Y108.416 E1.75353
G1 X170.852 Y109.879 E1.80208
G1 X171.187 Y111.419 E1.85041
G1 X171.254 Y112.491 E1.88332
G1 X171.247 Y152.858 E3.12056
G1 X171.075 Y154.264 E3.16397
G1 X170.680 Y155.617 E3.20717
G1 X170.071 Y156.896 E3.25058
G1 X169.267 Y158.053 E3.29377
G1 X168.631 Y158.749 E3.32266
G1 X167.929 Y159.367 E3.35132
G1 X167.160 Y159.911 E3.38021
G1 X166.336 Y160.369 E3.40910
G1 X165.468 Y160.736 E3.43799
G1 X164.572 Y161.005 E3.46665
G1 X163.646 Y161.179 E3.49554
G1 X162.706 Y161.252 E3.52442
G1 X122.120 Y161.246 E4.76838
G1 X120.729 Y161.073 E4.81135
G1 X119.376 Y160.678 E4.85454
G1 X118.104 Y160.071 E4.89773
G1 X116.947 Y159.267 E4.94093
G1 X116.251 Y158.631 E4.96981
G1 X115.633 Y157.929 E4.99848
G1 X115.089 Y157.160 E5.02736
G1 X114.631 Y156.336 E5.05625
G1 X114.264 Y155.468 E5.08514
G1 X113.995 Y154.572 E5.11380
G1 X113.821 Y153.646 E5.14269
G1 X113.748 Y152.706 E5.17157
G1 X113.754 Y112.120 E6.41553
G1 X113.927 Y110.729 E6.45850
G1 X114.322 Y109.376 E6.50169
G1 X114.929 Y108.104 E6.54488
G1 X115.699 Y106.996 E6.58624
G1 X116.009 Y107.212 F7800.000
G1 F1200.000
G1 X117.257 Y105.966 E6.64030
G1 X118.689 Y105.040 E6.69258
G1 X120.273 Y104.424 E6.74466
G1 X121.955 Y104.141 E6.79694
G1 X162.507 Y104.123 E8.03985
G1 X164.015 Y104.261 E8.08625
G1 X165.479 Y104.671 E8.13287
G1 X166.840 Y105.335 E8.17927
G1 X168.059 Y106.233 E8.22566
G1 X169.096 Y107.335 E8.27206
G1 X169.921 Y108.613 E8.31868
G1 X170.499 Y110.012 E8.36508
G1 X170.817 Y111.500 E8.41170
G1 X170.877 Y112.491 E8.44214
G1 X170.870 Y152.836 E9.67870
G1 X170.706 Y154.183 E9.72030
G1 X170.324 Y155.493 E9.76211
G1 X169.735 Y156.723 E9.80392
G1 X168.958 Y157.836 E9.84552
G1 X167.676 Y159.087 E9.90042
G1 X166.151 Y160.040 E9.95554
G1 X164.464 Y160.644 E10.01045
G1 X162.681 Y160.875 E10.06557
G1 X122.150 Y160.870 E11.30783
G1 X120.803 Y160.703 E11.34942
G1 X119.501 Y160.322 E11.39102
G1 X118.277 Y159.735 E11.43261
G1 X117.164 Y158.958 E11.47421
G1 X115.913 Y157.676 E11.52911
G1 X114.960 Y156.151 E11.58423
G1 X114.356 Y154.464 E11.63914
G1 X114.125 Y152.681 E11.69426
G1 X114.130 Y112.150 E12.93652
G1 X114.297 Y110.803 E12.97811
G1 X114.678 Y109.501 E13.01971
G1 X115.265 Y108.277 E13.06130
G1 X115.974 Y107.261 E13.09926
G10 ; retract
G92 E0
G1 X122.910 Y112.910 F7800.000
G11 ; unretract
G92 E0
G1 F1200.000
G1 X162.090 Y112.910 E1.20086
G1 X162.090 Y152.090 E2.40171
G1 X122.910 Y152.090 E3.60257
G1 X122.910 Y112.970 E4.80159
G10 ; retract
G92 E0
G1 X161.996 Y113.769 F7800.000
G11 ; unretract
G92 E0
G1 F1200.000
G1 X161.401 Y113.174 E0.02584
G1 X160.866 Y113.174 E0.04227
G1 X161.826 Y114.134 E0.08397
G1 X161.826 Y114.668 E0.10040
G1 X160.332 Y113.174 E0.16534
G1 X159.797 Y113.174 E0.18177
G1 X161.826 Y115.203 E0.26994
G1 X161.826 Y115.737 E0.28637
G1 X159.263 Y113.174 E0.39777
G1 X158.728 Y113.174 E0.41420
G1 X161.826 Y116.272 E0.54884
G1 X161.826 Y116.807 E0.56527
G1 X158.193 Y113.174 E0.72314
G1 X157.659 Y113.174 E0.73957
G1 X161.826 Y117.341 E0.92067
G1 X161.826 Y117.876 E0.93710
G1 X157.124 Y113.174 E1.14144
G1 X156.589 Y113.174 E1.15787
G1 X161.826 Y118.411 E1.38545
G1 X161.826 Y118.945 E1.40188
G1 X156.055 Y113.174 E1.65269
G1 X155.520 Y113.174 E1.66911
G1 X161.826 Y119.480 E1.94316
G1 X161.826 Y120.015 E1.95959
G1 X154.985 Y113.174 E2.25686
G1 X154.451 Y113.174 E2.27329
G1 X161.826 Y120.549 E2.59380
G1 X161.826 Y121.084 E2.61023
G1 X153.916 Y113.174 E2.95398
G1 X153.381 Y113.174 E2.97041
G1 X161.826 Y121.619 E3.33739
G1 X161.826 Y122.153 E3.35382
G1 X152.847 Y113.174 E3.74403
G1 X152.312 Y113.174 E3.76046
G1 X161.826 Y122.688 E4.17391
G1 X161.826 Y123.223 E4.19034
G1 X151.777 Y113.174 E4.62702
G1 X151.243 Y113.174 E4.64345
G1 X161.826 Y123.757 E5.10336
G1 X161.826 Y124.292 E5.11979
G1 X150.708 Y113.174 E5.60294
G1 X150.174 Y113.174 E5.61937
G1 X161.826 Y124.826 E6.12576
G1 X161.826 Y125.361 E6.14219
G1 X149.639 Y113.174 E6.67181
G1 X149.104 Y113.174 E6.68823
G1 X161.826 Y125.896 E7.24109
G1 X161.826 Y126.430 E7.25752
G1 X148.570 Y113.174 E7.83360
G1 X148.035 Y113.174 E7.85003
G1 X161.826 Y126.965 E8.44935
G1 X161.826 Y127.500 E8.46578
G1 X147.500 Y113.174 E9.08834
G1 X146.966 Y113.174 E9.10477
G1 X161.826 Y128.034 E9.75056
G1 X161.826 Y128.569 E9.76699
G1 X146.431 Y113.174 E10.43601
G1 X145.896 Y113.174 E10.45244
G1 X161.826 Y129.104 E11.14470
G1 X161.826 Y129.638 E11.16113
G1 X145.362 Y113.174 E11.87662
G1 X144.827 Y113.174 E11.89305
G1 X161.826 Y130.173 E12.63177
G1 X161.826 Y130.708 E12.64820
G1 X144.292 Y113.174 E13.41016
G1 X143.758 Y113.174 E13.42659
G1 X161.826 Y131.242 E14.21178
G1 X161.826 Y131.777 E14.22821
G1 X143.223 Y113.174 E15.03664
G1 X142.688 Y113.174 E15.05307
G1 X161.826 Y132.312 E15.88473
G1 X161.826 Y132.846 E15.90116
G1 X142.154 Y113.174 E16.75606
G1 X141.619 Y113.174 E16.77249
G1 X161.826 Y133.381 E17.65062
G1 X161.826 Y133.915 E17.66705
G1 X141.085 Y113.174 E18.56841
G1 X140.550 Y113.174 E18.58484
G1 X161.826 Y134.450 E19.50944
G1 X161.826 Y134.985 E19.52587
G1 X140.015 Y113.174 E20.47370
G1 X139.481 Y113.174 E20.49013
G1 X161.826 Y135.519 E21.46120
G1 X161.826 Y136.054 E21.47763
G1 X138.946 Y113.174 E22.47193
G1 X138.411 Y113.174 E22.48836
G1 X161.826 Y136.589 E23.50590
G1 X161.826 Y137.123 E23.52232
G1 X137.877 Y113.174 E24.56309
G1 X137.342 Y113.174 E24.57952
G1 X161.826 Y137.658 E25.64353
G1 X161.826 Y138.193 E25.65996
G1 X136.807 Y113.174 E26.74720
G1 X136.273 Y113.174 E26.76362
G1 X161.826 Y138.727 E27.87410
G1 X161.826 Y139.262 E27.89053
G1 X135.738 Y113.174 E29.02423
G1 X135.203 Y113.174 E29.04066
G1 X161.826 Y139.797 E30.19760
G1 X161.826 Y140.331 E30.21403
G1 X134.669 Y113.174 E31.39421
G1 X134.134 Y113.174 E31.41063
G1 X161.826 Y140.866 E32.61404
G1 X161.826 Y141.401 E32.63047
G1 X133.599 Y113.174 E33.85712
G1 X133.065 Y113.174 E33.87354
G1 X161.826 Y141.935 E35.12342
G1 X161.826 Y142.470 E35.13985
G1 X132.530 Y113.174 E36.41296
G1 X131.996 Y113.174 E36.42939
G1 X161.826 Y143.004 E37.72574
G1 X161.826 Y143.539 E37.74217
G1 X131.461 Y113.174 E39.06174
G1 X130.926 Y113.174 E39.07817
G1 X161.826 Y144.074 E40.42099
G1 X161.826 Y144.608 E40.43742
G1 X130.392 Y113.174 E41.80346
G1 X129.857 Y113.174 E41.81989
G1 X161.826 Y145.143 E43.20918
G1 X161.826 Y145.678 E43.22560
G1 X129.322 Y113.174 E44.63812
G1 X128.788 Y113.174 E44.65455
G1 X161.826 Y146.212 E46.09030
G1 X161.826 Y146.747 E46.10673
G1 X128.253 Y113.174 E47.56571
G1 X127.718 Y113.174 E47.58214
G1 X161.826 Y147.282 E49.06436
G1 X161.826 Y147.816 E49.08079
G1 X127.184 Y113.174 E50.58624
G1 X126.649 Y113.174 E50.60267
G1 X161.826 Y148.351 E52.13136
G1 X161.826 Y148.886 E52.14779
G1 X126.114 Y113.174 E53.69971
G1 X125.580 Y113.174 E53.71614
G1 X161.826 Y149.420 E55.29129
G1 X161.826 Y149.955 E55.30772
G1 X125.045 Y113.174 E56.90611
G1 X124.510 Y113.174 E56.92254
G1 X161.826 Y150.489 E58.54416
G1 X161.826 Y151.024 E58.56059
G1 X123.976 Y113.174 E60.20545
G1 X123.441 Y113.174 E60.22188
G1 X161.826 Y151.559 E61.88997
G1 X161.826 Y151.826 E61.89818
G1 X161.559 Y151.826 E61.90640
G1 X123.174 Y113.441 E63.57449
G1 X123.174 Y113.976 E63.59092
G1 X161.024 Y151.826 E65.23577
G1 X160.489 Y151.826 E65.25220
G1 X123.174 Y114.511 E66.87382
G1 X123.174 Y115.045 E66.89024
G1 X159.955 Y151.826 E68.48863
G1 X159.420 Y151.826 E68.50506
G1 X123.174 Y115.580 E70.08021
G1 X123.174 Y116.115 E70.09664
G1 X158.885 Y151.826 E71.64855
G1 X158.351 Y151.826 E71.66498
G1 X123.174 Y116.649 E73.19366
G1 X123.174 Y117.184 E73.21009
G1 X157.816 Y151.826 E74.71554
G1 X157.282 Y151.826 E74.73197
G1 X123.174 Y117.718 E76.21418
G1 X123.174 Y118.253 E76.23061
G1 X156.747 Y151.826 E77.68959
G1 X156.212 Y151.826 E77.70602
G1 X123.174 Y118.788 E79.14177
G1 X123.174 Y119.322 E79.15819
G1 X155.678 Y151.826 E80.57071
G1 X155.143 Y151.826 E80.58713
G1 X123.174 Y119.857 E81.97641
G1 X123.174 Y120.392 E81.99284
G1 X154.608 Y151.826 E83.35888
G1 X154.074 Y151.826 E83.37531
G1 X123.174 Y120.926 E84.71812
G1 X123.174 Y121.461 E84.73455
G1 X153.539 Y151.826 E86.05412
G1 X153.004 Y151.826 E86.07055
G1 X123.174 Y121.996 E87.36689
G1 X123.174 Y122.530 E87.38332
G1 X152.470 Y151.826 E88.65643
G1 X151.935 Y151.826 E88.67286
G1 X123.174 Y123.065 E89.92273
G1 X123.174 Y123.600 E89.93916
G1 X151.400 Y151.826 E91.16580
G1 X150.866 Y151.826 E91.18223
G1 X123.174 Y124.134 E92.38563
G1 X123.174 Y124.669 E92.40206
G1 X150.331 Y151.826 E93.58223
G1 X149.796 Y151.826 E93.59866
G1 X123.174 Y125.204 E94.75559
G1 X123.174 Y125.738 E94.77202
G1 X149.262 Y151.826 E95.90572
G1 X148.727 Y151.826 E95.92215
G1 X123.174 Y126.273 E97.03262
G1 X123.174 Y126.807 E97.04905
G1 X148.193 Y151.826 E98.13628
G1 X147.658 Y151.826 E98.15271
G1 X123.174 Y127.342 E99.21671
G1 X123.174 Y127.877 E99.23314
G1 X147.123 Y151.826 E100.27390
G1 X146.589 Y151.826 E100.29033
G1 X123.174 Y128.411 E101.30786
G1 X123.174 Y128.946 E101.32429
G1 X146.054 Y151.826 E102.31859
G1 X145.519 Y151.826 E102.33502
G1 X123.174 Y129.481 E103.30608
G1 X123.174 Y130.015 E103.32251
G1 X144.985 Y151.826 E104.27034
G1 X144.450 Y151.826 E104.28676
G1 X123.174 Y130.550 E105.21136
G1 X123.174 Y131.085 E105.22779
G1 X143.915 Y151.826 E106.12915
G1 X143.381 Y151.826 E106.14558
G1 X123.174 Y131.619 E107.02370
G1 X123.174 Y132.154 E107.04013
G1 X142.846 Y151.826 E107.89502
G1 X142.311 Y151.826 E107.91145
G1 X123.174 Y132.689 E108.74311
G1 X123.174 Y133.223 E108.75954
G1 X141.777 Y151.826 E109.56796
G1 X141.242 Y151.826 E109.58439
G1 X123.174 Y133.758 E110.36958
G1 X123.174 Y134.293 E110.38601
G1 X140.707 Y151.826 E111.14796
G1 X140.173 Y151.826 E111.16439
G1 X123.174 Y134.827 E111.90311
G1 X123.174 Y135.362 E111.91954
G1 X139.638 Y151.826 E112.63503
G1 X139.104 Y151.826 E112.65146
G1 X123.174 Y135.896 E113.34371
G1 X123.174 Y136.431 E113.36014
G1 X138.569 Y151.826 E114.02916
G1 X138.034 Y151.826 E114.04559
G1 X123.174 Y136.966 E114.69137
G1 X123.174 Y137.500 E114.70780
G1 X137.500 Y151.826 E115.33035
G1 X136.965 Y151.826 E115.34678
G1 X123.174 Y138.035 E115.94610
G1 X123.174 Y138.570 E115.96253
G1 X136.430 Y151.826 E116.53861
G1 X135.896 Y151.826 E116.55504
G1 X123.174 Y139.104 E117.10788
G1 X123.174 Y139.639 E117.12431
G1 X135.361 Y151.826 E117.65393
G1 X134.826 Y151.826 E117.67036
G1 X123.174 Y140.174 E118.17674
G1 X123.174 Y140.708 E118.19316
G1 X134.292 Y151.826 E118.67631
G1 X133.757 Y151.826 E118.69274
G1 X123.174 Y141.243 E119.15265
G1 X123.174 Y141.778 E119.16908
G1 X133.222 Y151.826 E119.60576
G1 X132.688 Y151.826 E119.62218
G1 X123.174 Y142.312 E120.03563
G1 X123.174 Y142.847 E120.05206
G1 X132.153 Y151.826 E120.44227
G1 X131.618 Y151.826 E120.45869
G1 X123.174 Y143.382 E120.82567
G1 X123.174 Y143.916 E120.84210
G1 X131.084 Y151.826 E121.18584
G1 X130.549 Y151.826 E121.20227
G1 X123.174 Y144.451 E121.52277
G1 X123.174 Y144.985 E121.53920
G1 X130.015 Y151.826 E121.83647
G1 X129.480 Y151.826 E121.85290
G1 X123.174 Y145.520 E122.12694
G1 X123.174 Y146.055 E122.14337
G1 X128.945 Y151.826 E122.39417
G1 X128.411 Y151.826 E122.41060
G1 X123.174 Y146.589 E122.63817
G1 X123.174 Y147.124 E122.65460
G1 X127.876 Y151.826 E122.85894
G1 X127.341 Y151.826 E122.87537
G1 X123.174 Y147.659 E123.05647
G1 X123.174 Y148.193 E123.07290
G1 X126.807 Y151.826 E123.23077
G1 X126.272 Y151.826 E123.24719
G1 X123.174 Y148.728 E123.38183
G1 X123.174 Y149.263 E123.39826
G1 X125.737 Y151.826 E123.50966
G1 X125.203 Y151.826 E123.52608
G1 X123.174 Y149.797 E123.61425
G1 X123.174 Y150.332 E123.63068
G1 X124.668 Y151.826 E123.69561
G1 X124.133 Y151.826 E123.71204
G1 X123.174 Y150.867 E123.75373
G1 X123.174 Y151.401 E123.77016
G1 X123.768 Y151.996 E123.79600
G1 Z0.400 F7800.000
G1 X123.768 Y152.275
G1 F1800.000
G1 X122.725 Y152.275 E123.83053
G1 X122.725 Y112.725 E125.13916
G1 X162.275 Y112.725 E126.44780
G1 X162.275 Y152.275 E127.75644
G1 X123.828 Y152.275 E129.02857
G10 ; retract
G92 E0
G1 X122.827 Y113.655 F7800.000
G11 ; unretract
G92 E0
G1 F1200.000
G1 X123.472 Y113.010 E0.03037
G1 X124.051 Y113.010 E0.04965
G1 X123.010 Y114.051 E0.09866
G1 X123.010 Y114.630 E0.11794
G1 X124.630 Y113.010 E0.19422
G1 X125.209 Y113.010 E0.21351
G1 X123.010 Y115.209 E0.31706
G1 X123.010 Y115.789 E0.33634
G1 X125.789 Y113.010 E0.46716
G1 X126.368 Y113.010 E0.48644
G1 X123.010 Y116.368 E0.64454
G1 X123.010 Y116.947 E0.66382
G1 X126.947 Y113.010 E0.84918
G1 X127.526 Y113.010 E0.86846
G1 X123.010 Y117.526 E1.08109
G1 X123.010 Y118.106 E1.10038
G1 X128.106 Y113.010 E1.34028
G1 X128.685 Y113.010 E1.35956
G1 X123.010 Y118.685 E1.62673
G1 X123.010 Y119.264 E1.64601
G1 X129.264 Y113.010 E1.94045
G1 X129.843 Y113.010 E1.95974
G1 X123.010 Y119.843 E2.28145
G1 X123.010 Y120.422 E2.30073
G1 X130.422 Y113.010 E2.64971
G1 X131.002 Y113.010 E2.66899
G1 X123.010 Y121.002 E3.04524
G1 X123.010 Y121.581 E3.06453
G1 X131.581 Y113.010 E3.46805
G1 X132.160 Y113.010 E3.48733
G1 X123.010 Y122.160 E3.91812
G1 X123.010 Y122.739 E3.93740
G1 X132.739 Y113.010 E4.39546
G1 X133.319 Y113.010 E4.41475
G1 X123.010 Y123.319 E4.90008
G1 X123.010 Y123.898 E4.91936
G1 X133.898 Y113.010 E5.43196
G1 X134.477 Y113.010 E5.45124
G1 X123.010 Y124.477 E5.99111
G1 X123.010 Y125.056 E6.01039
G1 X135.056 Y113.010 E6.57753
G1 X135.635 Y113.010 E6.59682
G1 X123.010 Y125.635 E7.19123
G1 X123.010 Y126.215 E7.21051
G1 X136.215 Y113.010 E7.83219
G1 X136.794 Y113.010 E7.85147
G1 X123.010 Y126.794 E8.50042
G1 X123.010 Y127.373 E8.51971
G1 X137.373 Y113.010 E9.19592
G1 X137.952 Y113.010 E9.21521
G1 X123.010 Y127.952 E9.91870
G1 X123.010 Y128.532 E9.93798
G1 X138.532 Y113.010 E10.66874
G1 X139.111 Y113.010 E10.68802
G1 X123.010 Y129.111 E11.44605
G1 X123.010 Y129.690 E11.46533
G1 X139.690 Y113.010 E12.25063
G1 X140.269 Y113.010 E12.26992
G1 X123.010 Y130.269 E13.08249
G1 X123.010 Y130.848 E13.10177
G1 X140.848 Y113.010 E13.94161
G1 X141.428 Y113.010 E13.96089
G1 X123.010 Y131.428 E14.82800
G1 X123.010 Y132.007 E14.84728
G1 X142.007 Y113.010 E15.74166
G1 X142.586 Y113.010 E15.76095
G1 X123.010 Y132.586 E16.68259
G1 X123.010 Y133.165 E16.70188
G1 X143.165 Y113.010 E17.65080
G1 X143.745 Y113.010 E17.67008
G1 X123.010 Y133.745 E18.64627
G1 X123.010 Y134.324 E18.66555
G1 X144.324 Y113.010 E19.66901
G1 X144.903 Y113.010 E19.68829
G1 X123.010 Y134.903 E20.71902
G1 X123.010 Y135.482 E20.73830
G1 X145.482 Y113.010 E21.79630
G1 X146.061 Y113.010 E21.81559
G1 X123.010 Y136.061 E22.90086
G1 X123.010 Y136.641 E22.92014
G1 X146.641 Y113.010 E24.03268
G1 X147.220 Y113.010 E24.05196
G1 X123.010 Y137.220 E25.19177
G1 X123.010 Y137.799 E25.21105
G1 X147.799 Y113.010 E26.37813
G1 X148.378 Y113.010 E26.39741
G1 X123.010 Y138.378 E27.59176
G1 X123.010 Y138.958 E27.61104
G1 X148.958 Y113.010 E28.83266
G1 X149.537 Y113.010 E28.85194
G1 X123.010 Y139.537 E30.10083
