; generated by PrusaSlicer 2.2.0+win64 on 2020-10-26 at 07:55:30 UTC

; 

; external perimeters extrusion width = 0.45mm
; perimeters extrusion width = 0.45mm
; infill extrusion width = 0.45mm
; solid infill extrusion width = 0.45mm
; top infill extrusion width = 0.40mm
; first layer extrusion width = 0.42mm

M107
M190 S60 ; set bed temperature and wait for it to be reached
M104 S200 ; set temperature
G28 ; home all axes
;G29 S1
G1 Z5 F5000 ;E lift nozzle
M109 S200 ; set temperature and wait for it to be reached
G21 ; set units to millimeters
G90 ; use absolute coordinates
M82 ; use absolute distances for extrusion
G92 E0
; Filament gcode
G29 S1 P"heightmap_pla.csv"
M109 S200; heat nozzle to first_layer_temperature
G92 E0 ; reset extruder

G1 X0 Y200 Z0.2 F3000.0 ; move to start-line position2
G1 X0 Y20 Z0.2 F1500.0 E15 ; draw 1st line
G1 X0.5 Y20 Z0.2 F5000.0 ; move to side a little
G1 X0.5 Y200 Z0.2F1500.0 E30 ; draw 2nd line
G92 E0 ; reset extruder
G1 Z1.0 F1000 ; move z up little to prevent scratching of surface
G1 Z0.200 F7800.000
G10 ; retract
G92 E0
G1 X115.733 Y106.947
G11 ; unretract
G92 E0
G1 F1200.000
G1 X116.996 Y105.692 E0.05583
G1 X118.488 Y104.719 E0.11165
G1 X120.152 Y104.067 E0.16770
G1 X121.907 Y103.766 E0.22353
G1 X162.507 Y103.746 E1.49653
G1 X164.078 Y103.889 E1.54597
G1 X165.603 Y104.314 E1.59563
G1 X167.028 Y105.008 E1.64530
G1 X168.298 Y105.941 E1.69474
G1 X169.381 Y107.088 E1.74417
G1 X170.243 Y108.416 E1.79384
G1 X170.852 Y109.879 E1.84351
G1 X171.187 Y111.419 E1.89294
G1 X171.254 Y112.491 E1.92661
G1 X171.247 Y152.858 E3.19229
G1 X171.075 Y154.264 E3.23670
G1 X170.680 Y155.617 E3.28089
G1 X170.071 Y156.896 E3.32530
G1 X169.267 Y158.053 E3.36949
G1 X168.631 Y158.749 E3.39904
G1 X167.929 Y159.367 E3.42836
G1 X167.160 Y159.911 E3.45791
G1 X166.336 Y160.369 E3.48747
G1 X165.468 Y160.736 E3.51702
G1 X164.572 Y161.005 E3.54634
G1 X163.646 Y161.179 E3.57589
G1 X162.706 Y161.252 E3.60544
G1 X122.120 Y161.246 E4.87799
G1 X120.729 Y161.073 E4.92195
G1 X119.376 Y160.678 E4.96614
G1 X118.104 Y160.071 E5.01032
G1 X116.947 Y159.267 E5.05451
G1 X116.251 Y158.631 E5.08406
G1 X115.633 Y157.929 E5.11338
G1 X115.089 Y157.160 E5.14293
G1 X114.631 Y156.336 E5.17248
G1 X114.264 Y155.468 E5.20203
G1 X113.995 Y154.572 E5.23136
G1 X113.821 Y153.646 E5.26091
G1 X113.748 Y152.706 E5.29046
G1 X113.754 Y112.120 E6.56301
G1 X113.927 Y110.729 E6.60697
G1 X114.322 Y109.376 E6.65115
G1 X114.929 Y108.104 E6.69534
G1 X115.699 Y106.996 E6.73764
G1 X116.009 Y107.212 F7800.000
G1 F1200.000
G1 X117.257 Y105.966 E6.79294
G1 X118.689 Y105.040 E6.84643
G1 X120.273 Y104.424 E6.89970
G1 X121.955 Y104.141 E6.95319
G1 X162.507 Y104.123 E8.22467
G1 X164.015 Y104.261 E8.27213
G1 X165.479 Y104.671 E8.31982
G1 X166.840 Y105.335 E8.36729
G1 X168.059 Y106.233 E8.41475
G1 X169.096 Y107.335 E8.46222
G1 X169.921 Y108.613 E8.50991
G1 X170.499 Y110.012 E8.55737
G1 X170.817 Y111.500 E8.60506
G1 X170.877 Y112.491 E8.63621
G1 X170.870 Y152.836 E9.90119
G1 X170.706 Y154.183 E9.94374
G1 X170.324 Y155.493 E9.98652
G1 X169.735 Y156.723 E10.02929
G1 X168.958 Y157.836 E10.07184
G1 X167.676 Y159.087 E10.12801
G1 X166.151 Y160.040 E10.18440
G1 X164.464 Y160.644 E10.24057
G1 X162.681 Y160.875 E10.29696
G1 X122.150 Y160.870 E11.56777
G1 X120.803 Y160.703 E11.61032
G1 X119.501 Y160.322 E11.65287
G1 X118.277 Y159.735 E11.69542
G1 X117.164 Y158.958 E11.73797
G1 X115.913 Y157.676 E11.79414
G1 X114.960 Y156.151 E11.85053
G1 X114.356 Y154.464 E11.90670
G1 X114.125 Y152.681 E11.96309
G1 X114.130 Y112.150 E13.23390
G1 X114.297 Y110.803 E13.27645
G1 X114.678 Y109.501 E13.31900
G1 X115.265 Y108.277 E13.36155
G1 X115.974 Y107.261 E13.40038
G10 ; retract
G92 E0
G1 X122.910 Y112.910 F7800.000
G11 ; unretract
G92 E0
G1 F1200.000
G1 X162.090 Y112.910 E1.22846
G1 X162.090 Y152.090 E2.45692
G1 X122.910 Y152.090 E3.68538
G1 X122.910 Y112.970 E4.91196
G10 ; retract
G92 E0
G1 X161.996 Y113.769 F7800.000
G11 ; unretract
G92 E0
G1 F1200.000
G1 X161.401 Y113.174 E0.02644
G1 X160.866 Y113.174 E0.04324
G1 X161.826 Y114.134 E0.08590
G1 X161.826 Y114.668 E0.10271
G1 X160.332 Y113.174 E0.16914
G1 X159.797 Y113.174 E0.18594
G1 X161.826 Y115.203 E0.27614
G1 X161.826 Y115.737 E0.29295
G1 X159.263 Y113.174 E0.40691
G1 X158.728 Y113.174 E0.42372
G1 X161.826 Y116.272 E0.56145
G1 X161.826 Y116.807 E0.57826
G1 X158.193 Y113.174 E0.73976
G1 X157.659 Y113.174 E0.75657
G1 X161.826 Y117.341 E0.94184
G1 X161.826 Y117.876 E0.95865
G1 X157.124 Y113.174 E1.16768
G1 X156.589 Y113.174 E1.18449
G1 X161.826 Y118.411 E1.41730
G1 X161.826 Y118.945 E1.43410
G1 X156.055 Y113.174 E1.69068
G1 X155.520 Y113.174 E1.70748
G1 X161.826 Y119.480 E1.98783
G1 X161.826 Y120.015 E2.00463
G1 X154.985 Y113.174 E2.30874
G1 X154.451 Y113.174 E2.32555
G1 X161.826 Y120.549 E2.65343
G1 X161.826 Y121.084 E2.67024
G1 X153.916 Y113.174 E3.02188
G1 X153.381 Y113.174 E3.03869
G1 X161.826 Y121.619 E3.41411
G1 X161.826 Y122.153 E3.43091
G1 X152.847 Y113.174 E3.83010
G1 X152.312 Y113.174 E3.84690
G1 X161.826 Y122.688 E4.26986
G1 X161.826 Y123.223 E4.28666
G1 X151.777 Y113.174 E4.73338
G1 X151.243 Y113.174 E4.75019
G1 X161.826 Y123.757 E5.22068
G1 X161.826 Y124.292 E5.23749
G1 X150.708 Y113.174 E5.73174
G1 X150.174 Y113.174 E5.74855
G1 X161.826 Y124.826 E6.26658
G1 X161.826 Y125.361 E6.28338
G1 X149.639 Y113.174 E6.82518
G1 X149.104 Y113.174 E6.84198
G1 X161.826 Y125.896 E7.40754
G1 X161.826 Y126.430 E7.42435
G1 X148.570 Y113.174 E8.01368
G1 X148.035 Y113.174 E8.03049
G1 X161.826 Y126.965 E8.64359
G1 X161.826 Y127.500 E8.66039
G1 X147.500 Y113.174 E9.29726
G1 X146.966 Y113.174 E9.31407
G1 X161.826 Y128.034 E9.97470
G1 X161.826 Y128.569 E9.99151
G1 X146.431 Y113.174 E10.67591
G1 X145.896 Y113.174 E10.69272
G1 X161.826 Y129.104 E11.40089
G1 X161.826 Y129.638 E11.41769
G1 X145.362 Y113.174 E12.14963
G1 X144.827 Y113.174 E12.16644
G1 X161.826 Y130.173 E12.92215
G1 X161.826 Y130.708 E12.93895
G1 X144.292 Y113.174 E13.71843
G1 X143.758 Y113.174 E13.73524
G1 X161.826 Y131.242 E14.53848
G1 X161.826 Y131.777 E14.55529
G1 X143.223 Y113.174 E15.38230
G1 X142.688 Y113.174 E15.39911
G1 X161.826 Y132.312 E16.24989
G1 X161.826 Y132.846 E16.26669
G1 X142.154 Y113.174 E17.14124
G1 X141.619 Y113.174 E17.15805
G1 X161.826 Y133.381 E18.05637
G1 X161.826 Y133.915 E18.07317
G1 X141.085 Y113.174 E18.99526
G1 X140.550 Y113.174 E19.01207
G1 X161.826 Y134.450 E19.95792
G1 X161.826 Y134.985 E19.97473
G1 X140.015 Y113.174 E20.94435
G1 X139.481 Y113.174 E20.96116
G1 X161.826 Y135.519 E21.95455
G1 X161.826 Y136.054 E21.97135
G1 X138.946 Y113.174 E22.98851
G1 X138.411 Y113.174 E23.00532
G1 X161.826 Y136.589 E24.04624
G1 X161.826 Y137.123 E24.06305
G1 X137.877 Y113.174 E25.12775
G1 X137.342 Y113.174 E25.14455
G1 X161.826 Y137.658 E26.23301
G1 X161.826 Y138.193 E26.24982
G1 X136.807 Y113.174 E27.36205
G1 X136.273 Y113.174 E27.37886
G1 X161.826 Y138.727 E28.51486
G1 X161.826 Y139.262 E28.53167
G1 X135.738 Y113.174 E29.69143
G1 X135.203 Y113.174 E29.70824
G1 X161.826 Y139.797 E30.89178
G1 X161.826 Y140.331 E30.90858
G1 X134.669 Y113.174 E32.11589
G1 X134.134 Y113.174 E32.13269
G1 X161.826 Y140.866 E33.36377
G1 X161.826 Y141.401 E33.38057
G1 X133.599 Y113.174 E34.63541
G1 X133.065 Y113.174 E34.65222
G1 X161.826 Y141.935 E35.93083
G1 X161.826 Y142.470 E35.94764
G1 X132.530 Y113.174 E37.25001
G1 X131.996 Y113.174 E37.26682
G1 X161.826 Y143.004 E38.59297
G1 X161.826 Y143.539 E38.60977
G1 X131.461 Y113.174 E39.95969
G1 X130.926 Y113.174 E39.97649
G1 X161.826 Y144.074 E41.35018
G1 X161.826 Y144.608 E41.36698
G1 X130.392 Y113.174 E42.76443
G1 X129.857 Y113.174 E42.78124
G1 X161.826 Y145.143 E44.20246
G1 X161.826 Y145.678 E44.21926
G1 X129.322 Y113.174 E45.66425
G1 X128.788 Y113.174 E45.68106
G1 X161.826 Y146.212 E47.14981
G1 X161.826 Y146.747 E47.16662
G1 X128.253 Y113.174 E48.65914
G1 X127.718 Y113.174 E48.67595
G1 X161.826 Y147.282 E50.19224
G1 X161.826 Y147.816 E50.20905
G1 X127.184 Y113.174 E51.74911
G1 X126.649 Y113.174 E51.76591
G1 X161.826 Y148.351 E53.32974
G1 X161.826 Y148.886 E53.34655
G1 X126.114 Y113.174 E54.93414
G1 X125.580 Y113.174 E54.95095
G1 X161.826 Y149.420 E56.56232
G1 X161.826 Y149.955 E56.57912
G1 X125.045 Y113.174 E58.21426
G1 X124.510 Y113.174 E58.23106
G1 X161.826 Y150.489 E59.88996
G1 X161.826 Y151.024 E59.90677
G1 X123.976 Y113.174 E61.58944
G1 X123.441 Y113.174 E61.60625
G1 X161.826 Y151.559 E63.31268
G1 X161.826 Y151.826 E63.32108
G1 X161.559 Y151.826 E63.32949
G1 X123.174 Y113.441 E65.03592
G1 X123.174 Y113.976 E65.05273
G1 X161.024 Y151.826 E66.73539
G1 X160.489 Y151.826 E66.75220
G1 X123.174 Y114.511 E68.41109
G1 X123.174 Y115.045 E68.42790
G1 X159.955 Y151.826 E70.06303
G1 X159.420 Y151.826 E70.07984
G1 X123.174 Y115.580 E71.69119
G1 X123.174 Y116.115 E71.70800
G1 X158.885 Y151.826 E73.29559
G1 X158.351 Y151.826 E73.31240
G1 X123.174 Y116.649 E74.87622
G1 X123.174 Y117.184 E74.89303
G1 X157.816 Y151.826 E76.43308
G1 X157.282 Y151.826 E76.44989
G1 X123.174 Y117.718 E77.96618
G1 X123.174 Y118.253 E77.98298
G1 X156.747 Y151.826 E79.47550
G1 X156.212 Y151.826 E79.49231
G1 X123.174 Y118.788 E80.96106
G1 X123.174 Y119.322 E80.97786
G1 X155.678 Y151.826 E82.42284
G1 X155.143 Y151.826 E82.43965
G1 X123.174 Y119.857 E83.86086
G1 X123.174 Y120.392 E83.87767
G1 X154.608 Y151.826 E85.27512
G1 X154.074 Y151.826 E85.29192
G1 X123.174 Y120.926 E86.66560
G1 X123.174 Y121.461 E86.68241
G1 X153.539 Y151.826 E88.03232
G1 X153.004 Y151.826 E88.04912
G1 X123.174 Y121.996 E89.37526
G1 X123.174 Y122.530 E89.39207
G1 X152.470 Y151.826 E90.69444
G1 X151.935 Y151.826 E90.71125
G1 X123.174 Y123.065 E91.98985
G1 X123.174 Y123.600 E92.00666
G1 X151.400 Y151.826 E93.26149
G1 X150.866 Y151.826 E93.27830
G1 X123.174 Y124.134 E94.50937
G1 X123.174 Y124.669 E94.52617
G1 X150.331 Y151.826 E95.73347
G1 X149.796 Y151.826 E95.75028
G1 X123.174 Y125.204 E96.93381
G1 X123.174 Y125.738 E96.95062
G1 X149.262 Y151.826 E98.11038
G1 X148.727 Y151.826 E98.12719
G1 X123.174 Y126.273 E99.26318
G1 X123.174 Y126.807 E99.27999
G1 X148.193 Y151.826 E100.39221
G1 X147.658 Y151.826 E100.40902
G1 X123.174 Y127.342 E101.49748
G1 X123.174 Y127.877 E101.51428
G1 X147.123 Y151.826 E102.57897
G1 X146.589 Y151.826 E102.59578
G1 X123.174 Y128.411 E103.63670
G1 X123.174 Y128.946 E103.65351
G1 X146.054 Y151.826 E104.67066
G1 X145.519 Y151.826 E104.68747
G1 X123.174 Y129.481 E105.68085
G1 X123.174 Y130.015 E105.69766
G1 X144.985 Y151.826 E106.66728
G1 X144.450 Y151.826 E106.68408
G1 X123.174 Y130.550 E107.62993
G1 X123.174 Y131.085 E107.64674
G1 X143.915 Y151.826 E108.56882
G1 X143.381 Y151.826 E108.58563
G1 X123.174 Y131.619 E109.48394
G1 X123.174 Y132.154 E109.50074
G1 X142.846 Y151.826 E110.37529
G1 X142.311 Y151.826 E110.39209
G1 X123.174 Y132.689 E111.24287
G1 X123.174 Y133.223 E111.25968
G1 X141.777 Y151.826 E112.08668
G1 X141.242 Y151.826 E112.10349
G1 X123.174 Y133.758 E112.90673
G1 X123.174 Y134.293 E112.92354
G1 X140.707 Y151.826 E113.70301
G1 X140.173 Y151.826 E113.71981
G1 X123.174 Y134.827 E114.47552
G1 X123.174 Y135.362 E114.49232
G1 X139.638 Y151.826 E115.22426
G1 X139.104 Y151.826 E115.24106
G1 X123.174 Y135.896 E115.94923
G1 X123.174 Y136.431 E115.96604
G1 X138.569 Y151.826 E116.65043
G1 X138.034 Y151.826 E116.66724
G1 X123.174 Y136.966 E117.32787
G1 X123.174 Y137.500 E117.34468
G1 X137.500 Y151.826 E117.98154
G1 X136.965 Y151.826 E117.99834
G1 X123.174 Y138.035 E118.61144
G1 X123.174 Y138.570 E118.62824
G1 X136.430 Y151.826 E119.21757
G1 X135.896 Y151.826 E119.23438
G1 X123.174 Y139.104 E119.79993
G1 X123.174 Y139.639 E119.81674
G1 X135.361 Y151.826 E120.35853
G1 X134.826 Y151.826 E120.37533
G1 X123.174 Y140.174 E120.89335
G1 X123.174 Y140.708 E120.91016
G1 X134.292 Y151.826 E121.40441
G1 X133.757 Y151.826 E121.42122
G1 X123.174 Y141.243 E121.89170
G1 X123.174 Y141.778 E121.90851
G1 X133.222 Y151.826 E122.35522
G1 X132.688 Y151.826 E122.37203
G1 X123.174 Y142.312 E122.79498
G1 X123.174 Y142.847 E122.81178
G1 X132.153 Y151.826 E123.21096
G1 X131.618 Y151.826 E123.22777
G1 X123.174 Y143.382 E123.60318
G1 X123.174 Y143.916 E123.61999
G1 X131.084 Y151.826 E123.97163
G1 X130.549 Y151.826 E123.98844
G1 X123.174 Y144.451 E124.31631
G1 X123.174 Y144.985 E124.33312
G1 X130.015 Y151.826 E124.63722
G1 X129.480 Y151.826 E124.65403
G1 X123.174 Y145.520 E124.93437
G1 X123.174 Y146.055 E124.95117
G1 X128.945 Y151.826 E125.20774
G1 X128.411 Y151.826 E125.22455
G1 X123.174 Y146.589 E125.45735
G1 X123.174 Y147.124 E125.47416
G1 X127.876 Y151.826 E125.68319
G1 X127.341 Y151.826 E125.70000
G1 X123.174 Y147.659 E125.88526
G1 X123.174 Y148.193 E125.90207
G1 X126.807 Y151.826 E126.06356
G1 X126.272 Y151.826 E126.08037
G1 X123.174 Y148.728 E126.21810
G1 X123.174 Y149.263 E126.23491
G1 X125.737 Y151.826 E126.34887
G1 X125.203 Y151.826 E126.36567
G1 X123.174 Y149.797 E126.45586
G1 X123.174 Y150.332 E126.47267
G1 X124.668 Y151.826 E126.53909
G1 X124.133 Y151.826 E126.55590
G1 X123.174 Y150.867 E126.59856
G1 X123.174 Y151.401 E126.61536
G1 X123.768 Y151.996 E126.64179
G1 Z0.400 F7800.000
G1 X123.768 Y152.275
G1 F1800.000
G1 X122.725 Y152.275 E126.67711
G1 X122.725 Y112.725 E128.01583
G1 X162.275 Y112.725 E129.35455
G1 X162.275 Y152.275 E130.69327
G1 X123.828 Y152.275 E131.99464
G10 ; retract
G92 E0
G1 X122.827 Y113.655 F7800.000
G11 ; unretract
G92 E0
G1 F1200.000
G1 X123.472 Y113.010 E0.03106
G1 X124.051 Y113.010 E0.05079
G1 X123.010 Y114.051 E0.10093
G1 X123.010 Y114.630 E0.12065
G1 X124.630 Y113.010 E0.19869
G1 X125.209 Y113.010 E0.21841
G1 X123.010 Y115.209 E0.32435
G1 X123.010 Y115.789 E0.34407
G1 X125.789 Y113.010 E0.47790
G1 X126.368 Y113.010 E0.49763
G1 X123.010 Y116.368 E0.65935
G1 X123.010 Y116.947 E0.67908
G1 X126.947 Y113.010 E0.86870
G1 X127.526 Y113.010 E0.88843
G1 X123.010 Y117.526 E1.10594
G1 X123.010 Y118.106 E1.12567
G1 X128.106 Y113.010 E1.37109
G1 X128.685 Y113.010 E1.39081
G1 X123.010 Y118.685 E1.66412
G1 X123.010 Y119.264 E1.68385
G1 X129.264 Y113.010 E1.98506
G1 X129.843 Y113.010 E2.00479
G1 X123.010 Y119.843 E2.33389
G1 X123.010 Y120.422 E2.35362
G1 X130.422 Y113.010 E2.71062
G1 X131.002 Y113.010 E2.73035
G1 X123.010 Y121.002 E3.11525
G1 X123.010 Y121.581 E3.13497
G1 X131.581 Y113.010 E3.54777
G1 X132.160 Y113.010 E3.56750
G1 X123.010 Y122.160 E4.00819
G1 X123.010 Y122.739 E4.02791
G1 X132.739 Y113.010 E4.49650
G1 X133.319 Y113.010 E4.51623
G1 X123.010 Y123.319 E5.01272
G1 X123.010 Y123.898 E5.03244
G1 X133.898 Y113.010 E5.55683
G1 X134.477 Y113.010 E5.57655
G1 X123.010 Y124.477 E6.12883
G1 X123.010 Y125.056 E6.14856
G1 X135.056 Y113.010 E6.72874
G1 X135.635 Y113.010 E6.74846
G1 X123.010 Y125.635 E7.35654
G1 X123.010 Y126.215 E7.37626
G1 X136.215 Y113.010 E8.01223
G1 X136.794 Y113.010 E8.03196
G1 X123.010 Y126.794 E8.69583
G1 X123.010 Y127.373 E8.71555
G1 X137.373 Y113.010 E9.40732
G1 X137.952 Y113.010 E9.42704
G1 X123.010 Y127.952 E10.14671
G1 X123.010 Y128.532 E10.16643
G1 X138.532 Y113.010 E10.91399
G1 X139.111 Y113.010 E10.93372
G1 X123.010 Y129.111 E11.70917
G1 X123.010 Y129.690 E11.72890
G1 X139.690 Y113.010 E12.53225
G1 X140.269 Y113.010 E12.55197
G1 X123.010 Y130.269 E13.38322
G1 X123.010 Y130.848 E13.40295
G1 X140.848 Y113.010 E14.26209
G1 X141.428 Y113.010 E14.28182
G1 X123.010 Y131.428 E15.16886
G1 X123.010 Y132.007 E15.18859
G1 X142.007 Y113.010 E16.10353
G1 X142.586 Y113.010 E16.12325
G1 X123.010 Y132.586 E17.06609
G1 X123.010 Y133.165 E17.08582
G1 X143.165 Y113.010 E18.05655
G1 X143.745 Y113.010 E18.07627
G1 X123.010 Y133.745 E19.07490
G1 X123.010 Y134.324 E19.09463
G1 X144.324 Y113.010 E20.12116
G1 X144.903 Y113.010 E20.14088
G1 X123.010 Y134.903 E21.19531
G1 X123.010 Y135.482 E21.21503
G1 X145.482 Y113.010 E22.29735
G1 X146.061 Y113.010 E22.31708
G1 X123.010 Y136.061 E23.42729
G1 X123.010 Y136.641 E23.44702
G1 X146.641 Y113.010 E24.58513
G1 X147.220 Y113.010 E24.60486
G1 X123.010 Y137.220 E25.77087
G1 X123.010 Y137.799 E25.79060
G1 X147.799 Y113.010 E26.98450
G1 X148.378 Y113.010 E27.00423
G1 X123.010 Y138.378 E28.22603
G1 X123.010 Y138.958 E28.24576
G1 X148.958 Y113.010 E29.49546
G1 X149.537 Y113.010 E29.51519
G1 X123.010 Y139.537 E30.79278
