; generated by PrusaSlicer 2.2.0+win64 on 2020-11-03 at 20:25:01 UTC

; 

; external perimeters extrusion width = 0.45mm
; perimeters extrusion width = 0.45mm
; infill extrusion width = 0.45mm
; solid infill extrusion width = 0.45mm
; top infill extrusion width = 0.40mm
; support material extrusion width = 0.35mm
; first layer extrusion width = 0.42mm

M107
M190 S123 ; set bed temperature and wait for it to be reached
M104 S260 ; set temperature
G28 ; home all axes
;G29 S1
G1 Z5 F5000 ;E lift nozzle
M109 S260 ; set temperature and wait for it to be reached
G21 ; set units to millimeters
G90 ; use absolute coordinates
M82 ; use absolute distances for extrusion
G92 E0
; Filament gcode
G29 S1 P"heightmap_abs.csv"
M109 S260; heat nozzle to first_layer_temperature
G92 E0 ; reset extruder

G1 X0 Y200 Z0.2 F3000.0 ; move to start-line position2
G1 X0 Y20 Z0.2 F1500.0 E15 ; draw 1st line
G1 X0.5 Y20 Z0.2 F5000.0 ; move to side a little
G1 X0.5 Y200 Z0.2F1500.0 E30 ; draw 2nd line
G92 E0 ; reset extruder
G1 Z1.0 F1000 ; move z up little to prevent scratching of surface
G1 Z0.200 F7800.000
G10 ; retract
G92 E0
G1 X108.105 Y83.298
G11 ; unretract
G92 E0
G1 F1200.000
G1 X109.619 Y82.492 E0.05377
G1 X111.260 Y81.996 E0.10755
G1 X112.968 Y81.830 E0.16133
G1 X120.779 Y81.840 E0.40624
G1 X122.016 Y81.944 E0.44517
G1 X166.239 Y90.004 E1.85459
G1 X167.420 Y90.308 E1.89283
G1 X168.304 Y90.657 E1.92261
G1 X169.144 Y91.099 E1.95239
G1 X169.932 Y91.629 E1.98217
G1 X170.658 Y92.242 E2.01195
G1 X182.545 Y104.365 E2.54431
G1 X183.310 Y105.268 E2.58141
G1 X184.016 Y106.394 E2.62308
G1 X184.541 Y107.607 E2.66452
G1 X184.877 Y108.886 E2.70597
G1 X185.017 Y110.207 E2.74764
G1 X185.157 Y124.813 E3.20560
G1 X185.155 Y168.049 E4.56126
G1 X185.074 Y169.040 E4.59242
G1 X184.881 Y170.022 E4.62380
G1 X184.576 Y170.975 E4.65518
G1 X184.168 Y171.881 E4.68633
G1 X183.655 Y172.741 E4.71772
G1 X183.053 Y173.531 E4.74887
G1 X182.365 Y174.248 E4.78002
G1 X181.600 Y174.882 E4.81117
G1 X180.474 Y175.588 E4.85285
G1 X179.254 Y176.115 E4.89452
G1 X177.968 Y176.451 E4.93619
G1 X176.646 Y176.588 E4.97786
G1 X119.719 Y176.589 E6.76276
G1 X118.729 Y176.506 E6.79391
G1 X117.755 Y176.311 E6.82506
G1 X116.809 Y176.007 E6.85622
G1 X115.903 Y175.599 E6.88737
G1 X115.050 Y175.090 E6.91852
G1 X114.260 Y174.487 E6.94968
G1 X113.543 Y173.799 E6.98083
G1 X112.909 Y173.035 E7.01198
G1 X111.997 Y171.488 E7.06826
G1 X111.419 Y169.789 E7.12454
G1 X96.121 Y100.732 E9.34226
G1 X95.970 Y99.802 E9.37181
G1 X95.920 Y98.861 E9.40136
G1 X96.034 Y97.463 E9.44532
G1 X96.371 Y96.095 E9.48951
G1 X96.920 Y94.805 E9.53346
G1 X97.672 Y93.613 E9.57765
G1 X98.445 Y92.717 E9.61475
G1 X106.772 Y84.389 E9.98402
G1 X108.058 Y83.336 E10.03614
G1 X109.052 Y83.173 F7800.000
G1 F1200.000
G1 X110.300 Y82.640 E10.07869
G1 X111.611 Y82.316 E10.12102
G1 X112.963 Y82.207 E10.16357
G1 X120.769 Y82.217 E10.40831
G1 X121.951 Y82.316 E10.44549
G1 X166.171 Y90.375 E11.85482
G1 X167.299 Y90.665 E11.89133
G1 X168.953 Y91.424 E11.94839
G1 X170.404 Y92.522 E12.00545
G1 X182.275 Y104.629 E12.53708
G1 X182.997 Y105.478 E12.57203
G1 X183.677 Y106.561 E12.61212
G1 X184.183 Y107.727 E12.65199
G1 X184.508 Y108.964 E12.69209
G1 X184.640 Y110.229 E12.73196
G1 X184.780 Y124.815 E13.18932
G1 X184.778 Y168.031 E14.54431
G1 X184.702 Y168.978 E14.57412
G1 X184.520 Y169.911 E14.60392
G1 X184.230 Y170.824 E14.63394
G1 X183.841 Y171.691 E14.66375
G1 X183.357 Y172.509 E14.69355
G1 X182.783 Y173.267 E14.72335
G1 X182.122 Y173.959 E14.75338
G1 X181.391 Y174.568 E14.78318
G1 X180.309 Y175.248 E14.82327
G1 X179.136 Y175.756 E14.86337
G1 X177.899 Y176.080 E14.90346
G1 X176.627 Y176.212 E14.94355
G1 X119.739 Y176.212 E16.72723
G1 X118.799 Y176.135 E16.75681
G1 X117.866 Y175.950 E16.78661
G1 X116.960 Y175.662 E16.81641
G1 X116.093 Y175.272 E16.84622
G1 X115.276 Y174.787 E16.87602
G1 X114.519 Y174.213 E16.90582
G1 X113.832 Y173.556 E16.93562
G1 X113.223 Y172.826 E16.96543
G1 X112.343 Y171.339 E17.01959
G1 X111.787 Y169.704 E17.07375
G1 X96.491 Y100.658 E19.29112
G1 X96.297 Y98.892 E19.34684
G1 X96.455 Y97.250 E19.39854
G1 X96.928 Y95.678 E19.45002
G1 X97.703 Y94.222 E19.50173
G1 X98.748 Y92.947 E19.55344
G1 X107.069 Y84.626 E19.92240
G1 X107.907 Y83.901 E19.95712
G1 X109.002 Y83.205 E19.99779
G10 ; retract
G92 E0
G1 X118.645 Y86.094 F7800.000
G11 ; unretract
G92 E0
G1 F1200.000
G1 X119.907 Y85.733 E0.04116
G1 X121.430 Y85.735 E0.08891
G1 X122.542 Y86.044 E0.12512
G1 X123.648 Y86.681 E0.16513
G1 X124.728 Y87.722 E0.21216
G1 X129.152 Y92.146 E0.40833
G1 X130.521 Y93.632 E0.47168
G1 X130.978 Y94.512 E0.50277
G1 X131.247 Y95.457 E0.53357
G1 X131.302 Y96.737 E0.57373
G1 X131.079 Y97.966 E0.61289
G1 X132.141 Y97.805 E0.64656
G1 X159.569 Y97.799 E1.50654
G1 X159.811 Y96.983 E1.53320
G1 X160.470 Y95.895 E1.57309
G1 X161.473 Y94.860 E1.61828
G1 X162.402 Y94.231 E1.65346
G1 X163.800 Y93.795 E1.69937
G1 X165.182 Y93.787 E1.74270
G1 X166.281 Y94.074 E1.77832
G1 X167.227 Y94.584 E1.81202
G1 X168.056 Y95.368 E1.84780
G1 X168.288 Y95.555 E1.85713
G1 X179.007 Y106.273 E2.33239
G1 X180.380 Y107.756 E2.39578
G1 X180.766 Y108.471 E2.42125
G1 X181.037 Y109.239 E2.44679
G1 X181.172 Y110.720 E2.49342
G1 X180.913 Y112.084 E2.53696
G1 X180.264 Y113.334 E2.58112
G1 X174.521 Y119.129 E2.83693
G1 X175.724 Y119.136 E2.87467
G1 X177.064 Y119.373 E2.91734
G1 X178.397 Y119.972 E2.96314
G1 X179.578 Y120.940 E3.01104
G1 X180.504 Y122.264 E3.06171
G1 X181.002 Y123.685 E3.10892
G1 X181.115 Y124.668 E3.13993
G1 X181.117 Y168.347 E4.50947
G1 X180.818 Y169.570 E4.54894
G1 X180.399 Y170.406 E4.57825
G1 X178.972 Y171.833 E4.64155
G1 X178.136 Y172.253 E4.67086
G1 X176.913 Y172.551 E4.71034
G1 X119.444 Y172.551 E6.51224
G1 X118.220 Y172.253 E6.55172
G1 X117.385 Y171.833 E6.58103
G1 X115.957 Y170.406 E6.64433
G1 X115.538 Y169.570 E6.67364
G1 X115.240 Y168.347 E6.71312
G1 X115.240 Y144.153 E7.47170
G1 X108.838 Y137.753 E7.75554
G1 X107.909 Y135.998 E7.81778
G1 X107.760 Y135.129 E7.84544
G1 X107.763 Y134.030 E7.87988
G1 X107.977 Y133.060 E7.91105
G1 X108.133 Y132.712 E7.92300
G1 X107.836 Y132.081 E7.94486
G1 X107.622 Y131.112 E7.97598
G1 X107.630 Y129.869 E8.01496
G1 X107.875 Y128.836 E8.04823
G1 X106.765 Y127.679 E8.09852
G1 X106.143 Y126.524 E8.13964
G1 X105.863 Y125.321 E8.17839
G1 X105.885 Y124.040 E8.21856
G1 X106.082 Y123.221 E8.24497
G1 X106.226 Y122.893 E8.25620
G1 X105.981 Y122.372 E8.27426
G1 X105.727 Y121.327 E8.30798
G1 X105.710 Y120.179 E8.34396
G1 X105.908 Y119.183 E8.37582
G1 X106.099 Y118.759 E8.39040
G1 X105.984 Y118.525 E8.39856
G1 X105.616 Y117.081 E8.44529
G1 X105.618 Y116.251 E8.47133
G1 X105.743 Y115.410 E8.49798
G1 X106.042 Y114.651 E8.52356
G1 X105.899 Y114.347 E8.53408
G1 X105.677 Y113.527 E8.56072
G1 X105.624 Y112.195 E8.60253
G1 X105.848 Y111.097 E8.63765
G1 X106.034 Y110.688 E8.65175
G1 X105.683 Y109.591 E8.68785
G1 X105.616 Y108.316 E8.72788
G1 X105.888 Y107.005 E8.76986
G1 X100.765 Y101.849 E8.99774
G1 X100.196 Y100.908 E9.03223
G1 X99.861 Y99.894 E9.06571
G1 X99.769 Y98.592 E9.10664
G1 X100.083 Y97.101 E9.15441
G1 X100.872 Y95.737 E9.20380
G1 X109.905 Y86.723 E9.60394
G1 X110.656 Y86.225 E9.63220
G1 X112.127 Y85.763 E9.68055
G1 X113.552 Y85.767 E9.72522
G1 X114.706 Y86.101 E9.76289
G1 X115.866 Y85.745 E9.80092
G1 X117.421 Y85.731 E9.84969
G1 X118.360 Y85.962 E9.88002
G1 X118.590 Y86.069 E9.88797
G1 X118.667 Y86.525 F7800.000
G1 F1200.000
G1 X118.865 Y86.422 E9.89497
G1 X119.935 Y86.110 E9.92992
G1 X121.356 Y86.106 E9.97446
G1 X122.377 Y86.384 E10.00764
G1 X123.403 Y86.970 E10.04470
G1 X124.463 Y87.990 E10.09082
G1 X128.883 Y92.410 E10.28683
G1 X130.199 Y93.830 E10.34752
G1 X130.621 Y94.637 E10.37606
G1 X130.871 Y95.496 E10.40414
G1 X130.925 Y96.731 E10.44288
G1 X130.747 Y97.683 E10.47323
G1 X130.499 Y98.222 E10.49186
G1 X130.668 Y98.487 E10.50173
G1 X131.033 Y98.355 E10.51391
G1 X132.156 Y98.182 E10.54953
G1 X159.855 Y98.176 E11.41800
G1 X160.147 Y97.155 E11.45127
G1 X160.756 Y96.142 E11.48834
G1 X161.730 Y95.137 E11.53221
G1 X162.589 Y94.560 E11.56469
G1 X163.830 Y94.172 E11.60544
G1 X165.158 Y94.164 E11.64709
G1 X166.162 Y94.433 E11.67967
G1 X166.986 Y94.875 E11.70899
G1 X167.809 Y95.654 E11.74450
G1 X168.029 Y95.829 E11.75334
G1 X178.738 Y106.537 E12.22816
G1 X180.061 Y107.957 E12.28900
G1 X180.416 Y108.613 E12.31241
G1 X180.665 Y109.299 E12.33529
G1 X180.797 Y110.678 E12.37872
G1 X180.565 Y111.938 E12.41888
G1 X179.975 Y113.089 E12.45945
G1 X173.616 Y119.506 E12.74267
G1 X175.676 Y119.510 E12.80726
G1 X176.933 Y119.727 E12.84725
G1 X178.178 Y120.280 E12.88994
G1 X179.319 Y121.215 E12.93621
G1 X180.157 Y122.413 E12.98205
G1 X180.638 Y123.789 E13.02776
G1 X180.739 Y124.699 E13.05645
G1 X180.740 Y168.324 E14.42429
G1 X180.458 Y169.458 E14.46093
G1 X180.077 Y170.208 E14.48732
G1 X178.774 Y171.511 E14.54508
G1 X178.024 Y171.892 E14.57147
G1 X176.889 Y172.174 E14.60811
G1 X119.467 Y172.174 E16.40855
G1 X118.333 Y171.892 E16.44519
G1 X117.583 Y171.511 E16.47158
G1 X116.280 Y170.208 E16.52935
G1 X115.899 Y169.458 E16.55573
G1 X115.617 Y168.324 E16.59238
G1 X115.617 Y143.997 E17.35512
G1 X109.125 Y137.506 E17.64298
G1 X108.275 Y135.904 E17.69983
G1 X108.137 Y135.113 E17.72500
G1 X108.140 Y134.053 E17.75825
G1 X108.340 Y133.164 E17.78681
G1 X108.551 Y132.710 E17.80252
G1 X108.199 Y131.976 E17.82803
G1 X107.999 Y131.092 E17.85644
G1 X108.007 Y129.894 E17.89403
G1 X108.235 Y128.957 E17.92425
G1 X108.323 Y128.756 E17.93114
G1 X107.084 Y127.475 E17.98701
G1 X106.504 Y126.412 E18.02499
G1 X106.240 Y125.302 E18.06076
G1 X106.256 Y124.107 E18.09822
G1 X106.444 Y123.328 E18.12336
G1 X106.643 Y122.888 E18.13849
G1 X106.342 Y122.261 E18.16029
G1 X106.103 Y121.298 E18.19141
G1 X106.084 Y120.232 E18.22483
G1 X106.273 Y119.280 E18.25528
G1 X106.522 Y118.747 E18.27371
G1 X106.343 Y118.407 E18.28577
G1 X105.993 Y117.057 E18.32948
G1 X105.995 Y116.266 E18.35430
G1 X106.113 Y115.489 E18.37894
G1 X106.455 Y114.635 E18.40779
G1 X106.258 Y114.230 E18.42190
G1 X106.046 Y113.450 E18.44726
G1 X106.002 Y112.205 E18.48632
G1 X106.212 Y111.197 E18.51859
G1 X106.439 Y110.713 E18.53536
G1 X106.058 Y109.546 E18.57386
G1 X105.994 Y108.321 E18.61230
G1 X106.245 Y107.139 E18.65020
G1 X106.338 Y106.923 E18.65757
G1 X101.075 Y101.633 E18.89155
G1 X100.547 Y100.769 E18.92332
G1 X100.226 Y99.799 E18.95534
G1 X100.147 Y98.593 E18.99324
G1 X100.425 Y97.263 E19.03586
G1 X101.156 Y95.986 E19.08197
G1 X110.131 Y87.025 E19.47964
G1 X110.798 Y86.575 E19.50486
G1 X112.156 Y86.140 E19.54957
G1 X113.523 Y86.144 E19.59244
G1 X114.709 Y86.496 E19.63123
G1 X115.899 Y86.121 E19.67033
G1 X117.354 Y86.103 E19.71597
G1 X118.250 Y86.323 E19.74487
G1 X118.613 Y86.499 E19.75753
G1 X118.680 Y86.954 F7800.000
G1 F1200.000
G1 X118.996 Y86.776 E19.76891
G1 X119.966 Y86.487 E19.80063
G1 X121.284 Y86.476 E19.84197
G1 X122.213 Y86.724 E19.87212
G1 X123.159 Y87.258 E19.90618
G1 X124.198 Y88.258 E19.95136
G1 X128.615 Y92.675 E20.14723
G1 X129.877 Y94.028 E20.20523
G1 X130.278 Y94.795 E20.23240
G1 X130.496 Y95.537 E20.25664
G1 X130.550 Y96.684 E20.29263
G1 X130.381 Y97.588 E20.32148
G1 X130.068 Y98.247 E20.34437
G1 X130.273 Y98.569 E20.35632
G1 X130.423 Y98.987 E20.37025
G1 X131.112 Y98.724 E20.39337
G1 X132.171 Y98.559 E20.42696
G1 X160.142 Y98.553 E21.30398
G1 X160.484 Y97.326 E21.34391
G1 X161.042 Y96.388 E21.37812
G1 X161.986 Y95.414 E21.42064
G1 X162.776 Y94.888 E21.45039
G1 X163.860 Y94.549 E21.48602
G1 X165.134 Y94.542 E21.52595
G1 X166.042 Y94.791 E21.55547
G1 X166.745 Y95.167 E21.58048
G1 X167.562 Y95.940 E21.61574
G1 X167.771 Y96.104 E21.62407
G1 X178.469 Y106.802 E22.09844
G1 X179.741 Y108.159 E22.15677
G1 X180.067 Y108.755 E22.17807
G1 X180.302 Y109.404 E22.19972
G1 X180.419 Y110.685 E22.24005
G1 X180.200 Y111.839 E22.27687
G1 X179.654 Y112.890 E22.31399
G1 X172.712 Y119.881 E22.62289
G1 X175.659 Y119.887 E22.71530
G1 X176.845 Y120.094 E22.75306
G1 X177.958 Y120.587 E22.79122
G1 X179.059 Y121.490 E22.83585
G1 X179.832 Y122.605 E22.87840
G1 X180.275 Y123.891 E22.92103
G1 X180.363 Y124.728 E22.94741
G1 X180.363 Y168.300 E24.31359
G1 X180.098 Y169.344 E24.34735
G1 X179.755 Y170.009 E24.37083
G1 X178.575 Y171.189 E24.42316
G1 X177.909 Y171.532 E24.44664
G1 X176.866 Y171.797 E24.48040
G1 X119.491 Y171.797 E26.27934
G1 X118.447 Y171.532 E26.31310
G1 X117.782 Y171.189 E26.33657
G1 X116.601 Y170.009 E26.38891
G1 X116.259 Y169.344 E26.41238
G1 X115.994 Y168.300 E26.44614
G1 X115.994 Y143.814 E27.21387
G1 X115.807 Y143.654 E27.22159
G1 X109.411 Y137.259 E27.50518
G1 X108.641 Y135.808 E27.55668
G1 X108.514 Y135.097 E27.57934
G1 X108.517 Y134.075 E27.61136
G1 X108.703 Y133.270 E27.63726
G1 X108.971 Y132.708 E27.65679
G1 X108.561 Y131.869 E27.68607
G1 X108.376 Y131.071 E27.71177
G1 X108.379 Y129.961 E27.74657
G1 X108.595 Y129.069 E27.77534
G1 X108.782 Y128.686 E27.78870
G1 X107.401 Y127.270 E27.85072
G1 X106.864 Y126.297 E27.88556
G1 X106.617 Y125.281 E27.91835
G1 X106.628 Y124.174 E27.95305
G1 X106.806 Y123.435 E27.97690
G1 X107.061 Y122.884 E27.99594
G1 X106.702 Y122.149 E28.02158
G1 X106.480 Y121.268 E28.05009
G1 X106.458 Y120.285 E28.08091
G1 X106.638 Y119.378 E28.10991
G1 X106.948 Y118.735 E28.13227
G1 X106.701 Y118.286 E28.14834
G1 X106.370 Y117.032 E28.18900
G1 X106.370 Y116.308 E28.21172
G1 X106.482 Y115.568 E28.23518
G1 X106.870 Y114.619 E28.26733
G1 X106.617 Y114.113 E28.28507
G1 X106.416 Y113.373 E28.30911
G1 X106.379 Y112.217 E28.34537
G1 X106.576 Y111.300 E28.37477
G1 X106.874 Y110.681 E28.39631
G1 X106.754 Y110.470 E28.40393
G1 X106.433 Y109.501 E28.43594
G1 X106.372 Y108.327 E28.47278
G1 X106.608 Y107.245 E28.50750
G1 X106.798 Y106.850 E28.52125
G1 X101.385 Y101.417 E28.76171
G1 X100.880 Y100.591 E28.79207
G1 X100.592 Y99.706 E28.82126
G1 X100.524 Y98.595 E28.85615
G1 X100.768 Y97.422 E28.89371
G1 X101.441 Y96.235 E28.93651
G1 X110.360 Y87.325 E29.33178
G1 X110.943 Y86.925 E29.35395
G1 X112.186 Y86.517 E29.39498
G1 X113.494 Y86.521 E29.43600
G1 X114.487 Y86.821 E29.46853
G1 X114.712 Y86.942 E29.47653
G1 X114.924 Y86.822 E29.48416
G1 X115.934 Y86.498 E29.51741
G1 X117.288 Y86.475 E29.55988
G1 X118.138 Y86.684 E29.58732
G1 X118.626 Y86.927 E29.60441
G1 X118.694 Y87.385 F7800.000
G1 F1200.000
G1 X119.128 Y87.130 E29.62019
G1 X120.048 Y86.856 E29.65030
G1 X121.214 Y86.848 E29.68685
G1 X122.052 Y87.066 E29.71400
G1 X122.916 Y87.547 E29.74501
G1 X123.932 Y88.526 E29.78925
G1 X128.346 Y92.940 E29.98498
G1 X129.555 Y94.226 E30.04031
G1 X129.936 Y94.954 E30.06608
G1 X130.121 Y95.579 E30.08653
G1 X130.175 Y96.637 E30.11973
G1 X130.016 Y97.493 E30.14704
G1 X129.635 Y98.270 E30.17418
G1 X129.941 Y98.750 E30.19203
G1 X130.189 Y99.484 E30.21630
G1 X131.192 Y99.093 E30.25006
G1 X132.186 Y98.936 E30.28161
G1 X160.532 Y98.930 E31.17038
G1 X160.550 Y98.494 E31.18405
G1 X160.822 Y97.496 E31.21648
G1 X161.355 Y96.601 E31.24915
G1 X162.241 Y95.693 E31.28894
G1 X162.961 Y95.218 E31.31599
G1 X163.891 Y94.926 E31.34654
G1 X165.109 Y94.919 E31.38473
G1 X165.919 Y95.148 E31.41114
G1 X166.505 Y95.458 E31.43192
G1 X167.316 Y96.226 E31.46695
G1 X167.513 Y96.379 E31.47475
G1 X178.201 Y107.067 E31.94867
G1 X179.422 Y108.361 E32.00446
G1 X179.729 Y108.923 E32.02453
G1 X179.938 Y109.508 E32.04402
G1 X180.041 Y110.691 E32.08124
G1 X179.835 Y111.738 E32.11472
G1 X179.334 Y112.688 E32.14840
G1 X171.805 Y120.257 E32.48313
G1 X175.612 Y120.262 E32.60250
G1 X176.715 Y120.449 E32.63755
G1 X177.782 Y120.922 E32.67417
G1 X178.766 Y121.727 E32.71403
G1 X179.484 Y122.755 E32.75335
G1 X179.902 Y123.953 E32.79312
G1 X179.985 Y124.738 E32.81787
G1 X179.985 Y168.275 E34.18297
G1 X179.739 Y169.227 E34.21379
G1 X179.435 Y169.809 E34.23437
G1 X178.374 Y170.869 E34.28139
G1 X177.793 Y171.173 E34.30196
G1 X176.841 Y171.420 E34.33279
G1 X119.515 Y171.420 E36.13020
G1 X118.564 Y171.173 E36.16102
G1 X117.982 Y170.869 E36.18160
G1 X116.922 Y169.809 E36.22862
G1 X116.618 Y169.227 E36.24919
G1 X116.371 Y168.275 E36.28002
G1 X116.371 Y143.639 E37.05248
G1 X116.067 Y143.382 E37.06495
G1 X109.698 Y137.012 E37.34739
G1 X109.007 Y135.711 E37.39358
G1 X108.891 Y135.080 E37.41370
G1 X108.894 Y134.098 E37.44448
G1 X109.064 Y133.379 E37.46766
