; generated by PrusaSlicer 2.2.0+win64 on 2020-11-07 at 14:20:32 UTC

; 

; external perimeters extrusion width = 0.45mm
; perimeters extrusion width = 0.45mm
; infill extrusion width = 0.45mm
; solid infill extrusion width = 0.45mm
; top infill extrusion width = 0.40mm
; first layer extrusion width = 0.42mm

M107
M190 S112 ; set bed temperature and wait for it to be reached
M104 S250 ; set temperature
G28 ; home all axes
G29
;G1 Z5 F5000 ;E lift nozzle
M109 S250 ; set temperature and wait for it to be reached
G21 ; set units to millimeters
G90 ; use absolute coordinates
M82 ; use absolute distances for extrusion
G92 E0
; Filament gcode
;G29 S1 P"heightmap_abs.csv"
M109 S250; heat nozzle to first_layer_temperature
G92 E0 ; reset extruder
G1 X0 Y200 Z0.2 F3000.0 ;E move to start-line position2
G1 X0 Y20 Z0.2 F1500.0 E15 ;E draw 1st line
G1 X0.5 Y20 Z0.2 F5000.0 ;E move to side a little
G1 X0.5 Y200 Z0.2F1500.0 E30 ;E draw 2nd line
G92 E0 ; reset extruder
G1 Z1.0 F1000 ;E move z up little to prevent scratching of surface
G1 Z0.200 F7800.000
G10 ; retract
G92 E0
G1 X129.441 Y110.197
G11 ; unretract
G92 E0
G1 F1200.000
G1 X129.703 Y109.819 E0.01298
G1 X130.057 Y109.521 E0.02605
G1 X130.478 Y109.325 E0.03913
G1 X130.931 Y109.247 E0.05211
G1 X154.003 Y109.246 E0.70318
G1 X154.661 Y109.375 E0.72209
G1 X155.222 Y109.741 E0.74099
G1 X155.604 Y110.291 E0.75990
G1 X155.753 Y110.941 E0.77871
G1 X155.754 Y154.007 E1.99398
G1 X155.559 Y154.803 E2.01712
G1 X155.293 Y155.186 E2.03029
G1 X154.934 Y155.485 E2.04345
G1 X154.510 Y155.678 E2.05662
G1 X154.053 Y155.753 E2.06969
G1 X130.987 Y155.754 E2.72058
G1 X130.197 Y155.559 E2.74354
G1 X129.809 Y155.288 E2.75689
G1 X129.510 Y154.926 E2.77015
G1 X129.317 Y154.494 E2.78350
G1 X129.246 Y154.030 E2.79675
G1 X129.246 Y110.993 E4.01119
G1 X129.426 Y110.255 E4.03264
G1 X130.266 Y109.835 F7800.000
G1 F1200.000
G1 X130.959 Y109.624 E4.05309
G1 X154.003 Y109.623 E4.70336
G1 X154.520 Y109.725 E4.71824
G1 X154.961 Y110.014 E4.73312
G1 X155.261 Y110.447 E4.74800
G1 X155.377 Y110.962 E4.76288
G1 X155.377 Y154.006 E5.97753
G1 X155.223 Y154.633 E5.99576
G1 X154.729 Y155.168 E6.01630
G1 X154.032 Y155.377 E6.03683
G1 X130.991 Y155.377 E6.68702
G1 X130.367 Y155.223 E6.70518
G1 X129.829 Y154.724 E6.72587
G1 X129.677 Y154.384 E6.73639
G1 X129.623 Y154.018 E6.74683
G1 X129.623 Y110.994 E7.96090
G1 X129.777 Y110.367 E7.97914
G1 X130.225 Y109.879 E7.99782
G10 ; retract
G92 E0
G1 X126.093 Y108.513 F7800.000
G11 ; unretract
G92 E0
G1 F1200.000
G1 X126.897 Y107.366 E0.03952
G1 X127.987 Y106.397 E0.08069
G1 X129.048 Y105.862 E0.11421
G1 X130.445 Y105.532 E0.15472
G1 X154.523 Y105.536 E0.83417
G1 X155.618 Y105.741 E0.86561
G1 X156.692 Y106.194 E0.89849
G1 X158.090 Y107.347 E0.94962
G1 X159.018 Y108.745 E0.99698
G1 X159.468 Y110.441 E1.04647
G1 X159.468 Y154.596 E2.29250
G1 X158.907 Y156.487 E2.34815
G1 X158.103 Y157.634 E2.38767
G1 X157.013 Y158.603 E2.42884
G1 X155.952 Y159.138 E2.46235
G1 X154.555 Y159.468 E2.50286
G1 X130.404 Y159.468 E3.18439
G1 X128.513 Y158.907 E3.24004
G1 X127.366 Y158.103 E3.27955
G1 X126.397 Y157.013 E3.32072
G1 X125.862 Y155.952 E3.35424
G1 X125.532 Y154.555 E3.39475
G1 X125.532 Y110.404 E4.64065
G1 X126.076 Y108.571 E4.69461
G1 X126.445 Y108.652 F7800.000
G1 F1200.000
G1 X127.163 Y107.634 E4.72975
G1 X128.219 Y106.695 E4.76962
G1 X129.157 Y106.224 E4.79925
G1 X130.468 Y105.909 E4.83728
G1 X154.505 Y105.913 E5.51558
G1 X155.527 Y106.108 E5.54494
G1 X156.518 Y106.530 E5.57534
G1 X157.826 Y107.618 E5.62336
G1 X158.686 Y108.926 E5.66752
G1 X159.091 Y110.465 E5.71241
G1 X159.091 Y154.568 E6.95697
G1 X158.555 Y156.348 E7.00943
G1 X157.837 Y157.366 E7.04457
G1 X156.781 Y158.305 E7.08444
G1 X155.843 Y158.776 E7.11406
G1 X154.533 Y159.091 E7.15209
G1 X130.432 Y159.091 E7.83219
G1 X128.652 Y158.555 E7.88465
G1 X127.634 Y157.837 E7.91980
G1 X126.695 Y156.781 E7.95966
G1 X126.224 Y155.843 E7.98929
G1 X125.909 Y154.533 E8.02731
G1 X125.909 Y110.432 E9.27179
G1 X126.428 Y108.709 E9.32255
G1 X126.797 Y108.792 F7800.000
G1 F1200.000
G1 X127.429 Y107.901 E9.35336
G1 X128.451 Y106.994 E9.39194
G1 X129.267 Y106.585 E9.41770
G1 X130.491 Y106.286 E9.45323
G1 X154.487 Y106.290 E10.13037
G1 X155.435 Y106.474 E10.15762
G1 X156.343 Y106.865 E10.18553
G1 X157.562 Y107.888 E10.23044
G1 X158.353 Y109.106 E10.27140
G1 X158.713 Y110.489 E10.31173
G1 X158.713 Y154.540 E11.55481
G1 X158.203 Y156.208 E11.60405
G1 X157.571 Y157.099 E11.63486
G1 X156.549 Y158.006 E11.67343
G1 X155.733 Y158.415 E11.69919
G1 X154.510 Y158.713 E11.73471
G1 X130.460 Y158.713 E12.41337
G1 X128.792 Y158.203 E12.46260
G1 X127.901 Y157.571 E12.49341
G1 X126.994 Y156.549 E12.53198
G1 X126.585 Y155.733 E12.55774
G1 X126.287 Y154.510 E12.59327
G1 X126.287 Y110.460 E13.83630
G1 X126.779 Y108.849 E13.88384
G1 X127.147 Y108.933 F7800.000
G1 F1200.000
G1 X127.696 Y108.168 E13.91040
G1 X128.644 Y107.318 E13.94634
G1 X129.380 Y106.945 E13.96961
G1 X130.514 Y106.664 E14.00259
G1 X154.468 Y106.667 E14.67854
G1 X155.341 Y106.840 E14.70365
G1 X156.166 Y107.199 E14.72906
G1 X157.297 Y108.158 E14.77089
G1 X157.996 Y109.232 E14.80705
G1 X158.336 Y110.513 E14.84447
G1 X158.336 Y154.511 E16.08603
G1 X157.852 Y156.067 E16.13200
G1 X157.304 Y156.832 E16.15857
G1 X156.356 Y157.682 E16.19450
G1 X155.620 Y158.055 E16.21777
G1 X154.486 Y158.336 E16.25074
G1 X130.489 Y158.336 E16.92792
G1 X128.933 Y157.852 E16.97389
G1 X128.168 Y157.304 E17.00046
G1 X127.318 Y156.356 E17.03639
G1 X126.945 Y155.620 E17.05966
G1 X126.664 Y154.486 E17.09263
G1 X126.664 Y110.489 E18.33419
G1 X127.130 Y108.991 E18.37847
G1 X127.472 Y109.127 F7800.000
G1 F1200.000
G1 X127.965 Y108.434 E18.40247
G1 X128.840 Y107.642 E18.43576
G1 X129.494 Y107.305 E18.45653
G1 X130.538 Y107.041 E18.48692
G1 X154.449 Y107.044 E19.16165
G1 X155.246 Y107.205 E19.18459
G1 X155.988 Y107.533 E19.20749
G1 X157.030 Y108.426 E19.24621
G1 X157.663 Y109.410 E19.27924
G1 X157.959 Y110.538 E19.31213
G1 X157.959 Y154.483 E20.55222
G1 X157.528 Y155.873 E20.59330
G1 X157.035 Y156.566 E20.61730
G1 X156.160 Y157.358 E20.65059
G1 X155.506 Y157.695 E20.67136
G1 X154.462 Y157.959 E20.70174
G1 X130.517 Y157.959 E21.37744
G1 X129.127 Y157.528 E21.41853
G1 X128.434 Y157.035 E21.44253
G1 X127.642 Y156.160 E21.47581
G1 X127.305 Y155.506 E21.49658
G1 X127.041 Y154.462 E21.52697
G1 X127.041 Y110.517 E22.76704
G1 X127.455 Y109.184 E22.80644
G1 X127.822 Y109.270 F7800.000
G1 F1200.000
G1 X128.234 Y108.699 E22.82631
G1 X129.037 Y107.964 E22.85702
G1 X129.611 Y107.665 E22.87529
G1 X130.562 Y107.418 E22.90304
G1 X154.429 Y107.421 E23.57652
G1 X155.148 Y107.570 E23.59725
G1 X155.808 Y107.865 E23.61765
G1 X156.762 Y108.692 E23.65329
G1 X157.306 Y109.537 E23.68163
G1 X157.582 Y110.563 E23.71161
G1 X157.582 Y154.453 E24.95015
G1 X157.178 Y155.730 E24.98794
G1 X156.766 Y156.301 E25.00781
G1 X155.963 Y157.036 E25.03852
G1 X155.389 Y157.335 E25.05679
G1 X154.438 Y157.582 E25.08453
G1 X130.547 Y157.582 E25.75871
G1 X129.270 Y157.178 E25.79649
G1 X128.699 Y156.766 E25.81637
G1 X127.964 Y155.963 E25.84708
G1 X127.665 Y155.389 E25.86535
G1 X127.418 Y154.438 E25.89309
G1 X127.418 Y110.547 E27.13164
G1 X127.804 Y109.328 E27.16774
G1 X128.147 Y109.465 F7800.000
G1 F1200.000
G1 X128.505 Y108.962 E27.18516
G1 X129.236 Y108.285 E27.21327
G1 X129.729 Y108.023 E27.22904
G1 X130.587 Y107.795 E27.25409
G1 X154.410 Y107.798 E27.92633
G1 X155.013 Y107.923 E27.94372
G1 X155.628 Y108.197 E27.96271
G1 X156.492 Y108.957 E27.99519
G1 X156.972 Y109.714 E28.02047
G1 X157.205 Y110.587 E28.04598
G1 X157.205 Y154.424 E29.28301
G1 X156.853 Y155.535 E29.31591
G1 X156.495 Y156.038 E29.33333
G1 X155.764 Y156.715 E29.36144
G1 X155.271 Y156.977 E29.37721
G1 X154.413 Y157.205 E29.40226
G1 X130.576 Y157.205 E30.07491
G1 X129.465 Y156.853 E30.10780
G1 X128.962 Y156.495 E30.12522
G1 X128.285 Y155.764 E30.15333
G1 X128.023 Y155.271 E30.16910
G1 X127.795 Y154.413 E30.19415
G1 X127.795 Y110.576 E31.43118
G1 X128.129 Y109.522 E31.46238
G1 X128.496 Y109.611 F7800.000
G1 F1200.000
G1 X128.775 Y109.225 E31.47583
G1 X129.438 Y108.604 E31.50144
G1 X129.851 Y108.380 E31.51471
G1 X130.613 Y108.172 E31.53700
G1 X154.389 Y108.176 E32.20794
G1 X154.914 Y108.287 E32.22307
G1 X155.445 Y108.528 E32.23952
G1 X156.222 Y109.221 E32.26889
G1 X156.616 Y109.841 E32.28965
G1 X156.828 Y110.613 E32.31223
G1 X156.828 Y154.394 E33.54767
G1 X156.504 Y155.389 E33.57722
G1 X156.225 Y155.775 E33.59067
G1 X155.562 Y156.396 E33.61628
G1 X155.149 Y156.620 E33.62954
G1 X154.387 Y156.828 E33.65184
G1 X130.606 Y156.828 E34.32290
G1 X129.611 Y156.504 E34.35244
G1 X129.225 Y156.225 E34.36590
G1 X128.604 Y155.562 E34.39151
G1 X128.380 Y155.149 E34.40477
G1 X128.172 Y154.387 E34.42706
G1 X128.172 Y110.606 E35.66250
G1 X128.477 Y109.668 E35.69035
G1 X128.819 Y109.806 F7800.000
G1 F1200.000
G1 X129.049 Y109.485 E35.70149
G1 X129.643 Y108.922 E35.72459
G1 X129.976 Y108.737 E35.73535
G1 X130.640 Y108.549 E35.75482
G1 X154.368 Y108.553 E36.42439
G1 X154.811 Y108.650 E36.43720
G1 X155.259 Y108.858 E36.45113
G1 X155.950 Y109.483 E36.47741
G1 X156.262 Y109.971 E36.49377
G1 X156.451 Y110.640 E36.51338
G1 X156.451 Y154.364 E37.74722
G1 X156.181 Y155.194 E37.77186
G1 X155.951 Y155.515 E37.78299
G1 X155.357 Y156.078 E37.80609
G1 X155.024 Y156.263 E37.81686
G1 X154.360 Y156.451 E37.83632
G1 X130.636 Y156.451 E38.50578
G1 X129.806 Y156.181 E38.53042
G1 X129.485 Y155.951 E38.54155
G1 X128.922 Y155.357 E38.56465
G1 X128.737 Y155.024 E38.57542
G1 X128.549 Y154.360 E38.59488
G1 X128.549 Y110.636 E39.82872
G1 X128.801 Y109.863 E39.85166
G1 X128.926 Y110.668 F7800.000
G1 F1200.000
G1 X129.166 Y109.956 E39.87285
G1 X129.321 Y109.746 E39.88022
G1 X129.851 Y109.237 E39.90097
G1 X130.106 Y109.091 E39.90924
G1 X130.668 Y108.926 E39.92578
G1 X154.346 Y108.930 E40.59394
G1 X154.705 Y109.013 E40.60435
G1 X155.071 Y109.185 E40.61576
G1 X155.676 Y109.743 E40.63898
G1 X155.908 Y110.105 E40.65111
G1 X156.074 Y110.668 E40.66768
G1 X156.074 Y154.332 E41.89983
G1 X155.834 Y155.044 E41.92102
G1 X155.679 Y155.254 E41.92839
G1 X155.149 Y155.763 E41.94914
G1 X154.894 Y155.909 E41.95741
G1 X154.332 Y156.074 E41.97395
G1 X130.668 Y156.074 E42.64172
G1 X129.956 Y155.834 E42.66292
G1 X129.746 Y155.679 E42.67028
G1 X129.237 Y155.149 E42.69103
G1 X129.091 Y154.894 E42.69930
G1 X128.926 Y154.332 E42.71584
G1 X128.926 Y110.728 E43.94630
G1 X130.139 Y110.537 F7800.000
G1 F1200.000
G1 X130.510 Y110.157 E43.96130
G1 X130.764 Y110.057 E43.96901
G1 X154.250 Y110.057 E44.63174
G1 X154.500 Y110.167 E44.63944
G1 X154.861 Y110.537 E44.65404
G1 X154.943 Y110.764 E44.66086
G1 X154.943 Y154.236 E45.88756
G1 X154.843 Y154.490 E45.89527
G1 X154.463 Y154.861 E45.91027
G1 X154.236 Y154.943 E45.91708
G1 X130.764 Y154.943 E46.57941
G1 X130.510 Y154.843 E46.58712
G1 X130.139 Y154.463 E46.60212
G1 X130.057 Y154.236 E46.60893
G1 X130.057 Y110.764 E47.83564
G1 X130.119 Y110.594 E47.84076
G1 X130.463 Y110.737 F7800.000
G1 F1200.000
G1 X130.737 Y110.463 E47.85169
G1 X130.806 Y110.434 E47.85381
G1 X154.194 Y110.434 E48.51378
G1 X154.263 Y110.463 E48.51589
G1 X154.537 Y110.737 E48.52683
G1 X154.566 Y110.806 E48.52894
G1 X154.566 Y154.194 E49.75328
G1 X154.537 Y154.263 E49.75540
G1 X154.263 Y154.537 E49.76633
G1 X154.194 Y154.566 E49.76845
G1 X130.806 Y154.566 E50.42842
G1 X130.737 Y154.537 E50.43053
G1 X130.463 Y154.263 E50.44146
G1 X130.434 Y154.194 E50.44358
G1 X130.440 Y110.792 E51.66831
G1 X130.811 Y110.922 F7800.000
G1 F1200.000
G1 X130.922 Y110.811 E51.67272
G1 X154.078 Y110.811 E52.32616
G1 X154.189 Y110.922 E52.33057
G1 X154.189 Y154.078 E53.54839
G1 X154.078 Y154.189 E53.55280
G1 X130.922 Y154.189 E54.20624
G1 X130.811 Y154.078 E54.21065
G1 X130.811 Y110.982 E55.42677
G10 ; retract
G92 E0
G1 X153.590 Y153.590 F7800.000
G11 ; unretract
G92 E0
G1 F1200.000
G1 X131.410 Y153.590 E0.62589
G1 X131.410 Y111.410 E1.81617
G1 X153.590 Y111.410 E2.44206
G1 X153.590 Y153.530 E3.63064
G1 X153.216 Y153.448 F7800.000
G1 X153.213 Y153.213
G1 F1200.000
G1 X131.787 Y153.213 E4.23525
G1 X131.787 Y111.787 E5.40424
G1 X153.213 Y111.787 E6.00886
G1 X153.213 Y153.153 E7.17615
G10 ; retract
G92 E0
G1 X139.422 Y146.145 F7800.000
G11 ; unretract
G92 E0
G1 F1200.000
G1 X133.102 Y146.145 E0.17834
G1 X133.102 Y119.356 E0.93429
G1 X139.422 Y119.356 E1.11263
G1 X139.422 Y146.085 E1.86689
G1 X139.453 Y146.544 F7800.000
G10 ; retract
G92 E0
G1 X132.725 Y118.979
G11 ; unretract
G92 E0
G1 F1200.000
G1 X139.800 Y118.979 E0.19962
G1 X139.800 Y146.522 E0.97685
G1 X132.725 Y146.522 E1.17648
G1 X132.725 Y119.039 E1.95202
G10 ; retract
G92 E0
G1 X144.848 Y118.571 F7800.000
G11 ; unretract
G92 E0
G1 F1200.000
G1 X144.848 Y146.868 E0.79851
G1 X152.836 Y146.868 E1.02391
G1 X152.836 Y152.836 E1.19232
G1 X132.164 Y152.836 E1.77565
G1 X132.164 Y146.899 E1.94317
G1 X140.177 Y146.899 E2.16928
G1 X140.177 Y118.602 E2.96779
G1 X132.164 Y118.602 E3.19389
G1 X132.164 Y112.164 E3.37556
G1 X152.836 Y112.164 E3.95889
G1 X152.836 Y118.571 E4.13969
G1 X144.908 Y118.571 E4.36339
G1 X145.602 Y119.325 F7800.000
G1 F1200.000
G1 X151.922 Y119.325 E4.54174
G1 X151.922 Y146.114 E5.29768
G1 X145.602 Y146.114 E5.47603
G1 X145.602 Y119.385 E6.23028
G1 X145.572 Y118.926 F7800.000
G1 X145.225 Y118.948
G1 F1200.000
G1 X152.300 Y118.948 E6.42991
G1 X152.300 Y146.491 E7.20714
G1 X145.225 Y146.491 E7.40676
G1 X145.225 Y119.008 E8.18230
G10 ; retract
G92 E0
G1 X140.020 Y118.508 F7800.000
G11 ; unretract
G92 E0
G1 F1200.000
G1 X133.940 Y112.428 E0.24362
G1 X133.405 Y112.428 E0.25880
G1 X139.315 Y118.338 E0.49562
G1 X138.780 Y118.338 E0.51079
G1 X132.869 Y112.428 E0.74762
G1 X132.428 Y112.428 E0.76012
G1 X132.428 Y112.522 E0.76279
G1 X138.244 Y118.338 E0.99584
G1 X137.709 Y118.338 E1.01101
G1 X132.428 Y113.058 E1.22260
G1 X132.428 Y113.593 E1.23778
G1 X137.173 Y118.338 E1.42792
G1 X136.638 Y118.338 E1.44309
G1 X132.428 Y114.129 E1.61177
G1 X132.428 Y114.664 E1.62694
G1 X136.102 Y118.338 E1.77417
G1 X135.567 Y118.338 E1.78934
G1 X132.428 Y115.200 E1.91511
G1 X132.428 Y115.735 E1.93028
G1 X135.031 Y118.338 E2.03460
G1 X134.496 Y118.338 E2.04977
G1 X132.428 Y116.270 E2.13263
G1 X132.428 Y116.806 E2.14780
G1 X133.960 Y118.338 E2.20920
G1 X133.425 Y118.338 E2.22437
G1 X132.428 Y117.341 E2.26432
G1 X132.428 Y117.877 E2.27949
G1 X133.059 Y118.508 E2.30478
G1 X132.256 Y118.791 F7800.000
G1 F1200.000
G1 X132.256 Y146.711 E3.47743
G10 ; retract
G92 E0
G1 X133.024 Y152.742 F7800.000
G11 ; unretract
G92 E0
G1 F1200.000
G1 X132.428 Y152.146 E0.02387
G1 X132.428 Y151.610 E0.03904
G1 X133.390 Y152.572 E0.07757
G1 X133.925 Y152.572 E0.09274
G1 X132.428 Y151.075 E0.15273
G1 X132.428 Y150.539 E0.16790
G1 X134.461 Y152.572 E0.24934
G1 X134.996 Y152.572 E0.26451
G1 X132.428 Y150.004 E0.36741
G1 X132.428 Y149.469 E0.38258
G1 X135.531 Y152.572 E0.50693
G1 X136.067 Y152.572 E0.52210
G1 X132.428 Y148.933 E0.66791
G1 X132.428 Y148.398 E0.68309
G1 X136.602 Y152.572 E0.85035
G1 X137.138 Y152.572 E0.86552
G1 X132.428 Y147.862 E1.05424
G1 X132.428 Y147.327 E1.06941
G1 X137.673 Y152.572 E1.27959
G1 X138.209 Y152.572 E1.29476
G1 X132.800 Y147.163 E1.51150
G1 X133.335 Y147.163 E1.52667
G1 X138.744 Y152.572 E1.74340
G1 X139.280 Y152.572 E1.75857
G1 X133.871 Y147.163 E1.97530
G1 X134.406 Y147.163 E1.99047
G1 X139.815 Y152.572 E2.20721
G1 X140.351 Y152.572 E2.22238
G1 X134.942 Y147.163 E2.43911
G1 X135.477 Y147.163 E2.45428
G1 X140.886 Y152.572 E2.67101
G1 X141.421 Y152.572 E2.68618
G1 X136.013 Y147.163 E2.90292
G1 X136.548 Y147.163 E2.91809
G1 X141.957 Y152.572 E3.13482
G1 X142.492 Y152.572 E3.14999
G1 X137.084 Y147.163 E3.36672
G1 X137.619 Y147.163 E3.38190
G1 X143.028 Y152.572 E3.59863
G1 X143.563 Y152.572 E3.61380
G1 X138.155 Y147.163 E3.83053
G1 X138.690 Y147.163 E3.84570
G1 X144.099 Y152.572 E4.06243
G1 X144.634 Y152.572 E4.07761
G1 X139.225 Y147.163 E4.29434
G1 X139.761 Y147.163 E4.30951
G1 X145.170 Y152.572 E4.52624
G1 X145.705 Y152.572 E4.54141
G1 X140.296 Y147.163 E4.75815
G1 X140.441 Y147.163 E4.76223
G1 X140.441 Y146.772 E4.77332
G1 X146.240 Y152.572 E5.00572
G1 X146.776 Y152.572 E5.02090
G1 X140.441 Y146.237 E5.27476
G1 X140.441 Y145.701 E5.28993
