; generated by PrusaSlicer 2.2.0+win64 on 2020-10-11 at 10:17:30 UTC

; 

; external perimeters extrusion width = 0.45mm
; perimeters extrusion width = 0.45mm
; infill extrusion width = 0.45mm
; solid infill extrusion width = 0.45mm
; top infill extrusion width = 0.40mm
; first layer extrusion width = 0.42mm

M107
M190 S70 ; set bed temperature and wait for it to be reached
M104 S230 ; set temperature
G28 ; home all axes
;G29 S1
G1 Z5 F5000 ;E lift nozzle
M109 S230 ; set temperature and wait for it to be reached
G21 ; set units to millimeters
G90 ; use absolute coordinates
M82 ; use absolute distances for extrusion
G92 E0
; Filament gcode
G29 S1 P"heightmap_petg.csv"
G1 Z0.350 F7800.000
G10 ; retract
G92 E0
G1 X115.787 Y106.982
G11 ; unretract
G92 E0
G1 F1800.000
G1 X117.042 Y105.738 E0.09286
G1 X118.523 Y104.774 E0.18571
G1 X120.167 Y104.129 E0.27857
G1 X121.909 Y103.830 E0.37143
G1 X162.507 Y103.810 E2.50535
G1 X164.064 Y103.952 E2.58754
G1 X165.578 Y104.374 E2.67011
G1 X166.991 Y105.060 E2.75268
G1 X168.257 Y105.991 E2.83525
G1 X169.335 Y107.133 E2.91782
G1 X170.189 Y108.451 E3.00039
G1 X170.792 Y109.902 E3.08296
G1 X171.125 Y111.437 E3.16553
G1 X171.190 Y112.491 E3.22100
G1 X171.182 Y152.857 E5.34269
G1 X171.012 Y154.250 E5.41649
G1 X170.619 Y155.598 E5.49028
G1 X170.014 Y156.865 E5.56408
G1 X169.213 Y158.018 E5.63788
G1 X167.884 Y159.321 E5.73569
G1 X167.123 Y159.858 E5.78466
G1 X166.302 Y160.314 E5.83402
G1 X165.436 Y160.679 E5.88337
G1 X164.544 Y160.946 E5.93235
G1 X162.699 Y161.188 E6.03015
G1 X122.129 Y161.182 E8.16256
G1 X120.743 Y161.010 E8.23598
G1 X119.395 Y160.616 E8.30977
G1 X118.135 Y160.014 E8.38319
G1 X116.982 Y159.213 E8.45699
G1 X115.679 Y157.884 E8.55479
G1 X115.142 Y157.123 E8.60377
G1 X114.686 Y156.302 E8.65312
G1 X114.321 Y155.436 E8.70248
G1 X114.054 Y154.544 E8.75145
G1 X113.812 Y152.699 E8.84926
G1 X113.818 Y112.129 E10.98167
G1 X113.990 Y110.743 E11.05508
G1 X114.384 Y109.395 E11.12888
G1 X114.986 Y108.135 E11.20230
G1 X115.753 Y107.031 E11.27294
G1 X117.277 Y105.992 F7800.000
G1 F1800.000
G1 X118.707 Y105.067 E11.36244
G1 X120.288 Y104.454 E11.45156
G1 X121.960 Y104.173 E11.54069
G1 X162.507 Y104.155 E13.67189
G1 X164.012 Y104.293 E13.75131
G1 X165.467 Y104.700 E13.83072
G1 X166.825 Y105.363 E13.91014
G1 X168.041 Y106.260 E13.98955
G1 X169.075 Y107.361 E14.06897
G1 X169.894 Y108.631 E14.14838
G1 X170.470 Y110.028 E14.22780
G1 X170.785 Y111.505 E14.30722
G1 X170.845 Y112.488 E14.35895
G1 X170.838 Y152.835 E16.47967
G1 X170.674 Y154.180 E16.55086
G1 X170.295 Y155.480 E16.62206
G1 X169.706 Y156.708 E16.69362
G1 X168.931 Y157.818 E16.76482
G1 X167.650 Y159.066 E16.85879
G1 X166.133 Y160.012 E16.95277
G1 X164.449 Y160.614 E17.04674
G1 X162.676 Y160.843 E17.14071
G1 X122.150 Y160.838 E19.27081
G1 X120.806 Y160.671 E19.34200
G1 X119.507 Y160.290 E19.41319
G1 X118.292 Y159.706 E19.48401
G1 X117.182 Y158.931 E19.55521
G1 X115.934 Y157.650 E19.64918
G1 X114.988 Y156.133 E19.74315
G1 X114.386 Y154.449 E19.83713
G1 X114.157 Y152.676 E19.93110
G1 X114.162 Y112.150 E22.06119
G1 X114.329 Y110.806 E22.13239
G1 X114.710 Y109.507 E22.20358
G1 X115.294 Y108.292 E22.27440
G1 X116.069 Y107.182 E22.34559
G1 X117.235 Y106.034 E22.43156
G10 ; retract
G92 E0
G1 X161.400 Y151.400 F7800.000
G11 ; unretract
G92 E0
G1 F1800.000
G1 X123.600 Y151.400 E1.98684
G1 X123.600 Y113.600 E3.97368
G1 X161.400 Y113.600 E5.96052
G1 X161.400 Y151.340 E7.94420
G1 X161.745 Y151.745 F7800.000
G1 F1800.000
G1 X123.255 Y151.745 E9.96730
G1 X123.255 Y113.255 E11.99039
G1 X161.745 Y113.255 E14.01348
G1 X161.745 Y151.685 E16.03342
G1 X162.090 Y152.090 F7800.000
G1 F1800.000
G1 X122.910 Y152.090 E18.09277
G1 X122.910 Y112.910 E20.15212
G1 X162.090 Y112.910 E22.21147
G1 X162.090 Y152.030 E24.26767
G1 X161.704 Y151.986 F7800.000
G10 ; retract
G92 E0
G1 X124.385 Y151.314
G11 ; unretract
G92 E0
G1 F1800.000
G1 X123.841 Y150.770 E0.04055
G1 X123.841 Y150.281 E0.06634
G1 X124.719 Y151.159 E0.13178
G1 X125.208 Y151.159 E0.15756
G1 X123.841 Y149.792 E0.25947
G1 X123.841 Y149.303 E0.28525
G1 X125.697 Y151.159 E0.42362
G1 X126.187 Y151.159 E0.44940
G1 X123.841 Y148.813 E0.62423
G1 X123.841 Y148.324 E0.65001
G1 X126.676 Y151.159 E0.86129
G1 X127.165 Y151.159 E0.88708
G1 X123.841 Y147.835 E1.13482
G1 X123.841 Y147.346 E1.16061
G1 X127.654 Y151.159 E1.44481
G1 X128.143 Y151.159 E1.47059
G1 X123.841 Y146.857 E1.79126
G1 X123.841 Y146.368 E1.81704
G1 X128.632 Y151.159 E2.17417
G1 X129.121 Y151.159 E2.19996
G1 X123.841 Y145.879 E2.59354
G1 X123.841 Y145.390 E2.61933
G1 X129.610 Y151.159 E3.04938
G1 X130.100 Y151.159 E3.07516
G1 X123.841 Y144.900 E3.54167
G1 X123.841 Y144.411 E3.56745
G1 X130.589 Y151.159 E4.07042
G1 X131.078 Y151.159 E4.09620
G1 X123.841 Y143.922 E4.63563
G1 X123.841 Y143.433 E4.66141
G1 X131.567 Y151.159 E5.23731
G1 X132.056 Y151.159 E5.26309
G1 X123.841 Y142.944 E5.87544
G1 X123.841 Y142.455 E5.90122
G1 X132.545 Y151.159 E6.55003
G1 X133.034 Y151.159 E6.57581
G1 X123.841 Y141.966 E7.26109
G1 X123.841 Y141.477 E7.28687
G1 X133.523 Y151.159 E8.00860
G1 X134.012 Y151.159 E8.03438
G1 X123.841 Y140.988 E8.79258
G1 X123.841 Y140.498 E8.81836
G1 X134.502 Y151.159 E9.61301
G1 X134.991 Y151.159 E9.63879
G1 X123.841 Y140.009 E10.46991
G1 X123.841 Y139.520 E10.49569
G1 X135.480 Y151.159 E11.36327
G1 X135.969 Y151.159 E11.38905
G1 X123.841 Y139.031 E12.29308
G1 X123.841 Y138.542 E12.31886
G1 X136.458 Y151.159 E13.25936
G1 X136.947 Y151.159 E13.28514
G1 X123.841 Y138.053 E14.26210
G1 X123.841 Y137.564 E14.28788
G1 X137.436 Y151.159 E15.30129
G1 X137.925 Y151.159 E15.32708
G1 X123.841 Y137.075 E16.37695
G1 X123.841 Y136.585 E16.40273
G1 X138.415 Y151.159 E17.48907
G1 X138.904 Y151.159 E17.51485
G1 X123.841 Y136.096 E18.63765
G1 X123.841 Y135.607 E18.66343
G1 X139.393 Y151.159 E19.82269
G1 X139.882 Y151.159 E19.84847
G1 X123.841 Y135.118 E21.04419
G1 X123.841 Y134.629 E21.06997
G1 X140.371 Y151.159 E22.30215
G1 X140.860 Y151.159 E22.32793
G1 X123.841 Y134.140 E23.59657
G1 X123.841 Y133.651 E23.62235
G1 X141.349 Y151.159 E24.92745
G1 X141.838 Y151.159 E24.95324
G1 X123.841 Y133.162 E26.29480
G1 X123.841 Y132.672 E26.32058
G1 X142.328 Y151.159 E27.69860
G1 X142.817 Y151.159 E27.72438
G1 X123.841 Y132.183 E29.13886
G1 X123.841 Y131.694 E29.16464
G1 X143.306 Y151.159 E30.61558
G1 X143.795 Y151.159 E30.64136
G1 X123.841 Y131.205 E32.12877
G1 X123.841 Y130.716 E32.15455
G1 X144.284 Y151.159 E33.67841
G1 X144.773 Y151.159 E33.70419
G1 X123.841 Y130.227 E35.26451
G1 X123.841 Y129.738 E35.29030
G1 X145.262 Y151.159 E36.88708
G1 X145.751 Y151.159 E36.91286
G1 X123.841 Y129.249 E38.54610
G1 X123.841 Y128.759 E38.57189
G1 X146.241 Y151.159 E40.24159
G1 X146.730 Y151.159 E40.26737
G1 X123.841 Y128.270 E41.97354
G1 X123.841 Y127.781 E41.99932
G1 X147.219 Y151.159 E43.74194
G1 X147.708 Y151.159 E43.76772
G1 X123.841 Y127.292 E45.54681
G1 X123.841 Y126.803 E45.57259
G1 X148.197 Y151.159 E47.38814
G1 X148.686 Y151.159 E47.41392
G1 X123.841 Y126.314 E49.26592
G1 X123.841 Y125.825 E49.29170
G1 X149.175 Y151.159 E51.18017
G1 X149.664 Y151.159 E51.20595
G1 X123.841 Y125.336 E53.13088
G1 X123.841 Y124.846 E53.15666
G1 X150.154 Y151.159 E55.11805
G1 X150.643 Y151.159 E55.14383
G1 X123.841 Y124.357 E57.14168
G1 X123.841 Y123.868 E57.16746
G1 X151.132 Y151.159 E59.20177
G1 X151.621 Y151.159 E59.22755
G1 X123.841 Y123.379 E61.29832
G1 X123.841 Y122.890 E61.32410
G1 X152.110 Y151.159 E63.43133
G1 X152.599 Y151.159 E63.45711
G1 X123.841 Y122.401 E65.60080
G1 X123.841 Y121.912 E65.62658
G1 X153.088 Y151.159 E67.80673
G1 X153.577 Y151.159 E67.83251
G1 X123.841 Y121.423 E70.04912
G1 X123.841 Y120.933 E70.07490
G1 X154.067 Y151.159 E72.32797
G1 X154.556 Y151.159 E72.35376
G1 X123.841 Y120.444 E74.64329
G1 X123.841 Y119.955 E74.66907
G1 X155.045 Y151.159 E76.99506
G1 X155.534 Y151.159 E77.02084
G1 X123.841 Y119.466 E79.38329
G1 X123.841 Y118.977 E79.40907
G1 X156.023 Y151.159 E81.80799
G1 X156.512 Y151.159 E81.83377
G1 X123.841 Y118.488 E84.26914
G1 X123.841 Y117.999 E84.29492
G1 X157.001 Y151.159 E86.76676
G1 X157.490 Y151.159 E86.79254
G1 X123.841 Y117.510 E89.30083
G1 X123.841 Y117.020 E89.32661
G1 X157.979 Y151.159 E91.87137
G1 X158.469 Y151.159 E91.89715
G1 X123.841 Y116.531 E94.47836
G1 X123.841 Y116.042 E94.50414
G1 X158.958 Y151.159 E97.12182
G1 X159.447 Y151.159 E97.14760
G1 X123.841 Y115.553 E99.80174
G1 X123.841 Y115.064 E99.82752
G1 X159.936 Y151.159 E102.51811
G1 X160.425 Y151.159 E102.54389
G1 X123.841 Y114.575 E105.27095
G1 X123.841 Y114.086 E105.29673
G1 X160.914 Y151.159 E108.06025
G1 X161.159 Y151.159 E108.07314
G1 X161.159 Y150.914 E108.08603
G1 X124.086 Y113.841 E110.84955
G1 X124.575 Y113.841 E110.87533
G1 X161.159 Y150.425 E113.60239
G1 X161.159 Y149.936 E113.62817
G1 X125.064 Y113.841 E116.31877
G1 X125.553 Y113.841 E116.34455
G1 X161.159 Y149.447 E118.99868
G1 X161.159 Y148.958 E119.02447
G1 X126.042 Y113.841 E121.64214
G1 X126.531 Y113.841 E121.66792
G1 X161.159 Y148.469 E124.24914
G1 X161.159 Y147.980 E124.27492
G1 X127.020 Y113.841 E126.81968
G1 X127.510 Y113.841 E126.84546
G1 X161.159 Y147.490 E129.35375
G1 X161.159 Y147.001 E129.37954
G1 X127.999 Y113.841 E131.85137
G1 X128.488 Y113.841 E131.87715
G1 X161.159 Y146.512 E134.31253
G1 X161.159 Y146.023 E134.33831
G1 X128.977 Y113.841 E136.73722
G1 X129.466 Y113.841 E136.76300
G1 X161.159 Y145.534 E139.12546
G1 X161.159 Y145.045 E139.15124
G1 X129.955 Y113.841 E141.47723
G1 X130.444 Y113.841 E141.50301
G1 X161.159 Y144.556 E143.79255
G1 X161.159 Y144.067 E143.81833
G1 X130.933 Y113.841 E146.07140
G1 X131.423 Y113.841 E146.09718
G1 X161.159 Y143.577 E148.31379
G1 X161.159 Y143.088 E148.33957
G1 X131.912 Y113.841 E150.51973
G1 X132.401 Y113.841 E150.54551
G1 X161.159 Y142.599 E152.68920
G1 X161.159 Y142.110 E152.71498
G1 X132.890 Y113.841 E154.82221
G1 X133.379 Y113.841 E154.84799
G1 X161.159 Y141.621 E156.91876
G1 X161.159 Y141.132 E156.94454
G1 X133.868 Y113.841 E158.97885
G1 X134.357 Y113.841 E159.00464
G1 X161.159 Y140.643 E161.00248
G1 X161.159 Y140.154 E161.02827
G1 X134.846 Y113.841 E162.98966
G1 X135.336 Y113.841 E163.01544
G1 X161.159 Y139.664 E164.94037
G1 X161.159 Y139.175 E164.96615
G1 X135.825 Y113.841 E166.85461
G1 X136.314 Y113.841 E166.88040
G1 X161.159 Y138.686 E168.73240
G1 X161.159 Y138.197 E168.75819
G1 X136.803 Y113.841 E170.57373
G1 X137.292 Y113.841 E170.59951
G1 X161.159 Y137.708 E172.37860
G1 X161.159 Y137.219 E172.40438
G1 X137.781 Y113.841 E174.14701
G1 X138.270 Y113.841 E174.17279
G1 X161.159 Y136.730 E175.87896
G1 X161.159 Y136.241 E175.90474
G1 X138.759 Y113.841 E177.57444
G1 X139.249 Y113.841 E177.60023
G1 X161.159 Y135.751 E179.23347
G1 X161.159 Y135.262 E179.25925
G1 X139.738 Y113.841 E180.85604
G1 X140.227 Y113.841 E180.88182
G1 X161.159 Y134.773 E182.44214
G1 X161.159 Y134.284 E182.46792
G1 X140.716 Y113.841 E183.99179
G1 X141.205 Y113.841 E184.01757
G1 X161.159 Y133.795 E185.50497
G1 X161.159 Y133.306 E185.53075
G1 X141.694 Y113.841 E186.98170
G1 X142.183 Y113.841 E187.00748
G1 X161.159 Y132.817 E188.42196
G1 X161.159 Y132.328 E188.44774
G1 X142.672 Y113.841 E189.82577
G1 X143.162 Y113.841 E189.85155
G1 X161.159 Y131.838 E191.19311
G1 X161.159 Y131.349 E191.21889
G1 X143.651 Y113.841 E192.52399
G1 X144.140 Y113.841 E192.54977
G1 X161.159 Y130.860 E193.81842
G1 X161.159 Y130.371 E193.84420
G1 X144.629 Y113.841 E195.07638
G1 X145.118 Y113.841 E195.10216
G1 X161.159 Y129.882 E196.29788
G1 X161.159 Y129.393 E196.32366
G1 X145.607 Y113.841 E197.48292
G1 X146.096 Y113.841 E197.50870
G1 X161.159 Y128.904 E198.63150
G1 X161.159 Y128.415 E198.65728
G1 X146.585 Y113.841 E199.74362
G1 X147.075 Y113.841 E199.76940
G1 X161.159 Y127.925 E200.81928
G1 X161.159 Y127.436 E200.84506
G1 X147.564 Y113.841 E201.85848
G1 X148.053 Y113.841 E201.88426
G1 X161.159 Y126.947 E202.86122
G1 X161.159 Y126.458 E202.88700
G1 X148.542 Y113.841 E203.82750
G1 X149.031 Y113.841 E203.85328
G1 X161.159 Y125.969 E204.75732
G1 X161.159 Y125.480 E204.78310
G1 X149.520 Y113.841 E205.65068
G1 X150.009 Y113.841 E205.67646
G1 X161.159 Y124.991 E206.50757
G1 X161.159 Y124.502 E206.53336
G1 X150.498 Y113.841 E207.32801
G1 X150.987 Y113.841 E207.35379
G1 X161.159 Y124.013 E208.11199
G1 X161.159 Y123.523 E208.13777
G1 X151.477 Y113.841 E208.85950
G1 X151.966 Y113.841 E208.88529
G1 X161.159 Y123.034 E209.57056
G1 X161.159 Y122.545 E209.59634
G1 X152.455 Y113.841 E210.24516
G1 X152.944 Y113.841 E210.27094
G1 X161.159 Y122.056 E210.88329
G1 X161.159 Y121.567 E210.90907
G1 X153.433 Y113.841 E211.48497
G1 X153.922 Y113.841 E211.51075
G1 X161.159 Y121.078 E212.05018
G1 X161.159 Y120.589 E212.07596
G1 X154.411 Y113.841 E212.57893
G1 X154.900 Y113.841 E212.60472
G1 X161.159 Y120.100 E213.07123
G1 X161.159 Y119.610 E213.09701
G1 X155.390 Y113.841 E213.52706
G1 X155.879 Y113.841 E213.55284
G1 X161.159 Y119.121 E213.94643
G1 X161.159 Y118.632 E213.97222
G1 X156.368 Y113.841 E214.32935
G1 X156.857 Y113.841 E214.35513
G1 X161.159 Y118.143 E214.67580
G1 X161.159 Y117.654 E214.70158
G1 X157.346 Y113.841 E214.98579
G1 X157.835 Y113.841 E215.01157
G1 X161.159 Y117.165 E215.25932
G1 X161.159 Y116.676 E215.28510
G1 X158.324 Y113.841 E215.49639
G1 X158.813 Y113.841 E215.52217
G1 X161.159 Y116.187 E215.69700
G1 X161.159 Y115.697 E215.72278
G1 X159.303 Y113.841 E215.86115
G1 X159.792 Y113.841 E215.88693
G1 X161.159 Y115.208 E215.98884
G1 X161.159 Y114.719 E216.01462
G1 X160.281 Y113.841 E216.08007
G1 X160.770 Y113.841 E216.10585
G1 X161.314 Y114.385 E216.14641
G10 ; retract
G92 E0
; Filament-specific end gcode 
;END gcode for filament
M104 S0 ; turn off temperature
M140 S0
G1 X0 Y240 F12000 ;E home X axis
G1 Z150 ;E low Z
M84     ; disable motors
M81 S1
; filament used [mm] = 262.8
; filament used [cm3] = 0.6

; total filament used [g] = 0.0
; total filament cost = 0.0
; estimated printing time (normal mode) = 3m 5s

; avoid_crossing_perimeters = 0
; bed_custom_model = 
; bed_custom_texture = 
; bed_shape = 0x0,285x0,285x265,0x265
; bed_temperature = 75
; before_layer_gcode = 
; between_objects_gcode = 
; bottom_fill_pattern = rectilinear
; bottom_solid_layers = 3
; bottom_solid_min_thickness = 0
; bridge_acceleration = 0
; bridge_angle = 0
; bridge_fan_speed = 100
; bridge_flow_ratio = 1
; bridge_speed = 60
; brim_width = 0
; clip_multipart_objects = 1
; complete_objects = 0
; cooling = 1
; cooling_tube_length = 5
; cooling_tube_retraction = 91.5
; default_acceleration = 0
; default_filament_profile = ""
; default_print_profile = 
; deretract_speed = 0
; disable_fan_first_layers = 3
; dont_support_bridges = 1
; draft_shield = 0
; duplicate_distance = 6
; elefant_foot_compensation = 0.2
; end_filament_gcode = "; Filament-specific end gcode \n;END gcode for filament\n"
; end_gcode = M104 S0 ; turn off temperature\nM140 S0\nG1 X0 Y240 F12000 ;E home X axis\nG1 Z150 ;E low Z\nM84     ; disable motors\nM81 S1\n
; ensure_vertical_shell_thickness = 0
; external_perimeter_extrusion_width = 0.45
; external_perimeter_speed = 50%
; external_perimeters_first = 0
; extra_loading_move = -2
; extra_perimeters = 1
; extruder_clearance_height = 20
; extruder_clearance_radius = 20
; extruder_colour = ""
; extruder_offset = 0x0
; extrusion_axis = E
; extrusion_multiplier = 1
; extrusion_width = 0.45
; fan_always_on = 1
; fan_below_layer_time = 60
; filament_colour = #29B2B2
; filament_cooling_final_speed = 3.4
; filament_cooling_initial_speed = 2.2
; filament_cooling_moves = 4
; filament_cost = 0
; filament_density = 0
; filament_diameter = 1.71
; filament_load_time = 0
; filament_loading_speed = 28
; filament_loading_speed_start = 3
; filament_max_volumetric_speed = 0
; filament_minimal_purge_on_wipe_tower = 15
; filament_notes = ""
; filament_ramming_parameters = "120 100 6.6 6.8 7.2 7.6 7.9 8.2 8.7 9.4 9.9 10.0| 0.05 6.6 0.45 6.8 0.95 7.8 1.45 8.3 1.95 9.7 2.45 10 2.95 7.6 3.45 7.6 3.95 7.6 4.45 7.6 4.95 7.6"
; filament_settings_id = PETG
; filament_soluble = 0
; filament_toolchange_delay = 0
; filament_type = PET
; filament_unload_time = 0
; filament_unloading_speed = 90
; filament_unloading_speed_start = 100
