; generated by PrusaSlicer 2.2.0+win64 on 2020-10-23 at 06:07:45 UTC

; 

; external perimeters extrusion width = 0.45mm
; perimeters extrusion width = 0.45mm
; infill extrusion width = 0.45mm
; solid infill extrusion width = 0.45mm
; top infill extrusion width = 0.40mm
; first layer extrusion width = 0.42mm

M107
M190 S60 ; set bed temperature and wait for it to be reached
M104 S190 ; set temperature
G28 ; home all axes
;G29 S1
G1 Z5 F5000 ;E lift nozzle
M109 S190 ; set temperature and wait for it to be reached
G21 ; set units to millimeters
G90 ; use absolute coordinates
M82 ; use absolute distances for extrusion
G92 E0
; Filament gcode
G29 S1 P"heightmap_pla.csv"
M109 S190; heat nozzle to first_layer_temperature
G92 E0 ; reset extruder

G1 X0 Y200 Z0.2 F3000.0 ; move to start-line position2
G1 X0 Y20 Z0.2 F1500.0 E15 ; draw 1st line
G1 X0.5 Y20 Z0.2 F5000.0 ; move to side a little
G1 X0.5 Y200 Z0.2F1500.0 E30 ; draw 2nd line
G92 E0 ; reset extruder
G1 Z1.0 F1000 ; move z up little to prevent scratching of surface
G1 Z0.200 F7800.000
G10 ; retract
G92 E0
G1 X116.713 Y107.988
G11 ; unretract
G92 E0
G1 F1200.000
G1 X117.970 Y106.728 E0.05457
G1 X119.463 Y105.744 E0.10936
G1 X121.117 Y105.086 E0.16394
G1 X122.878 Y104.776 E0.21873
G1 X161.500 Y104.754 E1.40247
G1 X163.070 Y104.897 E1.45079
G1 X164.589 Y105.320 E1.49912
G1 X166.007 Y106.008 E1.54745
G1 X167.274 Y106.935 E1.59555
G1 X168.359 Y108.078 E1.64388
G1 X169.218 Y109.392 E1.69198
G1 X169.831 Y110.845 E1.74031
G1 X170.174 Y112.384 E1.78864
G1 X170.246 Y113.492 E1.82267
G1 X170.238 Y151.865 E2.99880
G1 X170.067 Y153.256 E3.04177
G1 X169.678 Y154.596 E3.08452
G1 X169.077 Y155.863 E3.12749
G1 X168.287 Y157.012 E3.17023
G1 X167.654 Y157.710 E3.19912
G1 X166.950 Y158.337 E3.22801
G1 X166.177 Y158.888 E3.25712
G1 X165.354 Y159.348 E3.28600
G1 X164.487 Y159.718 E3.31489
G1 X163.586 Y159.992 E3.34378
G1 X162.653 Y160.169 E3.37289
G1 X161.713 Y160.244 E3.40178
G1 X123.113 Y160.238 E4.58485
G1 X121.729 Y160.064 E4.62760
G1 X120.391 Y159.673 E4.67034
G1 X119.137 Y159.077 E4.71287
G1 X117.988 Y158.287 E4.75561
G1 X117.290 Y157.654 E4.78450
G1 X116.663 Y156.950 E4.81339
G1 X116.112 Y156.177 E4.84250
G1 X115.652 Y155.354 E4.87139
G1 X115.282 Y154.487 E4.90027
G1 X115.008 Y153.586 E4.92916
G1 X114.831 Y152.653 E4.95827
G1 X114.756 Y151.713 E4.98716
G1 X114.762 Y113.113 E6.17023
G1 X114.936 Y111.729 E6.21298
G1 X115.327 Y110.391 E6.25573
G1 X115.923 Y109.137 E6.29825
G1 X116.679 Y108.038 E6.33916
G1 X118.237 Y106.997 F7800.000
G1 F1200.000
G1 X119.665 Y106.064 E6.39145
G1 X121.246 Y105.442 E6.44352
G1 X122.927 Y105.151 E6.49580
G1 X161.499 Y105.131 E7.67803
G1 X163.000 Y105.267 E7.72421
G1 X164.458 Y105.673 E7.77061
G1 X165.820 Y106.335 E7.81701
G1 X167.040 Y107.231 E7.86341
G1 X168.079 Y108.332 E7.90981
G1 X168.900 Y109.596 E7.95599
G1 X169.483 Y110.993 E8.00239
G1 X169.804 Y112.465 E8.04857
G1 X169.869 Y113.499 E8.08032
G1 X169.862 Y151.835 E9.25533
G1 X169.699 Y153.175 E9.29671
G1 X169.322 Y154.472 E9.33808
G1 X168.741 Y155.691 E9.37946
G1 X167.973 Y156.800 E9.42084
G1 X166.690 Y158.061 E9.47596
G1 X165.162 Y159.023 E9.53130
G1 X163.470 Y159.632 E9.58642
G1 X161.687 Y159.867 E9.64154
G1 X123.143 Y159.861 E10.82290
G1 X121.811 Y159.696 E10.86406
G1 X120.522 Y159.319 E10.90522
G1 X119.303 Y158.738 E10.94660
G1 X118.200 Y157.973 E10.98775
G1 X116.939 Y156.690 E11.04288
G1 X115.977 Y155.162 E11.09822
G1 X115.368 Y153.470 E11.15334
G1 X115.133 Y151.687 E11.20846
G1 X115.139 Y113.143 E12.38982
G1 X115.304 Y111.811 E12.43098
G1 X115.681 Y110.522 E12.47214
G1 X116.262 Y109.303 E12.51351
G1 X117.027 Y108.200 E12.55467
G1 X118.194 Y107.039 E12.60512
G10 ; retract
G92 E0
G1 X160.328 Y150.328 F7800.000
G11 ; unretract
G92 E0
G1 F1200.000
G1 X124.672 Y150.328 E1.09285
G1 X124.672 Y114.672 E2.18571
G1 X160.328 Y114.672 E3.27856
G1 X160.328 Y150.268 E4.36958
G1 X160.705 Y150.705 F7800.000
G1 F1200.000
G1 X124.295 Y150.705 E5.48555
G1 X124.295 Y114.295 E6.60151
G1 X160.705 Y114.295 E7.71748
G1 X160.705 Y150.645 E8.83161
G1 X161.082 Y151.082 F7800.000
G1 F1200.000
G1 X123.918 Y151.082 E9.97070
G1 X123.918 Y113.918 E11.10978
G1 X161.082 Y113.918 E12.24886
G1 X161.082 Y151.022 E13.38611
G1 X160.696 Y150.979 F7800.000
G10 ; retract
G92 E0
G1 X124.766 Y149.471
G11 ; unretract
G92 E0
G1 F1200.000
G1 X125.360 Y150.064 E0.02576
G1 X125.894 Y150.064 E0.04214
G1 X124.936 Y149.106 E0.08371
G1 X124.936 Y148.572 E0.10009
G1 X126.428 Y150.064 E0.16483
G1 X126.961 Y150.064 E0.18121
G1 X124.936 Y148.039 E0.26912
G1 X124.936 Y147.505 E0.28550
G1 X127.495 Y150.064 E0.39658
G1 X128.029 Y150.064 E0.41296
G1 X124.936 Y146.971 E0.54721
G1 X124.936 Y146.437 E0.56359
G1 X128.563 Y150.064 E0.72101
G1 X129.097 Y150.064 E0.73740
G1 X124.936 Y145.903 E0.91799
G1 X124.936 Y145.369 E0.93437
G1 X129.631 Y150.064 E1.13813
G1 X130.165 Y150.064 E1.15451
G1 X124.936 Y144.835 E1.38144
G1 X124.936 Y144.301 E1.39783
G1 X130.699 Y150.064 E1.64793
G1 X131.233 Y150.064 E1.66431
G1 X124.936 Y143.767 E1.93758
G1 X124.936 Y143.233 E1.95397
G1 X131.767 Y150.064 E2.25041
G1 X132.301 Y150.064 E2.26679
G1 X124.936 Y142.699 E2.58641
G1 X124.936 Y142.166 E2.60279
G1 X132.834 Y150.064 E2.94558
G1 X133.368 Y150.064 E2.96196
G1 X124.936 Y141.632 E3.32791
G1 X124.936 Y141.098 E3.34430
G1 X133.902 Y150.064 E3.73342
G1 X134.436 Y150.064 E3.74981
G1 X124.936 Y140.564 E4.16210
G1 X124.936 Y140.030 E4.17849
G1 X134.970 Y150.064 E4.61395
G1 X135.504 Y150.064 E4.63034
G1 X124.936 Y139.496 E5.08897
G1 X124.936 Y138.962 E5.10536
G1 X136.038 Y150.064 E5.58716
G1 X136.572 Y150.064 E5.60355
G1 X124.936 Y138.428 E6.10853
G1 X124.936 Y137.894 E6.12491
G1 X137.106 Y150.064 E6.65306
G1 X137.640 Y150.064 E6.66944
G1 X124.936 Y137.360 E7.22076
G1 X124.936 Y136.826 E7.23715
G1 X138.174 Y150.064 E7.81164
G1 X138.708 Y150.064 E7.82802
G1 X124.936 Y136.292 E8.42568
G1 X124.936 Y135.759 E8.44206
G1 X139.241 Y150.064 E9.06290
G1 X139.775 Y150.064 E9.07928
G1 X124.936 Y135.225 E9.72328
G1 X124.936 Y134.691 E9.73966
G1 X140.309 Y150.064 E10.40684
G1 X140.843 Y150.064 E10.42322
G1 X124.936 Y134.157 E11.11356
G1 X124.936 Y133.623 E11.12995
G1 X141.377 Y150.064 E11.84346
G1 X141.911 Y150.064 E11.85985
G1 X124.936 Y133.089 E12.59653
G1 X124.936 Y132.555 E12.61291
G1 X142.445 Y150.064 E13.37277
G1 X142.979 Y150.064 E13.38915
G1 X124.936 Y132.021 E14.17218
G1 X124.936 Y131.487 E14.18856
G1 X143.513 Y150.064 E14.99476
G1 X144.047 Y150.064 E15.01114
G1 X124.936 Y130.953 E15.84051
G1 X124.936 Y130.419 E15.85689
G1 X144.581 Y150.064 E16.70943
G1 X145.115 Y150.064 E16.72582
G1 X124.936 Y129.885 E17.60152
G1 X124.936 Y129.352 E17.61791
G1 X145.648 Y150.064 E18.51679
G1 X146.182 Y150.064 E18.53317
G1 X124.936 Y128.818 E19.45522
G1 X124.936 Y128.284 E19.47160
G1 X146.716 Y150.064 E20.41682
G1 X147.250 Y150.064 E20.43321
G1 X124.936 Y127.750 E21.40160
G1 X124.936 Y127.216 E21.41798
G1 X147.784 Y150.064 E22.40954
G1 X148.318 Y150.064 E22.42593
G1 X124.936 Y126.682 E23.44066
G1 X124.936 Y126.148 E23.45704
G1 X148.852 Y150.064 E24.49495
G1 X149.386 Y150.064 E24.51133
G1 X124.936 Y125.614 E25.57240
G1 X124.936 Y125.080 E25.58879
G1 X149.920 Y150.064 E26.67303
G1 X150.454 Y150.064 E26.68942
G1 X124.936 Y124.546 E27.79683
G1 X124.936 Y124.012 E27.81322
G1 X150.988 Y150.064 E28.94380
G1 X151.522 Y150.064 E28.96018
G1 X124.936 Y123.478 E30.11394
G1 X124.936 Y122.945 E30.13032
G1 X152.055 Y150.064 E31.30725
G1 X152.589 Y150.064 E31.32363
G1 X124.936 Y122.411 E32.52373
G1 X124.936 Y121.877 E32.54012
G1 X153.123 Y150.064 E33.76338
G1 X153.657 Y150.064 E33.77977
G1 X124.936 Y121.343 E35.02621
G1 X124.936 Y120.809 E35.04259
G1 X154.191 Y150.064 E36.31220
G1 X154.725 Y150.064 E36.32858
G1 X124.936 Y120.275 E37.62136
G1 X124.936 Y119.741 E37.63775
G1 X155.259 Y150.064 E38.95370
G1 X155.793 Y150.064 E38.97008
G1 X124.936 Y119.207 E40.30920
G1 X124.936 Y118.673 E40.32559
G1 X156.327 Y150.064 E41.68788
G1 X156.861 Y150.064 E41.70426
G1 X124.936 Y118.139 E43.08972
G1 X124.936 Y117.605 E43.10611
G1 X157.395 Y150.064 E44.51474
G1 X157.929 Y150.064 E44.53113
G1 X124.936 Y117.071 E45.96293
G1 X124.936 Y116.538 E45.97931
G1 X158.462 Y150.064 E47.43429
G1 X158.996 Y150.064 E47.45067
G1 X124.936 Y116.004 E48.92882
G1 X124.936 Y115.470 E48.94520
G1 X159.530 Y150.064 E50.44652
G1 X160.064 Y150.064 E50.46290
G1 X124.936 Y114.936 E51.98739
G1 X125.470 Y114.936 E52.00377
G1 X160.064 Y149.530 E53.50509
G1 X160.064 Y148.996 E53.52147
G1 X126.004 Y114.936 E54.99961
G1 X126.538 Y114.936 E55.01600
G1 X160.064 Y148.462 E56.47097
G1 X160.064 Y147.929 E56.48736
G1 X127.071 Y114.936 E57.91916
G1 X127.605 Y114.936 E57.93554
G1 X160.064 Y147.395 E59.34418
G1 X160.064 Y146.861 E59.36056
G1 X128.139 Y114.936 E60.74602
G1 X128.673 Y114.936 E60.76241
G1 X160.064 Y146.327 E62.12470
G1 X160.064 Y145.793 E62.14108
G1 X129.207 Y114.936 E63.48021
G1 X129.741 Y114.936 E63.49659
G1 X160.064 Y145.259 E64.81254
G1 X160.064 Y144.725 E64.82892
G1 X130.275 Y114.936 E66.12170
G1 X130.809 Y114.936 E66.13809
G1 X160.064 Y144.191 E67.40770
G1 X160.064 Y143.657 E67.42408
G1 X131.343 Y114.936 E68.67052
G1 X131.877 Y114.936 E68.68691
G1 X160.064 Y143.123 E69.91017
G1 X160.064 Y142.589 E69.92656
G1 X132.411 Y114.936 E71.12665
G1 X132.945 Y114.936 E71.14304
G1 X160.064 Y142.055 E72.31997
G1 X160.064 Y141.522 E72.33635
G1 X133.478 Y114.936 E73.49011
G1 X134.012 Y114.936 E73.50649
G1 X160.064 Y140.988 E74.63708
G1 X160.064 Y140.454 E74.65346
G1 X134.546 Y114.936 E75.76087
G1 X135.080 Y114.936 E75.77726
G1 X160.064 Y139.920 E76.86150
G1 X160.064 Y139.386 E76.87789
G1 X135.614 Y114.936 E77.93896
G1 X136.148 Y114.936 E77.95534
G1 X160.064 Y138.852 E78.99325
G1 X160.064 Y138.318 E79.00963
G1 X136.682 Y114.936 E80.02436
G1 X137.216 Y114.936 E80.04075
G1 X160.064 Y137.784 E81.03231
G1 X160.064 Y137.250 E81.04869
G1 X137.750 Y114.936 E82.01708
G1 X138.284 Y114.936 E82.03347
G1 X160.064 Y136.716 E82.97869
G1 X160.064 Y136.182 E82.99507
G1 X138.818 Y114.936 E83.91712
G1 X139.352 Y114.936 E83.93351
G1 X160.064 Y135.648 E84.83239
G1 X160.064 Y135.115 E84.84877
G1 X139.885 Y114.936 E85.72448
G1 X140.419 Y114.936 E85.74086
G1 X160.064 Y134.581 E86.59340
G1 X160.064 Y134.047 E86.60978
G1 X140.953 Y114.936 E87.43915
G1 X141.487 Y114.936 E87.45554
G1 X160.064 Y133.513 E88.26173
G1 X160.064 Y132.979 E88.27812
G1 X142.021 Y114.936 E89.06114
G1 X142.555 Y114.936 E89.07753
G1 X160.064 Y132.445 E89.83738
G1 X160.064 Y131.911 E89.85377
G1 X143.089 Y114.936 E90.59045
G1 X143.623 Y114.936 E90.60684
G1 X160.064 Y131.377 E91.32035
G1 X160.064 Y130.843 E91.33673
G1 X144.157 Y114.936 E92.02708
G1 X144.691 Y114.936 E92.04346
G1 X160.064 Y130.309 E92.71063
G1 X160.064 Y129.775 E92.72702
G1 X145.225 Y114.936 E93.37102
G1 X145.759 Y114.936 E93.38740
G1 X160.064 Y129.241 E94.00824
G1 X160.064 Y128.708 E94.02462
G1 X146.292 Y114.936 E94.62228
G1 X146.826 Y114.936 E94.63866
G1 X160.064 Y128.174 E95.21315
G1 X160.064 Y127.640 E95.22954
G1 X147.360 Y114.936 E95.78086
G1 X147.894 Y114.936 E95.79724
G1 X160.064 Y127.106 E96.32539
G1 X160.064 Y126.572 E96.34177
G1 X148.428 Y114.936 E96.84675
G1 X148.962 Y114.936 E96.86314
G1 X160.064 Y126.038 E97.34494
G1 X160.064 Y125.504 E97.36133
G1 X149.496 Y114.936 E97.81997
G1 X150.030 Y114.936 E97.83635
G1 X160.064 Y124.970 E98.27182
G1 X160.064 Y124.436 E98.28820
G1 X150.564 Y114.936 E98.70050
G1 X151.098 Y114.936 E98.71688
G1 X160.064 Y123.902 E99.10601
G1 X160.064 Y123.368 E99.12239
G1 X151.632 Y114.936 E99.48834
G1 X152.165 Y114.936 E99.50473
G1 X160.064 Y122.835 E99.84751
G1 X160.064 Y122.301 E99.86390
G1 X152.699 Y114.936 E100.18351
G1 X153.233 Y114.936 E100.19989
G1 X160.064 Y121.767 E100.49634
G1 X160.064 Y121.233 E100.51272
G1 X153.767 Y114.936 E100.78599
G1 X154.301 Y114.936 E100.80238
G1 X160.064 Y120.699 E101.05248
G1 X160.064 Y120.165 E101.06886
G1 X154.835 Y114.936 E101.29579
G1 X155.369 Y114.936 E101.31218
G1 X160.064 Y119.631 E101.51594
G1 X160.064 Y119.097 E101.53232
G1 X155.903 Y114.936 E101.71291
G1 X156.437 Y114.936 E101.72929
G1 X160.064 Y118.563 E101.88671
G1 X160.064 Y118.029 E101.90310
G1 X156.971 Y114.936 E102.03734
G1 X157.505 Y114.936 E102.05373
G1 X160.064 Y117.495 E102.16481
G1 X160.064 Y116.961 E102.18119
G1 X158.039 Y114.936 E102.26910
G1 X158.572 Y114.936 E102.28548
G1 X160.064 Y116.428 E102.35022
G1 X160.064 Y115.894 E102.36660
G1 X159.106 Y114.936 E102.40817
G1 X159.640 Y114.936 E102.42455
G1 X160.234 Y115.529 E102.45031
G1 Z0.400 F7800.000
G1 X160.338 Y150.338
G1 F1200.000
G1 X124.662 Y150.338 E103.63074
G1 X124.662 Y114.662 E104.81117
G1 X160.338 Y114.662 E105.99160
G1 X160.338 Y150.278 E107.17004
G1 X160.745 Y150.745 F7800.000
G1 F1200.000
G1 X124.255 Y150.745 E108.37741
G1 X124.255 Y114.255 E109.58478
G1 X160.745 Y114.255 E110.79215
G1 X160.745 Y150.685 E111.99754
G1 X161.152 Y151.152 F7800.000
G1 F600.000
G1 X123.848 Y151.152 E113.23184
G1 X123.848 Y113.848 E114.46615
G1 X161.152 Y113.848 E115.70046
G1 X161.152 Y151.092 E116.93278
G1 X160.765 Y151.048 F7800.000
G1 X125.590 Y114.764
G1 F1200.000
G1 X124.947 Y115.406 E116.96293
G1 X124.947 Y115.984 E116.98209
G1 X125.984 Y114.947 E117.03074
G1 X126.561 Y114.947 E117.04990
G1 X124.947 Y116.561 E117.12566
G1 X124.947 Y117.139 E117.14482
G1 X127.139 Y114.947 E117.24767
G1 X127.716 Y114.947 E117.26684
G1 X124.947 Y117.716 E117.39679
G1 X124.947 Y118.294 E117.41596
G1 X128.294 Y114.947 E117.57301
G1 X128.871 Y114.947 E117.59218
G1 X124.947 Y118.871 E117.77634
G1 X124.947 Y119.448 E117.79550
G1 X129.448 Y114.947 E118.00676
G1 X130.026 Y114.947 E118.02593
G1 X124.947 Y120.026 E118.26429
G1 X124.947 Y120.603 E118.28346
G1 X130.603 Y114.947 E118.54892
G1 X131.181 Y114.947 E118.56809
G1 X124.947 Y121.181 E118.86065
G1 X124.947 Y121.758 E118.87982
G1 X131.758 Y114.947 E119.19949
G1 X132.336 Y114.947 E119.21865
G1 X124.947 Y122.336 E119.56543
G1 X124.947 Y122.913 E119.58459
G1 X132.913 Y114.947 E119.95846
G1 X133.491 Y114.947 E119.97763
G1 X124.947 Y123.491 E120.37861
G1 X124.947 Y124.068 E120.39777
G1 X134.068 Y114.947 E120.82585
G1 X134.645 Y114.947 E120.84501
G1 X124.947 Y124.645 E121.30019
G1 X124.947 Y125.223 E121.31936
G1 X135.223 Y114.947 E121.80164
G1 X135.800 Y114.947 E121.82081
G1 X124.947 Y125.800 E122.33019
G1 X124.947 Y126.378 E122.34936
G1 X136.378 Y114.947 E122.88584
G1 X136.955 Y114.947 E122.90501
G1 X124.947 Y126.955 E123.46860
G1 X124.947 Y127.533 E123.48776
G1 X137.533 Y114.947 E124.07845
G1 X138.110 Y114.947 E124.09762
G1 X124.947 Y128.110 E124.71541
G1 X124.947 Y128.687 E124.73457
G1 X138.687 Y114.947 E125.37947
G1 X139.265 Y114.947 E125.39863
G1 X124.947 Y129.265 E126.07063
G1 X124.947 Y129.842 E126.08980
G1 X139.842 Y114.947 E126.78890
G1 X140.420 Y114.947 E126.80806
G1 X124.947 Y130.420 E127.53426
G1 X124.947 Y130.997 E127.55343
G1 X140.997 Y114.947 E128.30673
G1 X141.575 Y114.947 E128.32590
G1 X124.947 Y131.575 E129.10630
G1 X124.947 Y132.152 E129.12547
G1 X142.152 Y114.947 E129.93298
G1 X142.730 Y114.947 E129.95214
G1 X124.947 Y132.730 E130.78675
G1 X124.947 Y133.307 E130.80592
G1 X143.307 Y114.947 E131.66763
G1 X143.884 Y114.947 E131.68679
G1 X124.947 Y133.884 E132.57561
G1 X124.947 Y134.462 E132.59477
G1 X144.462 Y114.947 E133.51069
G1 X145.039 Y114.947 E133.52986
G1 X124.947 Y135.039 E134.47287
G1 X124.947 Y135.617 E134.49204
G1 X145.617 Y114.947 E135.46216
G1 X146.194 Y114.947 E135.48132
G1 X124.947 Y136.194 E136.47855
G1 X124.947 Y136.772 E136.49771
G1 X146.772 Y114.947 E137.52204
G1 X147.349 Y114.947 E137.54120
G1 X124.947 Y137.349 E138.59263
G1 X124.947 Y137.926 E138.61180
G1 X147.926 Y114.947 E139.69033
G1 X148.504 Y114.947 E139.70949
G1 X124.947 Y138.504 E140.81512
G1 X124.947 Y139.081 E140.83429
G1 X149.081 Y114.947 E141.96702
G1 X149.659 Y114.947 E141.98619
G1 X124.947 Y139.659 E143.14602
G1 X124.947 Y140.236 E143.16519
G1 X150.236 Y114.947 E144.35213
G1 X150.814 Y114.947 E144.37129
G1 X124.947 Y140.814 E145.58533
G1 X124.947 Y141.391 E145.60450
G1 X151.391 Y114.947 E146.84564
G1 X151.969 Y114.947 E146.86480
G1 X124.947 Y141.969 E148.13305
G1 X124.947 Y142.546 E148.15221
G1 X152.546 Y114.947 E149.44756
