; generated by PrusaSlicer 2.2.0+win64 on 2020-05-06 at 20:06:57 UTC

; 

; external perimeters extrusion width = 0.45mm
; perimeters extrusion width = 0.45mm
; infill extrusion width = 0.45mm
; solid infill extrusion width = 0.45mm
; top infill extrusion width = 0.40mm
; first layer extrusion width = 0.42mm

M107
M190 S60 ; set bed temperature and wait for it to be reached
M104 S205 ; set temperature
G28 ; home all axes
G29 S1
G1 Z5 F5000 ; lift nozzle
M109 S205 ; set temperature and wait for it to be reached
G21 ; set units to millimeters
G90 ; use absolute coordinates
M82 ; use absolute distances for extrusion
G92 E0
; Filament gcode
G1 Z0.200 F7800.000
G10 ; retract
G92 E0
G1 X126.160 Y98.295
G11 ; unretract
G92 E0
G1 F1200.000
G1 X126.330 Y97.199 E0.03642
G1 X126.595 Y96.368 E0.06508
G1 X126.972 Y95.581 E0.09374
G1 X127.452 Y94.852 E0.12240
G1 X128.028 Y94.196 E0.15106
G1 X131.197 Y91.249 E0.29317
G1 X134.596 Y88.986 E0.42727
G1 X137.260 Y87.683 E0.52467
G1 X140.524 Y86.558 E0.63804
G1 X143.237 Y85.970 E0.72919
G1 X145.354 Y85.709 E0.79924
G1 X147.410 Y85.624 E0.86681
G1 X149.365 Y85.692 E0.93103
G1 X151.474 Y85.929 E1.00074
G1 X153.536 Y86.330 E1.06971
G1 X155.931 Y87.016 E1.15153
G1 X157.792 Y87.727 E1.21694
G1 X160.637 Y89.142 E1.32130
G1 X162.455 Y90.289 E1.39187
G1 X164.186 Y91.591 E1.46300
G1 X165.839 Y93.065 E1.53574
G1 X167.600 Y94.951 E1.62047
G1 X169.859 Y98.049 E1.74637
G1 X171.903 Y102.049 E1.89390
G1 X173.397 Y107.124 E2.06762
G1 X173.854 Y111.959 E2.22711
G1 X173.843 Y178.374 E4.40805
G1 X173.699 Y179.399 E4.44203
G1 X173.391 Y180.386 E4.47600
G1 X172.928 Y181.311 E4.50997
G1 X172.321 Y182.149 E4.54394
G1 X171.586 Y182.877 E4.57791
G1 X170.743 Y183.477 E4.61188
G1 X169.821 Y183.931 E4.64565
G1 X168.831 Y184.232 E4.67962
G1 X167.537 Y184.377 E4.72236
G1 X162.884 Y184.376 E4.87518
G1 X161.977 Y184.298 E4.90507
G1 X161.037 Y184.075 E4.93679
G1 X160.142 Y183.712 E4.96851
G1 X159.311 Y183.218 E5.00024
G1 X158.561 Y182.600 E5.03217
G1 X135.436 Y155.425 E6.20392
G1 X134.909 Y154.657 E6.23452
G1 X132.546 Y150.504 E6.39142
G1 X132.173 Y149.660 E6.42172
G1 X131.929 Y148.822 E6.45038
G1 X131.143 Y144.127 E6.60671
G1 X126.183 Y99.411 E8.08412
G1 X126.161 Y98.355 E8.11877
G10 ; retract
G92 E0
G1 X149.169 Y99.953 F7800.000
G11 ; unretract
G92 E0
G1 F1200.000
G1 X149.003 Y100.043 E0.00621
G1 X148.009 Y100.306 E0.03998
G1 X146.878 Y100.304 E0.07711
G1 X146.712 Y100.284 E0.08260
G1 X145.729 Y99.920 E0.11703
G1 X145.577 Y99.827 E0.12289
G1 X144.834 Y99.148 E0.15594
G1 X144.727 Y99.011 E0.16164
G1 X144.249 Y98.087 E0.19580
G1 X144.198 Y97.926 E0.20134
G1 X144.071 Y96.950 E0.23367
G1 X144.078 Y96.778 E0.23931
G1 X144.304 Y95.761 E0.27353
G1 X144.371 Y95.602 E0.27921
G1 X144.932 Y94.736 E0.31309
G1 X145.050 Y94.610 E0.31877
G1 X145.847 Y94.008 E0.35157
G1 X145.998 Y93.932 E0.35712
G1 X146.953 Y93.633 E0.38998
G1 X147.122 Y93.613 E0.39554
G1 X148.141 Y93.658 E0.42904
G1 X148.312 Y93.697 E0.43483
G1 X149.208 Y94.066 E0.46662
G1 X149.361 Y94.161 E0.47254
G1 X150.075 Y94.798 E0.50398
G1 X150.184 Y94.927 E0.50950
G1 X150.706 Y95.892 E0.54554
G1 X150.893 Y96.999 E0.58241
G1 X150.681 Y98.176 E0.62168
G1 X150.600 Y98.346 E0.62784
G1 X150.082 Y99.197 E0.66057
G1 X149.960 Y99.334 E0.66660
G1 X149.217 Y99.916 E0.69760
G1 X149.176 Y100.142 F7800.000
G10 ; retract
G92 E0
G1 X157.432 Y98.382
G11 ; unretract
G92 E0
G1 F1200.000
G1 X157.211 Y99.413 E0.03462
G1 X156.663 Y100.186 E0.06576
G1 X156.464 Y100.354 E0.07428
G1 X155.814 Y100.739 E0.09909
G1 X155.555 Y100.821 E0.10801
G1 X154.750 Y100.913 E0.13464
G1 X154.471 Y100.882 E0.14386
G1 X153.727 Y100.641 E0.16953
G1 X153.482 Y100.496 E0.17888
G1 X152.892 Y99.956 E0.20514
G1 X152.729 Y99.729 E0.21430
G1 X152.430 Y99.037 E0.23906
G1 X152.372 Y98.772 E0.24796
G1 X152.367 Y98.023 E0.27258
G1 X152.422 Y97.754 E0.28159
G1 X152.720 Y97.049 E0.30672
G1 X152.884 Y96.814 E0.31613
G1 X153.468 Y96.275 E0.34224
G1 X153.720 Y96.124 E0.35187
G1 X154.468 Y95.882 E0.37769
G1 X154.746 Y95.846 E0.38688
G1 X155.498 Y95.925 E0.41173
G1 X155.768 Y96.005 E0.42098
G1 X156.466 Y96.412 E0.44751
G1 X156.677 Y96.586 E0.45649
G1 X157.218 Y97.364 E0.48759
G1 X157.420 Y98.323 E0.51980
G1 X157.047 Y98.381 F7800.000
G1 F1200.000
G1 X156.859 Y99.258 E0.54924
G1 X156.383 Y99.929 E0.57627
G1 X156.245 Y100.046 E0.58219
G1 X155.660 Y100.392 E0.60453
G1 X155.476 Y100.450 E0.61084
G1 X154.749 Y100.533 E0.63488
G1 X154.550 Y100.512 E0.64144
G1 X153.883 Y100.295 E0.66447
G1 X153.708 Y100.191 E0.67117
G1 X153.176 Y99.704 E0.69487
G1 X153.059 Y99.542 E0.70142
G1 X152.790 Y98.921 E0.72362
G1 X152.749 Y98.731 E0.73002
G1 X152.745 Y98.059 E0.75208
G1 X152.784 Y97.865 E0.75857
G1 X153.051 Y97.233 E0.78112
G1 X153.170 Y97.064 E0.78790
G1 X153.696 Y96.578 E0.81141
G1 X153.877 Y96.469 E0.81836
G1 X154.551 Y96.251 E0.84160
G1 X154.750 Y96.226 E0.84820
G1 X155.425 Y96.297 E0.87048
G1 X155.618 Y96.353 E0.87709
G1 X156.250 Y96.723 E0.90113
G1 X156.398 Y96.844 E0.90740
G1 X156.864 Y97.516 E0.93427
G1 X157.034 Y98.323 E0.96134
G1 X157.391 Y98.584 F7800.000
G10 ; retract
G92 E0
G1 X150.821 Y123.860
G11 ; unretract
G92 E0
G1 F1200.000
G1 X153.751 Y124.517 E0.09861
G1 X155.993 Y125.689 E0.18170
G1 X157.546 Y126.984 E0.24808
G1 X158.750 Y128.432 E0.30991
G1 X159.673 Y130.050 E0.37110
G1 X160.333 Y131.928 E0.43647
G1 X160.641 Y134.429 E0.51919
G1 X160.641 Y142.065 E0.76994
G1 X160.389 Y144.327 E0.84472
G1 X159.798 Y146.162 E0.90803
G1 X159.028 Y147.642 E0.96278
G1 X157.954 Y149.082 E1.02179
G1 X156.375 Y150.537 E1.09229
G1 X154.248 Y151.771 E1.17305
G1 X153.997 Y151.873 E1.18194
G1 X151.355 Y152.584 E1.27179
G1 X148.398 Y152.549 E1.36889
G1 X148.131 Y152.495 E1.37785
G1 X144.782 Y151.309 E1.49452
G1 X144.515 Y151.156 E1.50463
G1 X141.889 Y148.941 E1.61744
G1 X141.691 Y148.713 E1.62734
G1 X140.018 Y145.783 E1.73813
G1 X139.903 Y145.512 E1.74781
G1 X139.313 Y142.095 E1.86168
G1 X139.313 Y134.404 E2.11423
G1 X139.869 Y131.065 E2.22539
G1 X141.462 Y128.093 E2.33613
G1 X141.640 Y127.850 E2.34603
G1 X144.016 Y125.664 E2.45204
G1 X144.257 Y125.501 E2.46158
G1 X147.163 Y124.220 E2.56587
G1 X147.438 Y124.143 E2.57525
G1 X150.041 Y123.911 E2.66107
G1 X150.761 Y123.864 E2.68477
G1 X150.791 Y124.240 F7800.000
G1 F1200.000
G1 X153.620 Y124.875 E2.77997
G1 X155.783 Y126.005 E2.86010
G1 X157.278 Y127.252 E2.92403
G1 X158.439 Y128.647 E2.98364
G1 X159.328 Y130.208 E3.04262
G1 X159.963 Y132.015 E3.10553
G1 X160.264 Y134.452 E3.18616
G1 X160.264 Y142.044 E3.43546
G1 X160.018 Y144.248 E3.50830
G1 X159.448 Y146.017 E3.56932
G1 X158.708 Y147.441 E3.62203
G1 X157.673 Y148.829 E3.67890
G1 X156.150 Y150.232 E3.74688
G1 X154.081 Y151.432 E3.82543
G1 X153.876 Y151.516 E3.83269
G1 X151.307 Y152.207 E3.92005
G1 X148.438 Y152.172 E4.01427
G1 X148.232 Y152.130 E4.02119
G1 X144.940 Y150.965 E4.13586
G1 X144.732 Y150.846 E4.14373
G1 X142.154 Y148.671 E4.25447
G1 X142.000 Y148.494 E4.26219
G1 X140.356 Y145.616 E4.37102
G1 X140.268 Y145.405 E4.37853
G1 X139.690 Y142.063 E4.48993
G1 X139.690 Y134.435 E4.74040
G1 X140.231 Y131.188 E4.84849
G1 X141.782 Y128.295 E4.95631
G1 X141.923 Y128.103 E4.96413
G1 X144.251 Y125.961 E5.06802
G1 X144.440 Y125.832 E5.07553
G1 X147.290 Y124.576 E5.17781
G1 X147.506 Y124.515 E5.18516
G1 X150.731 Y124.244 E5.29146
G10 ; retract
G92 E0
G1 X147.574 Y124.888 F7800.000
G11 ; unretract
G92 E0
G1 F1200.000
G1 X150.762 Y124.620 E0.10506
G1 X153.489 Y125.232 E0.19685
G1 X155.572 Y126.320 E0.27403
G1 X157.010 Y127.519 E0.33550
G1 X158.128 Y128.863 E0.39290
G1 X158.984 Y130.365 E0.44966
G1 X159.594 Y132.102 E0.51012
G1 X159.887 Y134.475 E0.58865
G1 X159.887 Y142.023 E0.83650
G1 X159.648 Y144.168 E0.90740
G1 X159.099 Y145.871 E0.96614
G1 X158.387 Y147.240 E1.01680
G1 X157.391 Y148.575 E1.07152
G1 X155.925 Y149.927 E1.13699
G1 X153.914 Y151.093 E1.21333
G1 X153.755 Y151.158 E1.21897
G1 X151.260 Y151.829 E1.30383
G1 X148.479 Y151.796 E1.39516
G1 X148.333 Y151.766 E1.40005
G1 X145.098 Y150.621 E1.51272
G1 X144.949 Y150.536 E1.51836
G1 X142.420 Y148.402 E1.62703
G1 X142.309 Y148.275 E1.63256
G1 X140.695 Y145.449 E1.73943
G1 X140.632 Y145.299 E1.74477
G1 X140.067 Y142.030 E1.85371
G1 X140.067 Y134.466 E2.10209
G1 X140.592 Y131.312 E2.20711
G1 X142.102 Y128.496 E2.31201
G1 X142.205 Y128.355 E2.31775
G1 X144.486 Y126.257 E2.41953
G1 X144.624 Y126.163 E2.42500
G1 X147.418 Y124.932 E2.52526
G1 X147.516 Y124.904 E2.52862
G1 X147.704 Y124.510 F7800.000
G10 ; retract
G92 E0
G1 X165.917 Y128.004
G11 ; unretract
G92 E0
G1 F1200.000
G1 X165.663 Y129.190 E0.03985
G1 X165.025 Y130.082 E0.07587
G1 X164.758 Y130.301 E0.08720
G1 X164.042 Y130.715 E0.11437
G1 X163.702 Y130.820 E0.12603
G1 X162.836 Y130.909 E0.15462
G1 X162.486 Y130.874 E0.16618
G1 X161.681 Y130.609 E0.19401
G1 X161.387 Y130.443 E0.20509
G1 X160.755 Y129.885 E0.23278
G1 X160.552 Y129.615 E0.24386
G1 X160.188 Y128.847 E0.27179
G1 X160.108 Y128.501 E0.28344
G1 X160.092 Y127.604 E0.31291
G1 X160.160 Y127.248 E0.32479
G1 X160.513 Y126.450 E0.35347
G1 X160.717 Y126.157 E0.36519
G1 X161.369 Y125.574 E0.39389
G1 X161.674 Y125.391 E0.40558
G1 X162.478 Y125.132 E0.43332
G1 X162.835 Y125.087 E0.44515
G1 X163.708 Y125.183 E0.47398
G1 X164.058 Y125.290 E0.48600
G1 X164.803 Y125.738 E0.51455
G1 X165.069 Y125.959 E0.52591
G1 X165.675 Y126.841 E0.56106
G1 X165.905 Y127.945 E0.59808
G1 X165.532 Y128.002 F7800.000
G1 F1200.000
G1 X165.311 Y129.035 E0.63274
G1 X164.748 Y129.822 E0.66453
G1 X164.543 Y129.990 E0.67322
G1 X163.890 Y130.368 E0.69799
G1 X163.627 Y130.449 E0.70703
G1 X162.836 Y130.530 E0.73313
G1 X162.565 Y130.503 E0.74207
G1 X161.834 Y130.262 E0.76735
G1 X161.607 Y130.134 E0.77592
G1 X161.033 Y129.628 E0.80104
G1 X160.877 Y129.419 E0.80961
G1 X160.546 Y128.722 E0.83494
G1 X160.484 Y128.455 E0.84395
G1 X160.470 Y127.636 E0.87083
G1 X160.522 Y127.361 E0.88002
G1 X160.843 Y126.636 E0.90607
G1 X161.001 Y126.409 E0.91515
G1 X161.594 Y125.879 E0.94126
G1 X161.831 Y125.736 E0.95035
G1 X162.560 Y125.502 E0.97548
G1 X162.838 Y125.467 E0.98470
G1 X163.632 Y125.554 E1.01093
G1 X163.904 Y125.637 E1.02025
G1 X164.584 Y126.047 E1.04634
G1 X164.788 Y126.216 E1.05504
G1 X165.322 Y126.992 E1.08598
G1 X165.520 Y127.944 E1.11789
G1 X165.146 Y128.001 F7800.000
G1 F1200.000
G1 X164.958 Y128.879 E1.14737
G1 X164.470 Y129.562 E1.17494
G1 X164.328 Y129.678 E1.18098
G1 X163.738 Y130.020 E1.20335
G1 X163.551 Y130.077 E1.20977
G1 X162.836 Y130.151 E1.23339
G1 X162.644 Y130.132 E1.23971
G1 X161.987 Y129.915 E1.26243
G1 X161.827 Y129.825 E1.26848
G1 X161.312 Y129.370 E1.29104
G1 X161.201 Y129.223 E1.29709
G1 X160.904 Y128.597 E1.31983
G1 X160.860 Y128.408 E1.32619
G1 X160.848 Y127.668 E1.35049
G1 X160.885 Y127.474 E1.35699
G1 X161.173 Y126.822 E1.38042
G1 X161.285 Y126.661 E1.38685
G1 X161.819 Y126.184 E1.41036
G1 X161.988 Y126.082 E1.41685
G1 X162.641 Y125.871 E1.43938
G1 X162.841 Y125.847 E1.44598
G1 X163.556 Y125.925 E1.46961
G1 X163.749 Y125.984 E1.47624
G1 X164.365 Y126.355 E1.49987
G1 X164.507 Y126.473 E1.50591
G1 X164.968 Y127.143 E1.53263
G1 X165.134 Y127.943 E1.55944
G1 X165.491 Y128.204 F7800.000
G10 ; retract
G92 E0
G1 X165.917 Y148.491
G11 ; unretract
G92 E0
G1 F1200.000
G1 X165.685 Y149.638 E0.03842
G1 X165.057 Y150.549 E0.07476
G1 X164.783 Y150.783 E0.08659
G1 X164.068 Y151.202 E0.11379
G1 X163.733 Y151.314 E0.12540
G1 X162.924 Y151.413 E0.15216
G1 X162.577 Y151.387 E0.16360
G1 X161.777 Y151.155 E0.19095
G1 X161.457 Y150.985 E0.20283
G1 X160.776 Y150.407 E0.23217
G1 X160.549 Y150.112 E0.24440
G1 X160.180 Y149.308 E0.27345
G1 X160.097 Y148.952 E0.28545
G1 X160.096 Y148.081 E0.31404
G1 X160.165 Y147.733 E0.32571
G1 X160.505 Y146.959 E0.35349
G1 X160.714 Y146.664 E0.36536
G1 X161.380 Y146.068 E0.39470
G1 X161.687 Y145.883 E0.40648
G1 X162.477 Y145.633 E0.43367
G1 X162.832 Y145.586 E0.44545
G1 X163.681 Y145.680 E0.47350
G1 X164.024 Y145.773 E0.48517
G1 X164.745 Y146.196 E0.51262
G1 X165.019 Y146.405 E0.52392
G1 X165.658 Y147.302 E0.56011
G1 X165.904 Y148.432 E0.59808
G1 X165.532 Y148.494 F7800.000
G1 F1200.000
G1 X165.331 Y149.487 E0.63136
G1 X164.774 Y150.294 E0.66356
G1 X164.563 Y150.475 E0.67267
G1 X163.911 Y150.857 E0.69748
G1 X163.650 Y150.944 E0.70655
G1 X162.915 Y151.034 E0.73084
G1 X162.644 Y151.013 E0.73978
G1 X161.919 Y150.804 E0.76455
G1 X161.670 Y150.672 E0.77381
G1 X161.050 Y150.145 E0.80051
G1 X160.873 Y149.916 E0.81002
G1 X160.538 Y149.186 E0.83641
G1 X160.474 Y148.909 E0.84574
G1 X160.473 Y148.118 E0.87170
G1 X160.527 Y147.847 E0.88078
G1 X160.835 Y147.145 E0.90594
G1 X160.997 Y146.916 E0.91516
G1 X161.605 Y146.372 E0.94194
G1 X161.843 Y146.229 E0.95108
G1 X162.559 Y146.003 E0.97574
G1 X162.837 Y145.966 E0.98493
G1 X163.611 Y146.051 E1.01051
G1 X163.877 Y146.123 E1.01956
G1 X164.534 Y146.510 E1.04460
G1 X164.745 Y146.670 E1.05329
G1 X165.306 Y147.458 E1.08506
G1 X165.519 Y148.435 E1.11790
G1 X165.146 Y148.497 F7800.000
G1 F1200.000
G1 X164.976 Y149.337 E1.14604
G1 X164.491 Y150.040 E1.17409
G1 X164.344 Y150.167 E1.18048
G1 X163.755 Y150.511 E1.20290
G1 X163.566 Y150.575 E1.20943
G1 X162.906 Y150.655 E1.23125
G1 X162.711 Y150.640 E1.23768
G1 X162.062 Y150.453 E1.25988
G1 X161.883 Y150.358 E1.26651
G1 X161.325 Y149.883 E1.29058
G1 X161.198 Y149.720 E1.29737
G1 X160.897 Y149.063 E1.32109
G1 X160.851 Y148.865 E1.32777
G1 X160.850 Y148.155 E1.35110
G1 X160.888 Y147.961 E1.35759
G1 X161.165 Y147.332 E1.38013
G1 X161.280 Y147.169 E1.38670
G1 X161.830 Y146.677 E1.41091
G1 X161.999 Y146.575 E1.41742
G1 X162.642 Y146.372 E1.43954
G1 X162.841 Y146.346 E1.44614
G1 X163.541 Y146.423 E1.46925
G1 X163.729 Y146.474 E1.47568
G1 X164.324 Y146.823 E1.49831
G1 X164.471 Y146.935 E1.50438
G1 X164.954 Y147.614 E1.53175
G1 X165.134 Y148.438 E1.55944
G1 X165.493 Y148.696 F7800.000
G10 ; retract
G92 E0
G1 X164.141 Y171.844
G11 ; unretract
G92 E0
G1 F1200.000
G1 X161.341 Y170.228 E0.10617
G1 X161.341 Y152.336 E0.69372
G1 X153.513 Y152.336 E0.95078
G1 X153.513 Y158.524 E1.15398
G1 X144.397 Y153.260 E1.49967
G1 X141.340 Y150.707 E1.63047
G1 X139.278 Y147.088 E1.76724
G1 X138.641 Y143.296 E1.89351
G1 X138.641 Y134.575 E2.17988
G1 X139.023 Y131.614 E2.27791
G1 X140.094 Y128.972 E2.37151
G1 X141.886 Y126.578 E2.46973
G1 X144.272 Y124.718 E2.56908
G1 X146.808 Y123.628 E2.65973
G1 X149.899 Y123.177 E2.76231
G1 X152.733 Y123.514 E2.85603
G1 X155.056 Y124.373 E2.93734
G1 X156.860 Y125.499 E3.00719
G1 X158.919 Y127.318 E3.09743
G1 X165.441 Y120.797 E3.40028
G1 X165.445 Y117.980 E3.49277
G1 X164.999 Y114.567 E3.60582
G1 X163.732 Y110.521 E3.74506
G1 X161.657 Y106.714 E3.88744
G1 X161.520 Y106.505 E3.89562
G1 X159.549 Y104.051 E3.99899
G1 X158.075 Y102.605 E4.06680
G1 X156.587 Y101.375 E4.13019
G1 X155.858 Y101.151 E4.15523
G1 X156.684 Y100.663 E4.18674
G1 X156.943 Y100.443 E4.19788
G1 X157.564 Y99.568 E4.23313
G1 X157.818 Y98.383 E4.27292
G1 X157.571 Y97.211 E4.31224
G1 X156.957 Y96.327 E4.34758
G1 X156.682 Y96.102 E4.35926
G1 X155.919 Y95.656 E4.38828
G1 X155.572 Y95.554 E4.40016
G1 X154.741 Y95.466 E4.42759
G1 X154.385 Y95.512 E4.43938
G1 X153.563 Y95.778 E4.46776
G1 X153.241 Y95.972 E4.48009
G1 X152.599 Y96.565 E4.50879
G1 X152.388 Y96.865 E4.52084
G1 X152.059 Y97.642 E4.54853
G1 X151.990 Y97.986 E4.56007
G1 X151.995 Y98.814 E4.58726
G1 X152.069 Y99.153 E4.59866
G1 X152.399 Y99.916 E4.62596
G1 X152.714 Y100.353 E4.64363
G1 X151.013 Y100.091 E4.70015
G1 X150.352 Y100.028 E4.72193
G1 X150.690 Y99.647 E4.73865
G1 X151.265 Y98.704 E4.77488
G1 X151.405 Y98.409 E4.78564
G1 X151.659 Y97.003 E4.83253
G1 X151.433 Y95.665 E4.87709
G1 X151.313 Y95.410 E4.88633
G1 X150.808 Y94.496 E4.92064
G1 X150.617 Y94.271 E4.93034
G1 X149.814 Y93.555 E4.96566
G1 X149.709 Y93.490 E4.96972
G1 X149.768 Y93.319 E4.97565
G1 X150.271 Y93.374 E4.99226
G1 X151.750 Y93.657 E5.04170
G1 X153.430 Y94.131 E5.09903
G1 X154.719 Y94.613 E5.14422
G1 X155.808 Y95.108 E5.18351
G1 X156.958 Y95.725 E5.22637
G1 X158.173 Y96.497 E5.27364
G1 X159.458 Y97.469 E5.32654
G1 X160.553 Y98.444 E5.37468
G1 X161.913 Y99.905 E5.44022
G1 X163.379 Y101.912 E5.52185
G1 X164.875 Y104.797 E5.62856
G1 X166.015 Y108.690 E5.76177
G1 X166.313 Y112.052 E5.87260
G1 X166.313 Y176.836 E8.00000
