; generated by PrusaSlicer 2.2.0+win64 on 2020-10-21 at 17:16:13 UTC

; 

; external perimeters extrusion width = 0.45mm
; perimeters extrusion width = 0.45mm
; infill extrusion width = 0.45mm
; solid infill extrusion width = 0.45mm
; top infill extrusion width = 0.40mm
; support material extrusion width = 0.35mm
; first layer extrusion width = 0.42mm

M107
M190 S60 ; set bed temperature and wait for it to be reached
M104 S200 ; set temperature
G28 ; home all axes
;G29 S1
G1 Z5 F5000 ;E lift nozzle
M109 S200 ; set temperature and wait for it to be reached
G21 ; set units to millimeters
G90 ; use absolute coordinates
M82 ; use absolute distances for extrusion
G92 E0
; Filament gcode
G29 S1 P"heightmap_pla.csv"
M109 S200; heat nozzle to first_layer_temperature
G92 E0 ; reset extruder

G1 X0 Y200 Z0.2 F3000.0 ; move to start-line position2
G1 X0 Y20 Z0.2 F1500.0 E15 ; draw 1st line
G1 X0.5 Y20 Z0.2 F5000.0 ; move to side a little
G1 X0.5 Y200 Z0.2F1500.0 E30 ; draw 2nd line
G92 E0 ; reset extruder
G1 Z1.0 F1000 ; move z up little to prevent scratching of surface
G1 Z0.200 F7800.000
G10 ; retract
G92 E0
G1 X119.261 Y99.576
G11 ; unretract
G92 E0
G1 F1200.000
G1 X120.385 Y98.399 E0.04989
G1 X121.639 Y97.492 E0.09732
G1 X123.027 Y96.698 E0.14633
G1 X123.924 Y96.288 E0.17656
G1 X133.755 Y92.631 E0.49804
G1 X149.277 Y88.682 E0.98895
G1 X150.284 Y88.504 E1.02030
G1 X151.312 Y88.444 E1.05187
G1 X155.452 Y88.726 E1.17904
G1 X171.681 Y90.126 E1.67830
G1 X172.700 Y90.278 E1.70988
G1 X174.255 Y90.759 E1.75976
G1 X184.879 Y95.261 E2.11341
G1 X185.724 Y95.678 E2.14230
G1 X188.370 Y97.544 E2.24152
G1 X189.894 Y98.901 E2.30408
G1 X190.745 Y99.864 E2.34348
G1 X200.353 Y113.066 E2.84392
G1 X201.166 Y114.642 E2.89827
G1 X201.862 Y116.903 E2.97079
G1 X204.249 Y128.074 E3.32090
G1 X204.418 Y129.678 E3.37034
G1 X203.329 Y143.191 E3.78585
G1 X202.933 Y145.331 E3.85254
G1 X202.250 Y147.046 E3.90912
G1 X193.171 Y162.618 E4.46162
G1 X192.113 Y164.175 E4.51932
G1 X191.098 Y165.265 E4.56496
G1 X188.749 Y167.119 E4.65667
G1 X187.506 Y167.872 E4.70120
G1 X172.856 Y174.612 E5.19547
G1 X171.237 Y175.155 E5.24781
G1 X169.221 Y175.501 E5.31051
G1 X165.878 Y175.853 E5.41354
G1 X151.656 Y176.550 E5.84995
G1 X150.226 Y176.491 E5.89382
G1 X149.277 Y176.320 E5.92338
G1 X133.818 Y172.587 E6.41081
G1 X126.001 Y169.552 E6.66780
G1 X123.450 Y168.258 E6.75550
G1 X122.328 Y167.519 E6.79668
G1 X118.854 Y164.316 E6.94151
G1 X117.973 Y163.330 E6.98202
G1 X117.269 Y162.255 E7.02141
G1 X111.586 Y151.815 E7.38573
G1 X111.125 Y150.781 E7.42043
G1 X110.801 Y149.696 E7.45514
G1 X110.582 Y147.944 E7.50926
G1 X109.923 Y117.369 E8.44658
G1 X110.016 Y115.934 E8.49066
G1 X110.435 Y113.721 E8.55968
G1 X110.753 Y112.811 E8.58924
G1 X111.169 Y111.941 E8.61879
G1 X117.949 Y101.477 E9.00096
G1 X119.226 Y99.625 E9.06990
G1 X119.536 Y99.838 F7800.000
G1 F1200.000
G1 X120.626 Y98.689 E9.11845
G1 X121.835 Y97.814 E9.16420
G1 X123.203 Y97.032 E9.21249
G1 X124.074 Y96.634 E9.24184
G1 X133.852 Y92.995 E9.56162
G1 X149.360 Y89.050 E10.05207
G1 X150.331 Y88.878 E10.08230
G1 X151.316 Y88.821 E10.11253
G1 X155.422 Y89.102 E10.23868
G1 X171.648 Y90.501 E10.73785
G1 X172.624 Y90.647 E10.76808
G1 X174.111 Y91.107 E10.81578
G1 X185.526 Y95.999 E11.19644
G1 X188.122 Y97.828 E11.29376
G1 X189.622 Y99.162 E11.35529
G1 X190.441 Y100.088 E11.39317
G1 X200.031 Y113.262 E11.89261
G1 X200.817 Y114.784 E11.94512
G1 X201.493 Y116.979 E12.01552
G1 X203.879 Y128.143 E12.36541
G1 X204.041 Y129.670 E12.41246
G1 X202.957 Y143.131 E12.82637
G1 X202.575 Y145.208 E12.89110
G1 X201.922 Y146.860 E12.94557
G1 X192.855 Y162.412 E13.49734
G1 X191.824 Y163.932 E13.55360
G1 X190.853 Y164.979 E13.59738
G1 X188.534 Y166.809 E13.68792
G1 X187.337 Y167.535 E13.73082
G1 X172.707 Y174.266 E14.22441
G1 X171.164 Y174.785 E14.27430
G1 X169.173 Y175.127 E14.33623
G1 X165.860 Y175.476 E14.43832
G1 X151.646 Y176.173 E14.87449
G1 X150.269 Y176.116 E14.91674
G1 X149.362 Y175.952 E14.94500
G1 X133.921 Y172.224 E15.43185
G1 X126.164 Y169.211 E15.68692
G1 X123.640 Y167.933 E15.77362
G1 X122.560 Y167.222 E15.81325
G1 X119.119 Y164.047 E15.95676
G1 X118.271 Y163.099 E15.99573
G1 X117.598 Y162.071 E16.03339
G1 X111.922 Y151.643 E16.39729
G1 X111.482 Y150.658 E16.43036
G1 X111.172 Y149.625 E16.46343
G1 X110.959 Y147.932 E16.51572
G1 X110.300 Y117.369 E17.45268
G1 X110.389 Y115.993 E17.49493
G1 X110.795 Y113.831 E17.56236
G1 X111.102 Y112.954 E17.59084
G1 X111.507 Y112.110 E17.61953
G1 X118.260 Y101.689 E18.00014
G1 X119.502 Y99.888 E18.06720
G10 ; retract
G92 E0
G1 X151.279 Y156.661 F7800.000
G11 ; unretract
G92 E0
G1 F1200.000
G1 X147.856 Y155.337 E0.11249
G1 X143.286 Y159.973 E0.31203
G1 X142.363 Y160.502 E0.34462
G1 X136.233 Y162.918 E0.54659
G1 X130.869 Y160.770 E0.72369
G1 X129.866 Y160.415 E0.75630
G1 X128.371 Y159.641 E0.80791
G1 X125.859 Y157.288 E0.91339
G1 X121.337 Y148.850 E1.20681
G1 X120.536 Y147.488 E1.25526
G1 X121.789 Y136.933 E1.58101
G1 X121.852 Y136.882 E1.58350
G1 X128.384 Y134.047 E1.80175
G1 X130.192 Y133.363 E1.86102
G1 X130.225 Y131.790 E1.90923
G1 X128.340 Y130.987 E1.97200
G1 X120.312 Y124.324 E2.29177
G1 X120.140 Y124.058 E2.30148
G1 X119.844 Y117.284 E2.50931
G1 X119.956 Y116.577 E2.53124
G1 X126.221 Y106.949 E2.88332
G1 X126.938 Y105.885 E2.92265
G1 X127.609 Y105.498 E2.94637
G1 X136.316 Y102.233 E3.23139
G1 X136.963 Y102.299 E3.25132
G1 X142.615 Y104.570 E3.43802
G1 X143.145 Y104.894 E3.45704
G1 X147.634 Y109.479 E3.65373
G1 X150.303 Y108.850 E3.73778
G1 X151.163 Y108.385 E3.76775
G1 X151.222 Y107.190 E3.80441
G1 X152.323 Y98.440 E4.07471
G1 X154.614 Y98.609 E4.14513
G1 X170.616 Y99.989 E4.63740
G1 X180.855 Y104.328 E4.97825
G1 X182.036 Y105.178 E5.02282
G1 X182.909 Y105.949 E5.05855
G1 X191.965 Y118.376 E5.52982
G1 X192.203 Y119.157 E5.55484
G1 X194.490 Y129.863 E5.89040
G1 X193.486 Y141.963 E6.26251
G1 X193.388 Y142.570 E6.28139
G1 X184.715 Y157.434 E6.80883
G1 X184.356 Y157.974 E6.82872
G1 X182.996 Y159.034 E6.88157
G1 X168.934 Y165.500 E7.35594
G1 X167.935 Y165.666 E7.38699
G1 X165.236 Y165.955 E7.47018
G1 X152.324 Y166.587 E7.86640
G1 X151.263 Y157.965 E8.13266
G1 X151.279 Y156.721 E8.17078
G1 X150.899 Y156.918 F7800.000
G1 F1200.000
G1 X147.951 Y155.778 E8.26766
G1 X143.518 Y160.274 E8.46120
G1 X142.527 Y160.843 E8.49621
G1 X136.232 Y163.324 E8.70361
G1 X130.736 Y161.123 E8.88507
G1 X129.716 Y160.762 E8.91824
G1 X128.151 Y159.952 E8.97224
G1 X125.556 Y157.521 E9.08122
G1 X121.008 Y149.035 E9.37631
G1 X120.147 Y147.569 E9.42843
G1 X121.360 Y137.446 E9.74093
G1 X121.429 Y136.740 E9.76266
G1 X121.654 Y136.557 E9.77157
G1 X128.242 Y133.698 E9.99167
G1 X129.821 Y133.100 E10.04341
G1 X129.842 Y132.037 E10.07600
G1 X128.142 Y131.312 E10.13266
G1 X120.027 Y124.578 E10.45587
G1 X119.768 Y124.177 E10.47050
G1 X119.466 Y117.262 E10.68264
G1 X119.596 Y116.439 E10.70819
G1 X125.907 Y106.741 E11.06282
G1 X126.674 Y105.602 E11.10492
G1 X127.447 Y105.156 E11.13227
G1 X136.266 Y101.849 E11.42094
G1 X137.054 Y101.929 E11.44521
G1 X142.785 Y104.232 E11.63451
G1 X143.381 Y104.596 E11.65594
G1 X147.755 Y109.063 E11.84754
G1 X150.168 Y108.494 E11.92353
G1 X150.797 Y108.154 E11.94546
G1 X150.846 Y107.158 E11.97604
G1 X151.994 Y98.038 E12.25776
G1 X154.644 Y98.233 E12.33922
G1 X170.708 Y99.618 E12.83340
G1 X181.041 Y103.997 E13.17738
G1 X182.271 Y104.883 E13.22383
G1 X183.189 Y105.694 E13.26139
G1 X192.307 Y118.205 E13.73587
G1 X192.568 Y119.062 E13.76333
G1 X194.871 Y129.839 E14.10109
G1 X193.861 Y142.008 E14.47536
G1 X193.749 Y142.700 E14.49683
G1 X185.035 Y157.633 E15.02676
G1 X184.637 Y158.234 E15.04886
G1 X183.193 Y159.358 E15.10494
G1 X169.046 Y165.863 E15.58219
G1 X167.986 Y166.040 E15.61513
G1 X165.265 Y166.331 E15.69899
G1 X151.993 Y166.981 E16.10627
G1 X150.885 Y157.986 E16.38406
G1 X150.898 Y156.978 E16.41494
G1 X150.519 Y157.175 F7800.000
G1 F1200.000
G1 X148.046 Y156.219 E16.49620
G1 X143.750 Y160.576 E16.68373
G1 X142.691 Y161.183 E16.72116
G1 X136.231 Y163.730 E16.93400
G1 X130.603 Y161.476 E17.11981
G1 X129.565 Y161.109 E17.15354
G1 X127.931 Y160.263 E17.20994
G1 X125.253 Y157.754 E17.32241
G1 X120.679 Y149.220 E17.61919
G1 X119.757 Y147.650 E17.67498
G1 X120.985 Y137.405 E17.99125
G1 X121.069 Y136.547 E18.01767
G1 X121.457 Y136.231 E18.03299
G1 X128.100 Y133.348 E18.25496
G1 X129.449 Y132.838 E18.29916
G1 X129.460 Y132.284 E18.31614
G1 X127.944 Y131.637 E18.36667
G1 X119.742 Y124.831 E18.69333
G1 X119.395 Y124.296 E18.71287
G1 X119.087 Y117.241 E18.92932
G1 X119.237 Y116.300 E18.95850
G1 X125.592 Y106.532 E19.31569
G1 X126.410 Y105.319 E19.36055
G1 X127.286 Y104.814 E19.39153
G1 X136.216 Y101.465 E19.68385
G1 X137.145 Y101.559 E19.71247
G1 X142.955 Y103.893 E19.90437
G1 X143.618 Y104.299 E19.92820
G1 X147.875 Y108.648 E20.11471
G1 X150.032 Y108.139 E20.18264
G1 X150.431 Y107.924 E20.19652
G1 X150.470 Y107.125 E20.22103
G1 X151.664 Y97.636 E20.51417
G1 X154.674 Y97.857 E20.60668
G1 X170.800 Y99.248 E21.10276
G1 X181.228 Y103.666 E21.44987
G1 X182.507 Y104.588 E21.49819
G1 X183.470 Y105.439 E21.53759
G1 X192.649 Y118.034 E22.01528
G1 X192.934 Y118.968 E22.04518
G1 X195.251 Y129.815 E22.38514
G1 X194.236 Y142.054 E22.76156
G1 X194.110 Y142.829 E22.78563
G1 X185.355 Y157.832 E23.31804
G1 X184.917 Y158.494 E23.34236
G1 X183.390 Y159.682 E23.40167
G1 X169.157 Y166.227 E23.88181
G1 X168.037 Y166.414 E23.91663
G1 X165.294 Y166.707 E24.00116
G1 X151.661 Y167.375 E24.41952
G1 X150.508 Y158.006 E24.70882
G1 X150.518 Y157.235 E24.73245
G1 X150.602 Y156.784 F7800.000
G10 ; retract
G92 E0
G1 X153.074 Y166.456
G11 ; unretract
G92 E0
G1 F1200.000
G1 X152.504 Y165.886 E0.02481
G1 X152.429 Y165.276 E0.04374
G1 X153.422 Y166.269 E0.08699
G1 X153.933 Y166.244 E0.10272
G1 X152.353 Y164.665 E0.17147
G1 X152.278 Y164.054 E0.19041
G1 X154.443 Y166.219 E0.28464
G1 X154.954 Y166.194 E0.30037
G1 X152.203 Y163.444 E0.42010
G1 X152.128 Y162.833 E0.43904
G1 X155.464 Y166.169 E0.58427
G1 X155.975 Y166.144 E0.60000
G1 X152.053 Y162.222 E0.77071
G1 X151.978 Y161.611 E0.78965
G1 X156.485 Y166.119 E0.98586
G1 X156.996 Y166.094 E1.00159
G1 X151.902 Y161.001 E1.22330
G1 X151.827 Y160.390 E1.24224
G1 X157.506 Y166.069 E1.48943
G1 X158.017 Y166.044 E1.50517
G1 X151.752 Y159.779 E1.77786
G1 X151.677 Y159.169 E1.79679
G1 X158.527 Y166.019 E2.09498
G1 X159.038 Y165.994 E2.11071
G1 X151.602 Y158.558 E2.43439
G1 X151.527 Y157.948 E2.45331
G1 X159.548 Y165.969 E2.80247
G1 X160.059 Y165.944 E2.81820
G1 X151.534 Y157.419 E3.18928
G1 X151.540 Y156.890 E3.20556
G1 X160.731 Y166.081 E3.60562
G10 ; retract
G92 E0
G1 X164.305 Y165.906 F7800.000
G11 ; unretract
G92 E0
G1 F1200.000
G1 X130.483 Y132.084 E1.47222
G1 X130.472 Y132.608 E1.48837
G1 X163.632 Y165.769 E2.93178
G1 X163.122 Y165.794 E2.94752
G1 X130.461 Y133.133 E4.36917
G1 X130.453 Y133.546 E4.38189
G1 X130.370 Y133.578 E4.38461
G1 X162.611 Y165.819 E5.78802
G1 X162.101 Y165.844 E5.80375
G1 X129.981 Y133.725 E7.20184
G1 X129.593 Y133.872 E7.21463
G1 X161.590 Y165.869 E8.60740
G1 X161.080 Y165.894 E8.62314
G1 X129.205 Y134.019 E10.01060
G1 X128.816 Y134.166 E10.02338
G1 X150.870 Y156.220 E10.98334
G1 X149.997 Y155.882 E11.01217
G1 X128.430 Y134.315 E11.95092
G1 X128.056 Y134.477 E11.96345
G1 X149.123 Y155.544 E12.88044
G1 X148.250 Y155.206 E12.90927
G1 X127.683 Y134.639 E13.80448
G1 X127.310 Y134.801 E13.81701
G1 X147.664 Y155.156 E14.70300
G1 X147.398 Y155.426 E14.71466
G1 X126.936 Y134.963 E15.60533
G1 X126.563 Y135.125 E15.61786
G1 X147.132 Y155.695 E16.51322
G1 X146.866 Y155.965 E16.52487
G1 X126.189 Y135.288 E17.42491
G1 X125.816 Y135.450 E17.43744
G1 X146.601 Y156.235 E18.34216
G1 X146.335 Y156.504 E18.35382
G1 X125.442 Y135.612 E19.26323
G1 X125.069 Y135.774 E19.27576
G1 X146.069 Y156.774 E20.18985
G1 X145.803 Y157.044 E20.20150
G1 X124.695 Y135.936 E21.12028
G1 X124.322 Y136.098 E21.13281
G1 X145.537 Y157.313 E22.05627
G1 X145.271 Y157.583 E22.06792
G1 X123.948 Y136.260 E22.99607
G1 X123.575 Y136.422 E23.00860
G1 X145.006 Y157.853 E23.94142
G1 X144.740 Y158.122 E23.95308
G1 X123.202 Y136.584 E24.89059
G1 X122.828 Y136.746 E24.90312
G1 X144.474 Y158.392 E25.84531
G1 X144.208 Y158.662 E25.85697
G1 X122.455 Y136.908 E26.80385
G1 X122.081 Y137.070 E26.81638
G1 X143.942 Y158.931 E27.76794
G1 X143.676 Y159.201 E27.77959
G1 X121.986 Y137.511 E28.72373
G1 X121.929 Y137.989 E28.73857
G1 X143.410 Y159.471 E29.67360
G1 X143.145 Y159.740 E29.68526
G1 X121.872 Y138.468 E30.61120
G1 X121.816 Y138.947 E30.62603
G1 X142.810 Y159.941 E31.53989
G1 X142.470 Y160.137 E31.55197
G1 X121.759 Y139.425 E32.45348
G1 X121.702 Y139.904 E32.46832
G1 X142.114 Y160.316 E33.35682
G1 X141.730 Y160.468 E33.36953
G1 X121.645 Y140.383 E34.24378
G1 X121.588 Y140.862 E34.25862
G1 X141.346 Y160.619 E35.11863
G1 X140.962 Y160.771 E35.13134
G1 X121.531 Y141.340 E35.97710
G1 X121.475 Y141.819 E35.99194
G1 X140.578 Y160.922 E36.82346
G1 X140.194 Y161.073 E36.83616
G1 X121.418 Y142.298 E37.65343
G1 X121.361 Y142.776 E37.66827
G1 X139.810 Y161.225 E38.47130
G1 X139.425 Y161.376 E38.48400
G1 X121.304 Y143.255 E39.27278
G1 X121.247 Y143.734 E39.28762
G1 X139.041 Y161.528 E40.06215
G1 X138.657 Y161.679 E40.07486
G1 X121.191 Y144.212 E40.83514
G1 X121.134 Y144.691 E40.84998
G1 X138.273 Y161.830 E41.59602
G1 X137.889 Y161.982 E41.60872
G1 X121.077 Y145.170 E42.34051
G1 X121.020 Y145.649 E42.35535
G1 X137.505 Y162.133 E43.07290
G1 X137.121 Y162.285 E43.08560
G1 X120.963 Y146.127 E43.78890
G1 X120.907 Y146.606 E43.80374
G1 X136.737 Y162.436 E44.49279
G1 X136.353 Y162.588 E44.50550
G1 X120.850 Y147.085 E45.18030
G1 X120.809 Y147.430 E45.19102
G1 X121.021 Y147.791 E45.20389
G1 X135.617 Y162.387 E45.83924
G1 X134.723 Y162.029 E45.86886
G1 X121.742 Y149.048 E46.43389
G1 X122.361 Y150.202 E46.47419
G1 X133.830 Y161.672 E46.97342
G1 X132.937 Y161.314 E47.00304
G1 X122.979 Y151.356 E47.43646
G1 X123.598 Y152.510 E47.47676
G1 X132.043 Y160.956 E47.84437
G1 X131.150 Y160.598 E47.87399
G1 X124.216 Y153.664 E48.17580
G1 X124.835 Y154.818 E48.21609
G1 X130.308 Y160.291 E48.45433
G1 X129.971 Y160.172 E48.46531
G1 X129.312 Y159.831 E48.48815
G1 X125.038 Y155.557 E48.67419
G10 ; retract
G92 E0
G1 X120.206 Y123.414 F7800.000
G11 ; unretract
G92 E0
G1 F1200.000
G1 X123.023 Y126.231 E0.12264
G1 X126.172 Y128.844 E0.24855
G1 X120.359 Y123.031 E0.50155
G1 X120.335 Y122.471 E0.51880
G1 X128.729 Y130.865 E0.88417
G1 X129.662 Y131.263 E0.91540
G1 X120.310 Y121.911 E1.32246
G1 X120.286 Y121.351 E1.33971
G1 X164.653 Y165.719 E3.27095
G1 X165.164 Y165.694 E3.28668
G1 X120.261 Y120.791 E5.24119
G1 X120.237 Y120.231 E5.25845
G1 X165.650 Y165.645 E7.23520
G1 X166.134 Y165.593 E7.25018
G1 X120.212 Y119.671 E9.24906
G1 X120.188 Y119.112 E9.26631
G1 X166.618 Y165.542 E11.28731
G1 X167.102 Y165.490 E11.30229
G1 X120.164 Y118.552 E13.34542
G1 X120.139 Y117.992 E13.36267
G1 X167.586 Y165.438 E15.42792
G1 X168.061 Y165.378 E15.44266
G1 X120.115 Y117.432 E17.52965
G1 X120.109 Y117.299 E17.53374
G1 X120.165 Y116.946 E17.54473
G1 X168.520 Y165.301 E19.64951
G1 X168.856 Y165.245 E19.66000
G1 X168.954 Y165.200 E19.66333
G1 X120.295 Y116.541 E21.78136
G1 X120.506 Y116.216 E21.79327
G1 X169.321 Y165.031 E23.91809
G1 X169.688 Y164.863 E23.93051
G1 X120.717 Y115.892 E26.06210
G1 X120.928 Y115.567 E26.07402
G1 X170.055 Y164.694 E28.21239
G1 X170.421 Y164.525 E28.22482
G1 X121.139 Y115.243 E30.36996
G1 X121.350 Y114.919 E30.38188
G1 X170.788 Y164.357 E32.53381
G1 X171.155 Y164.188 E32.54623
G1 X121.561 Y114.594 E34.70494
G1 X121.772 Y114.270 E34.71685
G1 X171.522 Y164.019 E36.88234
G1 X171.889 Y163.851 E36.89477
G1 X121.984 Y113.945 E39.06703
G1 X122.195 Y113.621 E39.07895
G1 X172.256 Y163.682 E41.25799
G1 X172.622 Y163.513 E41.27042
G1 X122.406 Y113.297 E43.45624
G1 X122.617 Y112.972 E43.46816
G1 X172.989 Y163.345 E45.66076
G1 X173.356 Y163.176 E45.67319
G1 X122.828 Y112.648 E47.87257
G1 X123.039 Y112.323 E47.88448
G1 X173.723 Y163.007 E50.09064
G1 X174.090 Y162.838 E50.10307
G1 X123.250 Y111.999 E52.31601
G1 X123.461 Y111.674 E52.32792
G1 X174.457 Y162.670 E54.54764
G1 X174.823 Y162.501 E54.56007
G1 X123.672 Y111.350 E56.78657
G1 X123.883 Y111.026 E56.79848
