; generated by PrusaSlicer 2.2.0+win64 on 2020-10-21 at 17:06:03 UTC

; 

; external perimeters extrusion width = 0.45mm
; perimeters extrusion width = 0.45mm
; infill extrusion width = 0.45mm
; solid infill extrusion width = 0.45mm
; top infill extrusion width = 0.40mm
; support material extrusion width = 0.35mm
; first layer extrusion width = 0.42mm

M107
M190 S60 ; set bed temperature and wait for it to be reached
M104 S200 ; set temperature
G28 ; home all axes
;G29 S1
G1 Z5 F5000 ;E lift nozzle
M109 S200 ; set temperature and wait for it to be reached
G21 ; set units to millimeters
G90 ; use absolute coordinates
M82 ; use absolute distances for extrusion
G92 E0
; Filament gcode
G29 S1 P"heightmap_pla.csv"
M109 S200; heat nozzle to first_layer_temperature
G92 E0 ; reset extruder

G1 X0 Y200 Z0.2 F3000.0 ; move to start-line position2
G1 X0 Y20 Z0.2 F1500.0 E15 ; draw 1st line
G1 X0.5 Y20 Z0.2 F5000.0 ; move to side a little
G1 X0.5 Y200 Z0.2F1500.0 E30 ; draw 2nd line
G92 E0 ; reset extruder
G1 Z1.0 F1000 ; move z up little to prevent scratching of surface
G1 Z0.200 F7800.000
G10 ; retract
G92 E0
G1 X117.228 Y93.077
G11 ; unretract
G92 E0
G1 F1200.000
G1 X118.594 Y92.153 E0.05056
G1 X120.109 Y91.501 E0.10112
G1 X149.466 Y84.238 E1.02801
G1 X150.624 Y84.157 E1.06361
G1 X173.814 Y84.157 E1.77438
G1 X175.421 Y84.306 E1.82383
G1 X176.972 Y84.747 E1.87327
G1 X188.888 Y89.489 E2.26633
G1 X190.015 Y90.076 E2.30528
G1 X191.050 Y90.825 E2.34445
G1 X197.903 Y97.633 E2.64052
G1 X198.703 Y98.564 E2.67812
G1 X203.802 Y106.210 E2.95982
G1 X206.552 Y111.669 E3.14716
G1 X207.096 Y113.234 E3.19795
G1 X209.281 Y122.435 E3.48781
G1 X209.460 Y123.531 E3.52184
G1 X209.502 Y141.506 E4.07277
G1 X209.294 Y143.326 E4.12890
G1 X207.085 Y152.406 E4.41533
G1 X206.706 Y153.558 E4.45250
G1 X206.169 Y154.653 E4.48988
G1 X200.697 Y162.738 E4.78909
G1 X200.085 Y163.454 E4.81798
G1 X198.522 Y165.021 E4.88580
G1 X197.642 Y165.789 E4.92162
G1 X181.539 Y177.205 E5.52661
G1 X180.389 Y177.917 E5.56806
G1 X178.935 Y178.597 E5.61728
G1 X171.352 Y181.170 E5.86270
G1 X170.353 Y181.354 E5.89383
G1 X169.340 Y181.422 E5.92495
G1 X148.474 Y181.422 E6.56448
G1 X147.540 Y181.370 E6.59314
G1 X123.273 Y176.614 E7.35108
G1 X121.950 Y176.220 E7.39338
G1 X120.706 Y175.623 E7.43568
G1 X119.206 Y174.523 E7.49270
G1 X113.299 Y168.869 E7.74332
G1 X112.127 Y167.644 E7.79527
G1 X111.296 Y166.452 E7.83980
G1 X110.550 Y164.788 E7.89571
G1 X106.208 Y151.149 E8.33440
G1 X105.969 Y150.207 E8.36419
G1 X105.805 Y148.559 E8.41497
G1 X105.807 Y109.932 E9.59887
G1 X105.901 Y108.840 E9.63245
G1 X106.133 Y107.762 E9.66626
G1 X106.496 Y106.728 E9.69984
G1 X106.988 Y105.741 E9.73365
G1 X111.625 Y98.831 E9.98870
G1 X112.404 Y97.855 E10.02698
G1 X117.185 Y93.120 E10.23322
G1 X117.448 Y93.385 F7800.000
G1 F1200.000
G1 X118.771 Y92.486 E10.28225
G1 X120.234 Y91.857 E10.33105
G1 X149.515 Y84.612 E11.25558
G1 X150.627 Y84.534 E11.28974
G1 X173.814 Y84.534 E12.00042
G1 X175.350 Y84.676 E12.04770
G1 X176.841 Y85.100 E12.09519
G1 X188.730 Y89.832 E12.48739
G1 X189.820 Y90.399 E12.52505
G1 X190.815 Y91.120 E12.56272
G1 X197.631 Y97.893 E12.85724
G1 X198.399 Y98.788 E12.89337
G1 X203.479 Y106.405 E13.17401
G1 X206.211 Y111.832 E13.36022
G1 X206.730 Y113.322 E13.40858
G1 X208.912 Y122.514 E13.69814
G1 X209.085 Y123.572 E13.73099
G1 X209.125 Y141.497 E14.28040
G1 X208.926 Y143.242 E14.33422
G1 X206.719 Y152.315 E14.62043
G1 X206.352 Y153.428 E14.65634
G1 X205.834 Y154.479 E14.69225
G1 X200.400 Y162.506 E14.98934
G1 X198.256 Y164.754 E15.08457
G1 X197.411 Y165.492 E15.11895
G1 X181.327 Y176.893 E15.72319
G1 X180.204 Y177.589 E15.76369
G1 X178.807 Y178.242 E15.81096
G1 X171.259 Y180.804 E16.05527
G1 X170.303 Y180.981 E16.08506
G1 X169.334 Y181.045 E16.11485
G1 X147.583 Y180.995 E16.78151
G1 X123.356 Y176.247 E17.53818
G1 X122.082 Y175.867 E17.57891
G1 X120.885 Y175.291 E17.61963
G1 X119.453 Y174.239 E17.67410
G1 X113.556 Y168.593 E17.92433
G1 X112.416 Y167.401 E17.97488
G1 X111.616 Y166.252 E18.01778
G1 X110.908 Y164.669 E18.07095
G1 X106.568 Y151.035 E18.50947
G1 X106.337 Y150.128 E18.53817
G1 X106.182 Y148.558 E18.58653
G1 X106.184 Y109.951 E19.76982
G1 X106.274 Y108.897 E19.80224
G1 X106.496 Y107.863 E19.83465
G1 X106.850 Y106.859 E19.86729
G1 X107.324 Y105.913 E19.89970
G1 X111.933 Y99.049 E20.15311
G1 X112.671 Y98.121 E20.18946
G1 X117.406 Y93.427 E20.39379
G10 ; retract
G92 E0
G1 X131.258 Y100.805 F7800.000
G11 ; unretract
G92 E0
G1 F1200.000
G1 X131.258 Y109.165 E0.25624
G1 X130.720 Y109.703 E0.27959
G1 X130.720 Y100.506 E0.56149
G1 X130.181 Y99.967 E0.58484
G1 X130.181 Y110.242 E0.89976
G1 X130.046 Y110.377 E0.90560
G1 X129.642 Y110.377 E0.91798
G1 X129.642 Y99.833 E1.24116
G1 X129.103 Y99.833 E1.25767
G1 X129.103 Y111.319 E1.60974
G1 X128.565 Y111.858 E1.63309
G1 X128.565 Y99.833 E2.00167
G1 X128.026 Y99.833 E2.01818
G1 X128.026 Y112.397 E2.40328
G1 X127.739 Y112.684 E2.41571
G1 X127.487 Y112.684 E2.42343
G1 X127.487 Y99.833 E2.81732
G1 X126.949 Y99.833 E2.83383
G1 X126.949 Y115.781 E3.32265
G1 X126.410 Y116.320 E3.34600
G1 X126.410 Y99.833 E3.85134
G1 X125.871 Y99.833 E3.86785
G1 X125.871 Y116.859 E4.38969
G1 X125.432 Y117.298 E4.40873
G1 X125.333 Y117.298 E4.41178
G1 X125.333 Y99.833 E4.94709
G1 X124.794 Y99.833 E4.96360
G1 X124.794 Y117.298 E5.49891
G1 X124.772 Y117.298 E5.49959
G1 X124.772 Y117.958 E5.51982
G1 X124.255 Y118.475 E5.54221
G1 X124.255 Y99.833 E6.11359
G1 X123.717 Y99.833 E6.13010
G1 X123.717 Y166.667 E8.17857
G1 X124.255 Y167.206 E8.20192
G1 X124.255 Y119.420 E9.66657
G1 X124.772 Y119.936 E9.68896
G1 X124.772 Y122.903 E9.77990
G1 X124.794 Y122.903 E9.78058
G1 X124.794 Y167.745 E11.15496
G1 X125.103 Y168.054 E11.16835
G1 X125.333 Y168.054 E11.17539
G1 X125.333 Y122.903 E12.55924
G1 X125.871 Y122.903 E12.57575
G1 X125.871 Y168.054 E13.95959
G1 X126.410 Y168.054 E13.97610
G1 X126.410 Y122.903 E15.35995
G1 X126.949 Y122.903 E15.37646
G1 X126.949 Y168.054 E16.76031
G1 X127.487 Y168.054 E16.77682
G1 X127.487 Y122.903 E18.16066
G1 X127.739 Y122.903 E18.16838
G1 X128.026 Y123.190 E18.18082
G1 X128.026 Y168.054 E19.55587
G1 X128.565 Y168.054 E19.57238
G1 X128.565 Y123.729 E20.93092
G1 X129.103 Y124.268 E20.95427
G1 X129.103 Y168.054 E22.29630
G1 X129.642 Y168.054 E22.31281
G1 X129.642 Y125.210 E23.62595
G1 X130.046 Y125.210 E23.63833
G1 X130.181 Y125.345 E23.64417
G1 X130.181 Y168.054 E24.95317
G1 X130.720 Y168.054 E24.96968
G1 X130.720 Y125.884 E26.26218
G1 X131.258 Y126.422 E26.28553
G1 X131.258 Y168.054 E27.56152
G1 X131.797 Y168.054 E27.57803
G1 X131.797 Y127.517 E28.82045
G1 X132.336 Y127.517 E28.83696
G1 X132.336 Y168.054 E30.07939
G1 X132.874 Y168.054 E30.09590
G1 X132.874 Y128.038 E31.32236
G1 X133.413 Y128.577 E31.34570
G1 X133.413 Y168.054 E32.55565
G1 X133.952 Y168.054 E32.57216
G1 X133.952 Y129.116 E33.76560
G1 X134.000 Y129.164 E33.76770
G1 X134.000 Y139.053 E34.07078
G1 X134.490 Y139.053 E34.08580
G1 X134.490 Y168.054 E34.97467
G1 X135.029 Y168.054 E34.99118
G1 X135.029 Y139.422 E35.86875
G1 X135.568 Y139.960 E35.89210
G1 X135.568 Y168.054 E36.75316
G1 X136.106 Y168.054 E36.76967
G1 X136.106 Y140.499 E37.61421
G1 X136.307 Y140.700 E37.62292
G1 X136.307 Y143.667 E37.71387
G1 X136.645 Y143.667 E37.72422
G1 X136.645 Y168.054 E38.47166
G1 X137.184 Y168.054 E38.48818
G1 X137.184 Y143.883 E39.22899
G1 X137.722 Y144.422 E39.25234
G1 X137.722 Y168.054 E39.97664
G1 X138.261 Y168.054 E39.99315
G1 X138.261 Y144.961 E40.70095
G1 X138.614 Y145.314 E40.71626
G1 X138.614 Y148.281 E40.80721
G1 X138.800 Y148.281 E40.81289
G1 X138.800 Y168.054 E41.41891
G1 X139.339 Y168.054 E41.43542
G1 X139.339 Y148.345 E42.03948
G1 X139.877 Y148.884 E42.06283
G1 X139.877 Y168.054 E42.65038
G1 X140.416 Y168.054 E42.66689
G1 X140.416 Y149.423 E43.23793
G1 X140.921 Y149.928 E43.25985
G1 X140.921 Y150.588 E43.28008
G1 X140.955 Y150.588 E43.28110
G1 X140.955 Y168.054 E43.81641
G1 X141.493 Y168.054 E43.83292
G1 X141.493 Y150.588 E44.36823
G1 X141.582 Y150.588 E44.37094
G1 X142.032 Y151.039 E44.39046
G1 X142.032 Y167.603 E44.89816
G1 X142.571 Y167.065 E44.92151
G1 X142.571 Y151.577 E45.39620
G1 X143.109 Y151.039 E45.41955
G1 X143.109 Y166.526 E45.89424
G1 X143.229 Y166.407 E45.89940
G1 X143.229 Y165.747 E45.91964
G1 X143.648 Y165.747 E45.93249
G1 X143.648 Y150.588 E46.39709
G1 X144.187 Y150.588 E46.41360
G1 X144.187 Y165.747 E46.87820
G1 X144.725 Y165.747 E46.89471
G1 X144.725 Y150.588 E47.35931
G1 X145.264 Y150.588 E47.37582
G1 X145.264 Y165.747 E47.84042
G1 X145.803 Y165.747 E47.85693
G1 X145.803 Y150.588 E48.32153
G1 X146.341 Y150.588 E48.33804
G1 X146.341 Y165.601 E48.79818
G1 X146.527 Y165.416 E48.80622
G1 X146.527 Y171.021 E48.97802
G1 X146.880 Y171.374 E48.99333
G1 X146.880 Y150.588 E49.63041
G1 X147.419 Y150.588 E49.64692
G1 X147.419 Y171.913 E50.30052
G1 X147.957 Y172.452 E50.32387
G1 X147.957 Y150.588 E50.99397
G1 X148.496 Y150.588 E51.01048
G1 X148.496 Y172.668 E51.68722
G1 X149.035 Y172.668 E51.70373
G1 X149.035 Y150.588 E52.38046
G1 X149.574 Y150.588 E52.39697
G1 X149.574 Y172.668 E53.07370
G1 X150.112 Y172.668 E53.09021
G1 X150.112 Y150.588 E53.76695
G1 X150.651 Y150.588 E53.78346
G1 X150.651 Y172.668 E54.46019
G1 X151.190 Y172.668 E54.47670
G1 X151.190 Y150.968 E55.14180
G1 X151.728 Y151.507 E55.16515
G1 X151.728 Y172.668 E55.81374
G1 X152.267 Y172.668 E55.83025
G1 X152.267 Y152.045 E56.46232
G1 X152.457 Y152.235 E56.47055
G1 X152.457 Y152.895 E56.49079
G1 X152.806 Y152.895 E56.50148
G1 X152.806 Y172.668 E57.10750
G1 X153.344 Y172.668 E57.12401
G1 X153.344 Y153.123 E57.72307
G1 X153.883 Y153.661 E57.74642
G1 X153.883 Y172.668 E58.32896
G1 X154.422 Y172.668 E58.34547
G1 X154.422 Y154.200 E58.91151
G1 X154.764 Y154.542 E58.92634
G1 X154.764 Y162.124 E59.15871
G1 X154.960 Y162.124 E59.16473
G1 X154.960 Y172.668 E59.48790
G1 X155.499 Y172.668 E59.50442
G1 X155.499 Y162.124 E59.82759
G1 X156.038 Y162.124 E59.84410
G1 X156.038 Y172.668 E60.16728
G1 X156.576 Y172.668 E60.18379
G1 X156.576 Y162.124 E60.50697
G1 X157.115 Y162.124 E60.52348
G1 X157.115 Y172.668 E60.84665
G1 X157.654 Y172.668 E60.86316
G1 X157.654 Y162.124 E61.18634
G1 X158.192 Y162.124 E61.20285
G1 X158.192 Y172.668 E61.52603
G1 X158.731 Y172.668 E61.54254
G1 X158.731 Y162.124 E61.86571
G1 X159.270 Y162.124 E61.88222
G1 X159.270 Y172.668 E62.20540
G1 X159.809 Y172.668 E62.22191
G1 X159.809 Y162.124 E62.54509
G1 X160.347 Y162.124 E62.56160
G1 X160.347 Y172.668 E62.88478
G1 X160.886 Y172.668 E62.90129
G1 X160.886 Y162.124 E63.22446
G1 X161.425 Y162.124 E63.24097
G1 X161.425 Y172.668 E63.56415
G1 X161.963 Y172.668 E63.58066
G1 X161.963 Y162.124 E63.90384
G1 X162.502 Y162.124 E63.92035
G1 X162.502 Y172.668 E64.24352
G1 X163.041 Y172.668 E64.26003
G1 X163.041 Y162.124 E64.58321
G1 X163.579 Y162.124 E64.59972
G1 X163.579 Y172.668 E64.92290
G1 X164.118 Y172.668 E64.93941
G1 X164.118 Y162.124 E65.26259
G1 X164.657 Y162.124 E65.27910
G1 X164.657 Y172.668 E65.60227
G1 X165.195 Y172.668 E65.61878
G1 X165.195 Y161.252 E65.96869
G1 X165.734 Y160.713 E65.99204
G1 X165.734 Y172.668 E66.35846
G1 X166.273 Y172.668 E66.37497
G1 X166.273 Y160.174 E66.75789
G1 X166.630 Y159.817 E66.77339
G1 X166.811 Y159.817 E66.77894
G1 X166.811 Y172.668 E67.17283
G1 X167.350 Y172.668 E67.18934
G1 X167.350 Y159.817 E67.58323
G1 X167.889 Y159.817 E67.59974
G1 X167.889 Y172.668 E67.99363
G1 X168.427 Y172.668 E68.01014
G1 X168.427 Y159.817 E68.40403
G1 X168.966 Y159.817 E68.42054
G1 X168.966 Y172.668 E68.81443
G1 X169.267 Y172.668 E68.82363
G1 X169.505 Y172.430 E68.83396
G1 X169.505 Y159.817 E69.22055
G1 X170.044 Y159.817 E69.23706
G1 X170.044 Y171.891 E69.60713
G1 X170.582 Y171.352 E69.63048
G1 X170.582 Y159.817 E69.98405
G1 X171.121 Y159.817 E70.00056
G1 X171.121 Y170.361 E70.32373
G1 X171.660 Y170.361 E70.34024
G1 X171.660 Y159.817 E70.66342
G1 X172.198 Y159.817 E70.67993
G1 X172.198 Y170.361 E71.00311
G1 X172.737 Y170.361 E71.01962
G1 X172.737 Y159.817 E71.34279
G1 X173.276 Y159.817 E71.35930
G1 X173.276 Y170.361 E71.68248
G1 X173.814 Y170.361 E71.69899
G1 X173.814 Y159.817 E72.02217
G1 X174.353 Y159.817 E72.03868
G1 X174.353 Y170.361 E72.36186
G1 X174.892 Y170.361 E72.37837
G1 X174.892 Y159.817 E72.70154
G1 X175.430 Y159.817 E72.71805
G1 X175.430 Y170.361 E73.04123
G1 X175.969 Y170.361 E73.05774
G1 X175.969 Y159.817 E73.38092
G1 X176.188 Y159.817 E73.38762
G1 X176.508 Y160.137 E73.40149
G1 X176.508 Y170.041 E73.70505
G1 X177.046 Y169.502 E73.72840
G1 X177.046 Y160.675 E73.99895
G1 X177.585 Y161.214 E74.02230
G1 X177.585 Y169.203 E74.26717
G10 ; retract
G92 E0
G1 X200.749 Y141.426 F7800.000
G11 ; unretract
G92 E0
G1 F1200.000
G1 X200.749 Y124.393 E0.52204
G1 X200.210 Y123.855 E0.54539
G1 X200.210 Y141.724 E1.09309
G1 X199.671 Y142.263 E1.11644
G1 X199.671 Y123.316 E1.69717
G1 X199.259 Y122.903 E1.71506
G1 X199.133 Y122.903 E1.71892
G1 X199.133 Y142.676 E2.32494
G1 X198.598 Y142.676 E2.34131
G1 X198.594 Y150.262 E2.57382
G1 X198.594 Y115.317 E3.64486
G1 X198.055 Y114.779 E3.66821
G1 X198.055 Y150.800 E4.77226
G1 X197.516 Y151.339 E4.79561
G1 X197.516 Y114.240 E5.93269
G1 X196.978 Y113.701 E5.95604
G1 X196.978 Y151.878 E7.12614
G1 X196.952 Y151.904 E7.12728
G1 X196.439 Y151.904 E7.14299
G1 X196.439 Y113.675 E8.31470
G1 X196.291 Y113.675 E8.31923
G1 X196.291 Y110.708 E8.41017
G1 X195.900 Y110.317 E8.42712
G1 X195.900 Y152.955 E9.73397
G1 X195.362 Y153.494 E9.75732
G1 X195.362 Y109.778 E11.09720
G1 X194.823 Y109.239 E11.12054
G1 X194.823 Y154.033 E12.49344
G1 X194.644 Y154.211 E12.50118
G1 X194.284 Y154.211 E12.51222
G1 X194.284 Y109.061 E13.89607
G1 X193.984 Y109.061 E13.90526
G1 X193.984 Y108.401 E13.92550
G1 X193.746 Y108.162 E13.93584
G1 X193.746 Y157.417 E15.44549
G1 X193.207 Y157.956 E15.46884
G1 X193.207 Y107.623 E17.01151
G1 X192.668 Y107.085 E17.03486
G1 X192.668 Y158.494 E18.61055
G1 X192.337 Y158.825 E18.62490
G1 X192.130 Y158.825 E18.63126
G1 X192.130 Y106.754 E20.22724
G1 X191.677 Y106.754 E20.24111
G1 X191.677 Y103.787 E20.33205
G1 X191.591 Y103.700 E20.33579
G1 X191.591 Y158.825 E22.02536
G1 X191.052 Y158.825 E22.04187
G1 X191.052 Y103.162 E23.74795
G1 X190.514 Y102.623 E23.77130
G1 X190.514 Y158.825 E25.49389
G1 X189.975 Y158.825 E25.51040
G1 X189.975 Y102.140 E27.24780
G1 X189.436 Y102.140 E27.26431
G1 X189.436 Y158.825 E29.00172
G1 X188.898 Y158.825 E29.01823
G1 X188.898 Y101.007 E30.79035
G1 X188.359 Y100.468 E30.81370
G1 X188.359 Y158.825 E32.60233
G1 X187.820 Y158.825 E32.61884
G1 X187.820 Y99.930 E34.42398
G1 X187.723 Y99.833 E34.42818
G1 X187.281 Y99.833 E34.44172
G1 X187.281 Y158.713 E36.24638
G1 X186.743 Y158.174 E36.26973
G1 X186.743 Y98.852 E38.08794
G1 X186.204 Y98.313 E38.11128
G1 X186.204 Y157.635 E39.92949
G1 X185.747 Y157.178 E39.94929
G1 X185.747 Y156.518 E39.96952
G1 X185.665 Y156.518 E39.97203
G1 X185.665 Y97.775 E41.77250
G1 X185.416 Y97.525 E41.78331
G1 X185.127 Y97.525 E41.79218
G1 X185.127 Y156.518 E43.60029
G1 X184.588 Y156.518 E43.61680
G1 X184.588 Y97.525 E45.42492
G1 X184.049 Y97.525 E45.44143
G1 X184.049 Y156.518 E47.24954
G1 X183.511 Y156.518 E47.26605
G1 X183.511 Y97.525 E49.07417
G1 X182.972 Y97.525 E49.09068
G1 X182.972 Y156.518 E50.89879
G1 X182.780 Y156.518 E50.90468
G1 X182.433 Y156.172 E50.91970
G1 X182.433 Y97.525 E52.71719
G1 X181.895 Y97.525 E52.73370
G1 X181.895 Y155.633 E54.51468
G1 X181.356 Y155.094 E54.53803
G1 X181.356 Y97.525 E56.30250
G1 X180.817 Y97.525 E56.31901
G1 X180.817 Y151.904 E57.98570
G1 X180.473 Y151.904 E57.99626
G1 X180.279 Y151.710 E58.00468
G1 X180.279 Y97.525 E59.66542
G1 X180.142 Y97.525 E59.66961
G1 X180.142 Y96.865 E59.68984
G1 X179.740 Y96.463 E59.70727
G1 X179.740 Y151.171 E61.38404
G1 X179.201 Y150.632 E61.40739
G1 X179.201 Y95.925 E63.08417
G1 X178.663 Y95.386 E63.10752
G1 X178.663 Y147.290 E64.69836
G1 X178.166 Y147.290 E64.71359
G1 X178.124 Y147.248 E64.71541
G1 X178.124 Y95.218 E66.31010
G1 X177.585 Y95.218 E66.32661
G1 X177.585 Y146.709 E67.90479
G1 X177.046 Y146.171 E67.92814
G1 X177.046 Y95.218 E69.48982
G1 X176.508 Y95.218 E69.50633
G1 X176.508 Y144.983 E71.03160
G1 X175.969 Y144.983 E71.04811
G1 X175.969 Y95.218 E72.57338
G1 X175.528 Y95.218 E72.58691
