; generated by PrusaSlicer 2.2.0+win64 on 2020-05-24 at 20:04:35 UTC

; 

; external perimeters extrusion width = 0.45mm
; perimeters extrusion width = 0.45mm
; infill extrusion width = 0.45mm
; solid infill extrusion width = 0.45mm
; top infill extrusion width = 0.40mm
; first layer extrusion width = 0.42mm

M107
M190 S60 ; set bed temperature and wait for it to be reached
M104 S245 ; set temperature
G28 ; home all axes
G29 S1
G1 Z5 F5000 ;E lift nozzle
M109 S245 ; set temperature and wait for it to be reached
G21 ; set units to millimeters
G90 ; use absolute coordinates
M82 ; use absolute distances for extrusion
G92 E0
; Filament gcode
G1 Z0.200 F6000.000
G10 ; retract
G92 E0
G1 X134.259 Y120.769
G11 ; unretract
G92 E0
G1 F1200.000
G1 X135.300 Y119.706 E0.04884
G1 X136.207 Y118.923 E0.08820
G1 X137.330 Y118.115 E0.13362
G1 X138.346 Y117.532 E0.17209
G1 X139.433 Y117.051 E0.21113
G1 X140.548 Y116.697 E0.24955
G1 X141.743 Y116.463 E0.28954
G1 X142.930 Y116.371 E0.32863
G1 X156.884 Y116.338 E0.78685
G1 X158.511 Y116.470 E0.84047
G1 X160.206 Y116.891 E0.89782
G1 X161.660 Y117.503 E0.94961
G1 X163.156 Y118.409 E1.00704
G1 X164.626 Y119.606 E1.06931
G1 X165.969 Y121.011 E1.13313
G1 X166.847 Y122.338 E1.18538
G1 X167.468 Y123.795 E1.23740
G1 X167.753 Y124.936 E1.27602
G1 X168.807 Y131.240 E1.48590
G1 X168.846 Y138.081 E1.71056
G1 X168.740 Y139.253 E1.74918
G1 X167.715 Y145.231 E1.94838
G1 X167.399 Y146.379 E1.98747
G1 X166.929 Y147.473 E2.02657
G1 X166.324 Y148.482 E2.06518
G1 X165.590 Y149.400 E2.10380
G1 X164.512 Y150.467 E2.15360
G1 X163.236 Y151.503 E2.20758
G1 X162.182 Y152.181 E2.24871
G1 X160.897 Y152.816 E2.29580
G1 X159.690 Y153.238 E2.33779
G1 X158.585 Y153.486 E2.37497
G1 X156.970 Y153.630 E2.42821
G1 X142.700 Y153.652 E2.89683
G1 X141.636 Y153.553 E2.93190
G1 X140.506 Y153.324 E2.96978
G1 X139.419 Y152.975 E3.00725
G1 X138.352 Y152.503 E3.04559
G1 X137.292 Y151.893 E3.08574
G1 X136.089 Y151.016 E3.13462
G1 X135.199 Y150.228 E3.17364
G1 X134.086 Y149.057 E3.22670
G1 X133.435 Y148.149 E3.26340
G1 X132.906 Y147.165 E3.30010
G1 X132.506 Y146.121 E3.33680
G1 X132.242 Y145.035 E3.37350
G1 X131.181 Y138.629 E3.58673
G1 X131.158 Y131.794 E3.81117
G1 X131.263 Y130.726 E3.84643
G1 X132.289 Y124.747 E4.04563
G1 X132.604 Y123.614 E4.08425
G1 X133.071 Y122.527 E4.12310
G1 X133.614 Y121.609 E4.15813
G1 X134.223 Y120.817 E4.19094
G1 X133.983 Y121.737 F6000.000
G1 F1200.000
G1 X134.649 Y120.897 E4.22614
G1 X135.678 Y119.870 E4.27387
G1 X136.767 Y118.966 E4.32036
G1 X137.700 Y118.326 E4.35749
G1 X138.664 Y117.794 E4.39365
G1 X139.642 Y117.376 E4.42858
G1 X140.687 Y117.051 E4.46452
G1 X141.818 Y116.833 E4.50234
G1 X142.954 Y116.748 E4.53975
G1 X156.884 Y116.715 E4.99721
G1 X158.454 Y116.842 E5.04891
G1 X160.097 Y117.253 E5.10455
G1 X161.499 Y117.844 E5.15449
G1 X162.955 Y118.728 E5.21044
G1 X164.374 Y119.886 E5.27059
G1 X165.688 Y121.263 E5.33309
G1 X166.531 Y122.546 E5.38350
G1 X167.123 Y123.955 E5.43368
G1 X167.383 Y125.009 E5.46935
G1 X168.433 Y131.290 E5.67845
G1 X168.468 Y138.084 E5.90157
G1 X168.367 Y139.201 E5.93841
G1 X167.343 Y145.169 E6.13723
G1 X167.032 Y146.284 E6.17524
G1 X166.571 Y147.346 E6.21325
G1 X165.988 Y148.304 E6.25009
G1 X165.283 Y149.176 E6.28692
G1 X164.243 Y150.202 E6.33489
G1 X162.987 Y151.217 E6.38793
G1 X161.979 Y151.862 E6.42721
G1 X160.722 Y152.481 E6.47323
G1 X159.553 Y152.885 E6.51383
G1 X158.482 Y153.121 E6.54984
G1 X156.956 Y153.253 E6.60016
G1 X142.716 Y153.275 E7.06779
G1 X141.684 Y153.179 E7.10181
G1 X140.589 Y152.956 E7.13850
G1 X139.530 Y152.614 E7.17505
G1 X138.481 Y152.145 E7.21278
G1 X137.482 Y151.566 E7.25072
G1 X136.312 Y150.711 E7.29828
G1 X135.456 Y149.952 E7.33587
G1 X134.366 Y148.804 E7.38785
G1 X133.740 Y147.925 E7.42328
G1 X133.235 Y146.979 E7.45848
G1 X132.853 Y145.970 E7.49391
G1 X132.606 Y144.927 E7.52913
G1 X131.557 Y138.596 E7.73984
G1 X131.535 Y131.808 E7.96274
G1 X131.636 Y130.784 E7.99653
G1 X132.660 Y124.817 E8.19535
G1 X132.970 Y123.709 E8.23313
G1 X133.429 Y122.654 E8.27090
G1 X133.952 Y121.788 E8.30413
G10 ; retract
G92 E0
G1 X149.997 Y144.513 F6000.000
G11 ; unretract
G92 E0
G1 F1200.000
G1 X149.399 Y146.017 E0.05316
G1 X148.879 Y146.694 E0.08119
G1 X148.119 Y147.440 E0.11615
G1 X147.536 Y147.940 E0.14139
G1 X146.605 Y148.601 E0.17888
G1 X145.915 Y148.976 E0.20466
G1 X145.339 Y149.219 E0.22518
G1 X144.778 Y149.400 E0.24455
G1 X143.891 Y149.574 E0.27423
G1 X143.012 Y149.621 E0.30312
G1 X142.151 Y149.545 E0.33152
G1 X141.253 Y149.334 E0.36181
G1 X140.352 Y148.983 E0.39356
G1 X139.504 Y148.511 E0.42543
G1 X138.580 Y147.834 E0.46305
G1 X138.064 Y147.378 E0.48566
G1 X137.270 Y146.593 E0.52232
G1 X136.476 Y145.241 E0.57380
G1 X136.189 Y144.164 E0.61040
G1 X136.156 Y143.420 E0.63487
G1 X135.752 Y141.408 E0.70224
G1 X135.222 Y138.442 E0.80119
G1 X135.193 Y137.051 E0.84688
G1 X135.224 Y135.952 E0.88300
G1 X135.481 Y135.036 E0.91423
G1 X135.381 Y134.798 E0.92272
G1 X135.215 Y133.980 E0.95010
G1 X135.203 Y131.802 E1.02163
G1 X135.749 Y128.639 E1.12706
G1 X136.164 Y126.571 E1.19629
G1 X136.218 Y125.668 E1.22601
G1 X136.882 Y123.962 E1.28611
G1 X137.372 Y123.337 E1.31219
G1 X138.123 Y122.599 E1.34677
G1 X138.594 Y122.188 E1.36730
G1 X139.085 Y121.805 E1.38775
G1 X139.765 Y121.359 E1.41446
G1 X140.537 Y120.965 E1.44293
G1 X141.546 Y120.613 E1.47800
G1 X142.531 Y120.439 E1.51086
G1 X143.522 Y120.424 E1.54340
G1 X144.372 Y120.537 E1.57157
G1 X145.185 Y120.758 E1.59923
G1 X146.002 Y121.098 E1.62830
G1 X146.795 Y121.552 E1.65830
G1 X147.658 Y122.188 E1.69349
G1 X148.192 Y122.659 E1.71688
G1 X149.050 Y123.529 E1.75700
G1 X149.818 Y124.899 E1.80859
G1 X149.883 Y125.104 E1.81564
G1 X150.150 Y125.112 E1.82442
G1 X150.550 Y124.075 E1.86090
G1 X151.122 Y123.306 E1.89240
G1 X151.890 Y122.551 E1.92775
G1 X152.344 Y122.156 E1.94752
G1 X152.835 Y121.774 E1.96796
G1 X153.535 Y121.316 E1.99541
G1 X154.316 Y120.922 E2.02414
G1 X155.392 Y120.557 E2.06147
G1 X156.344 Y120.402 E2.09315
G1 X157.300 Y120.394 E2.12452
G1 X158.096 Y120.500 E2.15092
G1 X158.885 Y120.709 E2.17772
G1 X159.706 Y121.044 E2.20683
G1 X160.563 Y121.532 E2.23921
G1 X161.421 Y122.167 E2.27427
G1 X161.942 Y122.628 E2.29711
G1 X162.860 Y123.577 E2.34046
G1 X163.527 Y124.765 E2.38520
G1 X163.811 Y125.836 E2.42159
G1 X163.844 Y126.580 E2.44605
G1 X164.248 Y128.593 E2.51345
G1 X164.790 Y131.680 E2.61638
G1 X164.807 Y132.916 E2.65699
G1 X164.776 Y134.005 E2.69275
G1 X164.495 Y134.970 E2.72574
G1 X164.625 Y135.272 E2.73656
G1 X164.786 Y136.083 E2.76371
G1 X164.808 Y138.062 E2.82871
G1 X164.251 Y141.360 E2.93854
G1 X163.836 Y143.427 E3.00774
G1 X163.782 Y144.329 E3.03741
G1 X163.119 Y146.038 E3.09762
G1 X162.628 Y146.663 E3.12372
G1 X161.870 Y147.408 E3.15862
G1 X161.314 Y147.886 E3.18271
G1 X160.313 Y148.595 E3.22297
G1 X159.679 Y148.938 E3.24666
G1 X159.103 Y149.182 E3.26721
G1 X158.505 Y149.374 E3.28784
G1 X157.695 Y149.535 E3.31493
G1 X156.792 Y149.590 E3.34465
G1 X155.900 Y149.513 E3.37404
G1 X155.026 Y149.309 E3.40351
G1 X154.100 Y148.951 E3.43613
G1 X153.233 Y148.466 E3.46874
G1 X152.343 Y147.813 E3.50499
G1 X151.808 Y147.341 E3.52842
G1 X150.950 Y146.471 E3.56854
G1 X150.182 Y145.101 E3.62012
G1 X150.015 Y144.571 E3.63838
G1 X150.158 Y142.718 F6000.000
G1 F1200.000
G1 X149.848 Y142.718 E3.64856
G1 X149.711 Y143.412 E3.67179
G1 X149.645 Y144.371 E3.70333
G1 X149.083 Y145.810 E3.75407
G1 X148.605 Y146.435 E3.77990
G1 X147.860 Y147.167 E3.81421
G1 X147.310 Y147.638 E3.83797
G1 X146.396 Y148.287 E3.87479
G1 X145.744 Y148.640 E3.89915
G1 X145.215 Y148.863 E3.91799
G1 X144.693 Y149.032 E3.93601
G1 X143.857 Y149.198 E3.96400
G1 X143.006 Y149.244 E3.99199
G1 X142.198 Y149.170 E4.01861
G1 X141.377 Y148.978 E4.04631
G1 X140.501 Y148.637 E4.07719
G1 X139.698 Y148.188 E4.10739
G1 X138.823 Y147.545 E4.14304
G1 X138.325 Y147.106 E4.16485
G1 X137.553 Y146.343 E4.20049
G1 X136.816 Y145.075 E4.24866
G1 X136.559 Y144.090 E4.28208
G1 X136.532 Y143.376 E4.30555
G1 X136.123 Y141.340 E4.37373
G1 X135.596 Y138.391 E4.47212
G1 X135.570 Y137.048 E4.51621
G1 X135.600 Y135.987 E4.55109
G1 X135.882 Y135.008 E4.58455
G1 X135.746 Y134.699 E4.59562
G1 X135.592 Y133.959 E4.62045
G1 X135.577 Y131.850 E4.68971
G1 X136.121 Y128.705 E4.79450
G1 X136.539 Y126.620 E4.86433
G1 X136.593 Y125.720 E4.89394
G1 X137.196 Y124.172 E4.94848
G1 X137.645 Y123.597 E4.97245
G1 X138.375 Y122.879 E5.00608
G1 X138.837 Y122.475 E5.02624
G1 X139.310 Y122.108 E5.04591
G1 X139.947 Y121.690 E5.07090
G1 X140.675 Y121.317 E5.09778
G1 X141.627 Y120.981 E5.13093
G1 X142.553 Y120.816 E5.16181
G1 X143.486 Y120.800 E5.19247
G1 X144.310 Y120.909 E5.21975
G1 X145.074 Y121.118 E5.24575
G1 X145.846 Y121.441 E5.27324
G1 X146.580 Y121.862 E5.30103
G1 X147.415 Y122.477 E5.33506
G1 X147.928 Y122.929 E5.35753
G1 X148.763 Y123.775 E5.39657
G1 X149.473 Y125.054 E5.44461
G1 X149.691 Y125.942 E5.47464
G1 X149.719 Y126.656 E5.49810
G1 X149.842 Y127.282 E5.51904
G1 X150.152 Y127.282 E5.52922
G1 X150.289 Y126.588 E5.55245
G1 X150.355 Y125.629 E5.58401
G1 X150.892 Y124.236 E5.63303
G1 X151.396 Y123.565 E5.66058
G1 X152.150 Y122.824 E5.69529
G1 X152.587 Y122.444 E5.71433
G1 X153.048 Y122.085 E5.73350
G1 X153.732 Y121.638 E5.76036
G1 X154.450 Y121.274 E5.78678
G1 X155.469 Y120.926 E5.82214
G1 X156.363 Y120.779 E5.85188
G1 X157.263 Y120.770 E5.88145
G1 X158.034 Y120.872 E5.90700
G1 X158.776 Y121.070 E5.93220
G1 X159.552 Y121.388 E5.95973
G1 X160.348 Y121.842 E5.98983
G1 X161.178 Y122.456 E6.02372
G1 X161.678 Y122.897 E6.04561
G1 X162.543 Y123.783 E6.08630
G1 X163.186 Y124.928 E6.12941
G1 X163.441 Y125.910 E6.16272
G1 X163.468 Y126.624 E6.18620
G1 X163.877 Y128.660 E6.25439
G1 X164.413 Y131.700 E6.35576
G1 X164.430 Y132.918 E6.39573
G1 X164.400 Y133.969 E6.43027
G1 X164.093 Y134.997 E6.46551
G1 X164.260 Y135.369 E6.47891
G1 X164.409 Y136.106 E6.50357
G1 X164.431 Y138.050 E6.56742
G1 X163.879 Y141.294 E6.67549
G1 X163.461 Y143.381 E6.74538
G1 X163.419 Y144.223 E6.77306
G1 X162.804 Y145.828 E6.82951
G1 X162.355 Y146.403 E6.85347
G1 X161.619 Y147.126 E6.88735
G1 X161.088 Y147.584 E6.91036
G1 X160.105 Y148.281 E6.94993
G1 X159.508 Y148.601 E6.97219
G1 X158.978 Y148.826 E6.99108
G1 X158.419 Y149.007 E7.01038
G1 X157.659 Y149.160 E7.03585
G1 X156.810 Y149.213 E7.06377
G1 X155.946 Y149.138 E7.09224
G1 X155.126 Y148.946 E7.11992
G1 X154.249 Y148.604 E7.15081
G1 X153.428 Y148.143 E7.18175
G1 X152.586 Y147.524 E7.21605
G1 X152.072 Y147.071 E7.23855
G1 X151.237 Y146.225 E7.27761
G1 X150.527 Y144.946 E7.32564
G1 X150.309 Y144.058 E7.35568
G1 X150.281 Y143.344 E7.37913
G1 X150.169 Y142.777 E7.39810
G10 ; retract
G92 E0
G1 X150.157 Y140.769 F6000.000
G11 ; unretract
G92 E0
G1 F1200.000
G1 X149.847 Y140.770 E0.01018
G1 X149.336 Y143.365 E0.09705
G1 X149.282 Y144.263 E0.12660
G1 X148.766 Y145.603 E0.17375
G1 X148.331 Y146.175 E0.19735
G1 X147.600 Y146.893 E0.23099
G1 X147.072 Y147.346 E0.25384
G1 X146.187 Y147.973 E0.28943
G1 X145.573 Y148.304 E0.31235
G1 X145.090 Y148.507 E0.32956
G1 X144.608 Y148.665 E0.34622
G1 X143.822 Y148.822 E0.37253
G1 X143.025 Y148.867 E0.39875
G1 X142.270 Y148.800 E0.42363
G1 X141.501 Y148.621 E0.44958
G1 X140.673 Y148.301 E0.47871
G1 X139.892 Y147.865 E0.50808
G1 X139.066 Y147.257 E0.54177
G1 X138.586 Y146.834 E0.56277
G1 X137.836 Y146.093 E0.59739
G1 X137.156 Y144.910 E0.64220
G1 X136.930 Y144.018 E0.67241
G1 X136.907 Y143.333 E0.69494
G1 X136.494 Y141.272 E0.76396
G1 X135.970 Y138.339 E0.86179
G1 X135.947 Y137.046 E0.90426
G1 X135.976 Y136.022 E0.93789
G1 X136.284 Y134.977 E0.97367
G1 X136.110 Y134.599 E0.98737
G1 X135.969 Y133.936 E1.00961
G1 X135.952 Y131.897 E1.07657
G1 X136.492 Y128.772 E1.18071
G1 X136.914 Y126.666 E1.25125
G1 X136.956 Y125.826 E1.27887
G1 X137.511 Y124.381 E1.32968
G1 X137.919 Y123.857 E1.35148
G1 X138.636 Y123.152 E1.38451
G1 X139.073 Y122.769 E1.40360
G1 X139.524 Y122.419 E1.42235
G1 X140.145 Y122.011 E1.44675
G1 X140.835 Y121.658 E1.47220
G1 X141.737 Y121.342 E1.50359
G1 X142.603 Y121.190 E1.53246
G1 X143.478 Y121.177 E1.56119
G1 X144.223 Y121.276 E1.58588
G1 X144.940 Y121.471 E1.61026
G1 X145.689 Y121.785 E1.63694
G1 X146.383 Y122.184 E1.66322
G1 X147.172 Y122.765 E1.69541
G1 X147.665 Y123.198 E1.71695
G1 X148.477 Y124.022 E1.75493
G1 X149.113 Y125.168 E1.79799
G1 X149.320 Y126.013 E1.82654
G1 X149.343 Y126.699 E1.84908
G1 X149.843 Y129.231 E1.93383
G1 X150.153 Y129.230 E1.94401
G1 X150.664 Y126.635 E2.03088
G1 X150.718 Y125.737 E2.06043
G1 X151.234 Y124.397 E2.10758
G1 X151.669 Y123.825 E2.13118
G1 X152.402 Y123.105 E2.16491
G1 X152.823 Y122.738 E2.18326
G1 X153.261 Y122.396 E2.20151
G1 X153.913 Y121.969 E2.22709
G1 X154.586 Y121.626 E2.25189
G1 X155.547 Y121.295 E2.28528
G1 X156.382 Y121.155 E2.31309
G1 X157.228 Y121.145 E2.34085
G1 X157.949 Y121.240 E2.36474
G1 X158.667 Y121.431 E2.38913
G1 X159.397 Y121.732 E2.41506
G1 X160.133 Y122.152 E2.44289
G1 X160.935 Y122.744 E2.47561
G1 X161.414 Y123.167 E2.49661
G1 X162.227 Y123.990 E2.53461
G1 X162.844 Y125.090 E2.57603
G1 X163.070 Y125.982 E2.60622
G1 X163.093 Y126.667 E2.62875
G1 X163.506 Y128.728 E2.69778
G1 X164.036 Y131.721 E2.79758
G1 X164.053 Y132.919 E2.83692
G1 X164.024 Y133.932 E2.87020
G1 X163.689 Y135.026 E2.90778
G1 X163.896 Y135.469 E2.92382
G1 X164.032 Y136.128 E2.94593
G1 X164.054 Y138.037 E3.00860
G1 X163.508 Y141.228 E3.11492
G1 X163.086 Y143.334 E3.18546
G1 X163.044 Y144.174 E3.21307
G1 X162.489 Y145.619 E3.26389
G1 X162.081 Y146.143 E3.28570
G1 X161.359 Y146.853 E3.31896
G1 X160.849 Y147.292 E3.34106
G1 X159.897 Y147.966 E3.37936
G1 X159.338 Y148.265 E3.40017
G1 X158.839 Y148.475 E3.41795
G1 X158.314 Y148.644 E3.43607
G1 X157.598 Y148.787 E3.46006
G1 X156.801 Y148.835 E3.48626
G1 X156.019 Y148.768 E3.51206
G1 X155.250 Y148.589 E3.53798
G1 X154.399 Y148.258 E3.56797
G1 X153.623 Y147.820 E3.59721
G1 X152.829 Y147.236 E3.62960
G1 X152.336 Y146.802 E3.65118
G1 X151.523 Y145.978 E3.68916
G1 X150.887 Y144.832 E3.73222
G1 X150.680 Y143.987 E3.76077
G1 X150.657 Y143.301 E3.78331
G1 X150.168 Y140.828 E3.86609
G10 ; retract
G92 E0
G1 X150.153 Y138.591 F6000.000
G11 ; unretract
G92 E0
G1 F1200.000
G1 X149.837 Y138.592 E0.01040
G1 X149.387 Y141.193 E0.09708
G1 X148.961 Y143.319 E0.16828
G1 X148.919 Y144.157 E0.19583
G1 X148.424 Y145.441 E0.24103
G1 X148.058 Y145.915 E0.26069
G1 X147.340 Y146.620 E0.29373
G1 X146.846 Y147.043 E0.31509
G1 X145.979 Y147.658 E0.35001
G1 X145.418 Y147.960 E0.37092
G1 X144.965 Y148.151 E0.38707
G1 X144.501 Y148.303 E0.40309
G1 X143.762 Y148.450 E0.42785
G1 X143.044 Y148.490 E0.45147
G1 X142.342 Y148.430 E0.47461
G1 X141.624 Y148.265 E0.49880
G1 X140.822 Y147.954 E0.52703
G1 X140.087 Y147.542 E0.55469
G1 X139.309 Y146.968 E0.58644
G1 X138.847 Y146.562 E0.60664
G1 X138.120 Y145.843 E0.64021
G1 X137.497 Y144.748 E0.68160
G1 X137.301 Y143.949 E0.70859
G1 X137.284 Y143.291 E0.73022
G1 X136.865 Y141.203 E0.80014
G1 X136.344 Y138.288 E0.89739
G1 X136.324 Y137.045 E0.93823
G1 X136.352 Y136.059 E0.97061
G1 X136.628 Y135.146 E1.00191
G1 X136.710 Y134.991 E1.00768
G1 X136.473 Y134.495 E1.02574
G1 X136.346 Y133.912 E1.04533
G1 X136.326 Y131.944 E1.10995
G1 X136.863 Y128.839 E1.21345
G1 X137.289 Y126.713 E1.28465
G1 X137.331 Y125.875 E1.31220
G1 X137.826 Y124.590 E1.35740
G1 X138.192 Y124.117 E1.37706
G1 X138.896 Y123.425 E1.40948
G1 X139.310 Y123.063 E1.42751
G1 X139.737 Y122.730 E1.44532
G1 X140.343 Y122.332 E1.46913
G1 X140.972 Y122.010 E1.49232
G1 X141.847 Y121.703 E1.52278
G1 X142.625 Y121.567 E1.54870
G1 X143.443 Y121.553 E1.57557
G1 X144.138 Y121.644 E1.59858
G1 X144.806 Y121.824 E1.62133
G1 X145.512 Y122.118 E1.64643
G1 X146.168 Y122.494 E1.67126
G1 X146.929 Y123.054 E1.70229
G1 X147.402 Y123.470 E1.72297
G1 X148.161 Y124.229 E1.75824
G1 X148.753 Y125.284 E1.79793
G1 X148.949 Y126.082 E1.82494
G1 X148.966 Y126.741 E1.84657
G1 X149.385 Y128.828 E1.91649
G1 X149.847 Y131.409 E2.00258
G1 X150.163 Y131.408 E2.01297
G1 X150.613 Y128.807 E2.09966
G1 X151.039 Y126.681 E2.17086
G1 X151.081 Y125.843 E2.19841
G1 X151.576 Y124.559 E2.24361
G1 X151.942 Y124.085 E2.26326
G1 X152.654 Y123.385 E2.29605
G1 X153.059 Y123.032 E2.31371
G1 X153.487 Y122.698 E2.33152
