; generated by PrusaSlicer 2.2.0+win64 on 2020-10-20 at 19:18:43 UTC

; 

; external perimeters extrusion width = 0.45mm
; perimeters extrusion width = 0.45mm
; infill extrusion width = 0.45mm
; solid infill extrusion width = 0.45mm
; top infill extrusion width = 0.40mm
; first layer extrusion width = 0.42mm

M107
M190 S60 ; set bed temperature and wait for it to be reached
M104 S190 ; set temperature
G28 ; home all axes
;G29 S1
G1 Z5 F5000 ;E lift nozzle
M109 S190 ; set temperature and wait for it to be reached
G21 ; set units to millimeters
G90 ; use absolute coordinates
M82 ; use absolute distances for extrusion
G92 E0
; Filament gcode
G29 S1 P"heightmap_pla.csv"
M109 S190; heat nozzle to first_layer_temperature
G92 E0 ; reset extruder

G1 X0 Y200 Z0.2 F3000.0 ; move to start-line position2
G1 X0 Y20 Z0.2 F1500.0 E15 ; draw 1st line
G1 X0.5 Y20 Z0.2 F5000.0 ; move to side a little
G1 X0.5 Y200 Z0.2F1500.0 E30 ; draw 2nd line
G92 E0 ; reset extruder
G1 Z1.0 F1000 ; move z up little to prevent scratching of surface
G1 Z0.200 F7800.000
G10 ; retract
G92 E0
G1 X140.901 Y140.359
G11 ; unretract
G92 E0
G1 F1200.000
G1 X141.852 Y138.854 E0.05457
G1 X142.544 Y138.071 E0.08659
G1 X143.811 Y136.892 E0.13964
G1 X144.959 Y136.049 E0.18329
G1 X145.978 Y135.457 E0.21943
G1 X147.087 Y134.968 E0.25656
G1 X148.249 Y134.609 E0.29382
G1 X149.424 Y134.395 E0.33044
G1 X150.639 Y134.321 E0.36775
G1 X151.974 Y134.412 E0.40875
G1 X153.294 Y134.681 E0.45005
G1 X154.549 Y135.114 E0.49074
G1 X155.878 Y135.780 E0.53629
G1 X156.954 Y136.498 E0.57594
G1 X158.187 Y137.538 E0.62538
G1 X159.270 Y138.672 E0.67345
G1 X160.071 Y139.814 E0.71620
G1 X160.637 Y140.959 E0.75537
G1 X161.033 Y142.183 E0.79477
G1 X161.981 Y147.655 E0.96499
G1 X162.070 Y148.776 E0.99947
G1 X162.071 Y153.717 E1.15091
G1 X161.965 Y155.071 E1.19254
G1 X160.991 Y160.602 E1.36466
G1 X160.363 Y162.268 E1.41923
G1 X159.416 Y163.767 E1.47358
G1 X158.724 Y164.549 E1.50559
G1 X157.458 Y165.728 E1.55859
G1 X156.309 Y166.572 E1.60230
G1 X155.289 Y167.164 E1.63844
G1 X154.179 Y167.654 E1.67565
G1 X153.018 Y168.012 E1.71288
G1 X151.840 Y168.226 E1.74957
G1 X150.632 Y168.299 E1.78668
G1 X149.297 Y168.209 E1.82766
G1 X147.977 Y167.940 E1.86898
G1 X146.724 Y167.508 E1.90960
G1 X145.390 Y166.840 E1.95531
G1 X144.314 Y166.123 E1.99495
G1 X143.082 Y165.083 E2.04437
G1 X141.998 Y163.948 E2.09246
G1 X141.201 Y162.813 E2.13498
G1 X140.631 Y161.661 E2.17438
G1 X140.235 Y160.438 E2.21377
G1 X139.287 Y154.966 E2.38399
G1 X139.198 Y153.844 E2.41847
G1 X139.197 Y148.903 E2.56992
G1 X139.303 Y147.549 E2.61155
G1 X140.277 Y142.019 E2.78366
G1 X140.880 Y140.415 E2.83617
G1 X141.228 Y140.548 F7800.000
G1 F1200.000
G1 X142.135 Y139.103 E2.88846
G1 X142.807 Y138.342 E2.91956
G1 X144.038 Y137.193 E2.97119
G1 X144.978 Y136.488 E3.00719
G1 X146.137 Y135.799 E3.04853
G1 X147.214 Y135.323 E3.08463
G1 X148.336 Y134.976 E3.12061
G1 X149.474 Y134.769 E3.15607
G1 X150.644 Y134.698 E3.19199
G1 X151.929 Y134.786 E3.23145
G1 X153.208 Y135.048 E3.27149
G1 X154.411 Y135.466 E3.31052
G1 X155.710 Y136.119 E3.35508
G1 X156.741 Y136.810 E3.39311
G1 X157.942 Y137.826 E3.44133
G1 X158.995 Y138.932 E3.48815
G1 X159.770 Y140.046 E3.52974
G1 X160.305 Y141.144 E3.56719
G1 X160.673 Y142.302 E3.60441
G1 X161.612 Y147.734 E3.77339
G1 X161.693 Y148.789 E3.80580
G1 X161.694 Y153.724 E3.95708
G1 X161.592 Y155.021 E3.99692
G1 X160.631 Y160.487 E4.16704
G1 X160.037 Y162.079 E4.21911
G1 X159.133 Y163.517 E4.27118
G1 X158.462 Y164.278 E4.30228
G1 X157.231 Y165.426 E4.35387
G1 X156.291 Y166.132 E4.38990
G1 X155.131 Y166.821 E4.43126
G1 X154.058 Y167.296 E4.46722
G1 X152.937 Y167.643 E4.50317
G1 X151.797 Y167.852 E4.53870
G1 X150.626 Y167.922 E4.57465
G1 X149.343 Y167.835 E4.61409
G1 X148.062 Y167.573 E4.65415
G1 X146.855 Y167.154 E4.69332
G1 X145.558 Y166.502 E4.73781
G1 X144.527 Y165.811 E4.77584
G1 X143.327 Y164.795 E4.82404
G1 X142.273 Y163.689 E4.87087
G1 X141.498 Y162.575 E4.91247
G1 X140.965 Y161.483 E4.94969
G1 X140.595 Y160.319 E4.98714
G1 X139.657 Y154.886 E5.15611
G1 X139.575 Y153.832 E5.18853
G1 X139.575 Y148.903 E5.33958
G1 X139.675 Y147.607 E5.37943
G1 X140.635 Y142.140 E5.54955
G1 X141.207 Y140.605 E5.59978
G10 ; retract
G92 E0
G1 X143.423 Y151.329 F7800.000
G11 ; unretract
G92 E0
G1 F1200.000
G1 X143.257 Y150.474 E0.02668
G1 X143.237 Y148.730 E0.08015
G1 X143.745 Y145.694 E0.17449
G1 X144.043 Y144.207 E0.22098
G1 X144.097 Y143.402 E0.24570
G1 X144.757 Y141.705 E0.30152
G1 X145.246 Y141.080 E0.32582
G1 X145.991 Y140.349 E0.35781
G1 X146.524 Y139.897 E0.37924
G1 X147.486 Y139.234 E0.41504
G1 X148.245 Y138.857 E0.44101
G1 X149.223 Y138.531 E0.47260
G1 X150.148 Y138.382 E0.50132
G1 X151.071 Y138.379 E0.52961
G1 X151.847 Y138.487 E0.55362
G1 X152.602 Y138.690 E0.57760
G1 X154.095 Y139.424 E0.62860
G1 X154.909 Y140.028 E0.65965
G1 X155.379 Y140.443 E0.67886
G1 X156.121 Y141.179 E0.71091
G1 X156.906 Y142.509 E0.75824
G1 X157.199 Y143.587 E0.79247
G1 X157.234 Y144.247 E0.81273
G1 X157.520 Y145.676 E0.85741
G1 X158.000 Y148.360 E0.94098
G1 X158.010 Y150.488 E1.00620
G1 X157.846 Y151.292 E1.03134
G1 X158.011 Y152.146 E1.05802
G1 X158.031 Y153.891 E1.11149
G1 X157.523 Y156.927 E1.20583
G1 X157.225 Y158.414 E1.25232
G1 X157.171 Y159.219 E1.27704
G1 X156.510 Y160.916 E1.33288
G1 X156.021 Y161.542 E1.35722
G1 X155.284 Y162.266 E1.38889
G1 X154.735 Y162.730 E1.41092
G1 X153.837 Y163.355 E1.44444
G1 X153.161 Y163.704 E1.46778
G1 X152.376 Y163.997 E1.49344
G1 X151.419 Y164.206 E1.52347
G1 X150.452 Y164.257 E1.55316
G1 X149.615 Y164.171 E1.57893
G1 X148.788 Y163.966 E1.60506
G1 X147.917 Y163.616 E1.63382
G1 X147.131 Y163.165 E1.66160
G1 X146.360 Y162.594 E1.69102
G1 X145.890 Y162.178 E1.71026
G1 X145.151 Y161.445 E1.74215
G1 X144.393 Y160.187 E1.78716
G1 X144.082 Y159.116 E1.82135
G1 X144.037 Y158.384 E1.84382
G1 X143.748 Y156.944 E1.88883
G1 X143.269 Y154.260 E1.97241
G1 X143.258 Y152.132 E2.03763
G1 X143.411 Y151.387 E2.06092
G1 X143.818 Y151.282 F7800.000
G1 F1200.000
G1 X143.753 Y151.110 E2.06656
G1 X143.634 Y150.455 E2.08697
G1 X143.614 Y148.742 E2.13947
G1 X144.116 Y145.759 E2.23218
G1 X144.418 Y144.253 E2.27926
G1 X144.460 Y143.508 E2.30213
G1 X145.072 Y141.914 E2.35447
G1 X145.519 Y141.340 E2.37677
G1 X146.240 Y140.632 E2.40775
G1 X146.747 Y140.202 E2.42811
G1 X147.666 Y139.565 E2.46239
G1 X148.378 Y139.210 E2.48676
G1 X149.299 Y138.900 E2.51654
G1 X150.165 Y138.759 E2.54345
G1 X151.033 Y138.754 E2.57004
G1 X151.760 Y138.854 E2.59254
G1 X152.486 Y139.050 E2.61559
G1 X153.885 Y139.737 E2.66335
G1 X154.666 Y140.316 E2.69314
G1 X155.117 Y140.714 E2.71160
G1 X155.838 Y141.429 E2.74271
G1 X156.568 Y142.677 E2.78700
G1 X156.829 Y143.663 E2.81827
G1 X156.858 Y144.292 E2.83759
G1 X157.149 Y145.744 E2.88298
G1 X157.625 Y148.411 E2.96599
G1 X157.633 Y150.469 E3.02909
G1 X157.450 Y151.338 E3.05631
G1 X157.515 Y151.510 E3.06194
G1 X157.634 Y152.166 E3.08235
G1 X157.654 Y153.878 E3.13485
G1 X157.152 Y156.861 E3.22756
G1 X156.850 Y158.367 E3.27464
G1 X156.808 Y159.112 E3.29751
G1 X156.196 Y160.707 E3.34987
G1 X155.747 Y161.282 E3.37220
G1 X155.024 Y161.992 E3.40328
G1 X154.512 Y162.426 E3.42386
G1 X153.652 Y163.026 E3.45599
G1 X153.017 Y163.356 E3.47791
G1 X152.282 Y163.632 E3.50200
G1 X151.383 Y163.830 E3.53022
G1 X150.475 Y163.880 E3.55809
G1 X149.692 Y163.801 E3.58220
G1 X148.915 Y163.611 E3.60671
G1 X148.093 Y163.282 E3.63387
G1 X147.346 Y162.856 E3.66022
G1 X146.603 Y162.306 E3.68855
G1 X146.151 Y161.906 E3.70703
G1 X145.433 Y161.194 E3.73802
G1 X144.730 Y160.016 E3.78009
G1 X144.450 Y159.034 E3.81137
G1 X144.412 Y158.337 E3.83277
G1 X144.119 Y156.876 E3.87844
G1 X143.643 Y154.210 E3.96145
G1 X143.635 Y152.151 E4.02455
G1 X143.806 Y151.341 E4.04992
G1 X144.233 Y151.296 F7800.000
G1 F1200.000
G1 X144.120 Y151.020 E4.05908
G1 X144.011 Y150.434 E4.07733
G1 X143.992 Y148.755 E4.12880
G1 X144.487 Y145.825 E4.21987
G1 X144.793 Y144.301 E4.26751
G1 X144.835 Y143.559 E4.29030
G1 X145.387 Y142.123 E4.33745
G1 X145.793 Y141.600 E4.35774
G1 X146.490 Y140.914 E4.38771
G1 X146.970 Y140.506 E4.40702
G1 X147.848 Y139.896 E4.43979
G1 X148.512 Y139.563 E4.46255
G1 X149.376 Y139.270 E4.49053
G1 X150.183 Y139.136 E4.51561
G1 X150.995 Y139.130 E4.54049
G1 X151.697 Y139.226 E4.56219
G1 X152.370 Y139.409 E4.58357
G1 X153.674 Y140.051 E4.62813
G1 X154.423 Y140.604 E4.65665
G1 X154.855 Y140.986 E4.67435
G1 X155.554 Y141.679 E4.70452
G1 X156.228 Y142.842 E4.74572
G1 X156.459 Y143.736 E4.77401
G1 X156.482 Y144.336 E4.79242
G1 X156.778 Y145.813 E4.83857
G1 X157.251 Y148.461 E4.92101
G1 X157.256 Y150.450 E4.98198
G1 X157.106 Y151.152 E5.00398
G1 X157.036 Y151.324 E5.00970
G1 X157.149 Y151.601 E5.01885
G1 X157.257 Y152.186 E5.03711
G1 X157.277 Y153.866 E5.08857
G1 X156.781 Y156.795 E5.17965
G1 X156.475 Y158.319 E5.22728
G1 X156.433 Y159.062 E5.25007
G1 X155.881 Y160.498 E5.29723
G1 X155.474 Y161.022 E5.31756
G1 X154.765 Y161.718 E5.34804
G1 X154.288 Y162.122 E5.36718
G1 X153.467 Y162.697 E5.39792
G1 X152.873 Y163.007 E5.41844
G1 X152.186 Y163.267 E5.44096
G1 X151.345 Y163.455 E5.46736
G1 X150.497 Y163.503 E5.49342
G1 X149.768 Y163.432 E5.51586
G1 X149.042 Y163.255 E5.53876
G1 X148.267 Y162.948 E5.56430
G1 X147.561 Y162.546 E5.58921
G1 X146.846 Y162.017 E5.61645
G1 X146.413 Y161.635 E5.63418
G1 X145.716 Y160.944 E5.66424
G1 X145.067 Y159.846 E5.70332
G1 X144.819 Y158.955 E5.73169
G1 X144.787 Y158.291 E5.75204
G1 X144.490 Y156.808 E5.79841
G1 X144.017 Y154.160 E5.88085
G1 X144.012 Y152.171 E5.94182
G1 X144.162 Y151.469 E5.96382
G1 X144.210 Y151.352 E5.96770
G1 X144.580 Y151.146 F7800.000
G1 F1200.000
G1 X144.486 Y150.927 E5.97503
G1 X144.388 Y150.413 E5.99107
G1 X144.369 Y148.768 E6.04149
G1 X144.859 Y145.891 E6.13092
G1 X145.168 Y144.349 E6.17912
G1 X145.210 Y143.610 E6.20183
G1 X145.702 Y142.332 E6.24380
G1 X146.067 Y141.860 E6.26209
G1 X146.740 Y141.197 E6.29105
G1 X147.193 Y140.810 E6.30931
G1 X148.030 Y140.227 E6.34057
G1 X148.647 Y139.916 E6.36174
G1 X149.454 Y139.639 E6.38791
G1 X150.203 Y139.513 E6.41116
G1 X150.959 Y139.505 E6.43433
G1 X151.610 Y139.593 E6.45448
G1 X152.254 Y139.768 E6.47492
G1 X153.464 Y140.364 E6.51627
G1 X154.179 Y140.892 E6.54353
G1 X154.594 Y141.258 E6.56047
G1 X155.271 Y141.929 E6.58967
G1 X155.887 Y143.006 E6.62772
G1 X156.088 Y143.807 E6.65303
G1 X156.106 Y144.379 E6.67057
G1 X156.407 Y145.881 E6.71752
G1 X156.877 Y148.510 E6.79939
G1 X156.879 Y150.429 E6.85819
G1 X156.743 Y151.049 E6.87764
G1 X156.622 Y151.320 E6.88676
G1 X156.783 Y151.694 E6.89922
G1 X156.881 Y152.208 E6.91526
G1 X156.899 Y153.853 E6.96567
G1 X156.409 Y156.729 E7.05511
G1 X156.100 Y158.271 E7.10331
G1 X156.058 Y159.011 E7.12601
G1 X155.566 Y160.289 E7.16800
G1 X155.200 Y160.762 E7.18632
G1 X154.515 Y161.436 E7.21577
G1 X154.064 Y161.819 E7.23391
G1 X153.280 Y162.369 E7.26326
G1 X152.728 Y162.659 E7.28238
G1 X152.089 Y162.902 E7.30333
G1 X151.307 Y163.079 E7.32792
G1 X150.518 Y163.127 E7.35215
G1 X149.843 Y163.062 E7.37294
G1 X149.168 Y162.899 E7.39421
G1 X148.441 Y162.613 E7.41814
G1 X147.776 Y162.235 E7.44160
G1 X147.090 Y161.729 E7.46774
G1 X146.674 Y161.363 E7.48471
G1 X145.999 Y160.694 E7.51383
G1 X145.406 Y159.678 E7.54988
G1 X145.189 Y158.878 E7.57531
G1 X145.163 Y158.247 E7.59466
G1 X144.861 Y156.740 E7.64177
G1 X144.391 Y154.110 E7.72364
G1 X144.390 Y152.192 E7.78244
G1 X144.525 Y151.572 E7.80189
G1 X144.646 Y151.300 E7.81101
G1 X144.604 Y151.201 E7.81430
G1 X145.063 Y151.304 F7800.000
G1 F1200.000
G1 X144.852 Y150.833 E7.83012
G1 X144.761 Y150.359 E7.84492
G1 X144.746 Y148.781 E7.89327
G1 X145.230 Y145.958 E7.98108
G1 X145.543 Y144.394 E8.02997
G1 X145.573 Y143.714 E8.05083
G1 X146.019 Y142.539 E8.08933
G1 X146.341 Y142.119 E8.10557
G1 X146.990 Y141.479 E8.13351
G1 X147.417 Y141.113 E8.15074
G1 X148.213 Y140.557 E8.18049
G1 X148.782 Y140.268 E8.20007
G1 X149.534 Y140.008 E8.22444
G1 X150.223 Y139.890 E8.24587
G1 X150.922 Y139.881 E8.26730
G1 X151.547 Y139.965 E8.28662
G1 X152.136 Y140.127 E8.30536
G1 X153.254 Y140.678 E8.34353
G1 X153.936 Y141.181 E8.36953
G1 X154.332 Y141.530 E8.38570
G1 X154.986 Y142.178 E8.41392
G1 X155.546 Y143.168 E8.44877
G1 X155.716 Y143.875 E8.47106
G1 X155.730 Y144.421 E8.48780
G1 X156.037 Y145.949 E8.53559
G1 X156.503 Y148.560 E8.61688
G1 X156.502 Y150.407 E8.67348
G1 X156.380 Y150.943 E8.69034
G1 X156.205 Y151.317 E8.70297
G1 X156.417 Y151.788 E8.71880
G1 X156.507 Y152.262 E8.73359
G1 X156.522 Y153.839 E8.78194
G1 X156.038 Y156.663 E8.86975
G1 X155.725 Y158.227 E8.91864
G1 X155.695 Y158.907 E8.93950
G1 X155.249 Y160.082 E8.97801
G1 X154.926 Y160.503 E8.99428
G1 X154.265 Y161.153 E9.02270
G1 X153.840 Y161.516 E9.03983
G1 X153.094 Y162.041 E9.06781
G1 X152.582 Y162.311 E9.08554
G1 X151.991 Y162.538 E9.10493
G1 X151.267 Y162.704 E9.12769
G1 X150.537 Y162.750 E9.15011
G1 X149.916 Y162.692 E9.16923
G1 X149.292 Y162.543 E9.18888
G1 X148.615 Y162.278 E9.21119
G1 X147.990 Y161.925 E9.23319
G1 X147.332 Y161.440 E9.25822
G1 X146.936 Y161.091 E9.27442
G1 X146.283 Y160.444 E9.30259
G1 X145.746 Y159.513 E9.33554
G1 X145.559 Y158.803 E9.35803
G1 X145.539 Y158.204 E9.37642
G1 X145.231 Y156.671 E9.42432
G1 X144.765 Y154.061 E9.50561
G1 X144.767 Y152.214 E9.56221
G1 X144.888 Y151.677 E9.57907
G1 X145.037 Y151.358 E9.58987
G1 X145.406 Y151.145 F7800.000
G1 F1200.000
G1 X145.217 Y150.738 E9.60360
G1 X145.135 Y150.305 E9.61712
G1 X145.123 Y148.796 E9.66339
G1 X145.601 Y146.024 E9.74957
G1 X145.919 Y144.439 E9.79912
G1 X145.949 Y143.760 E9.81995
G1 X146.335 Y142.746 E9.85323
G1 X146.616 Y142.378 E9.86742
G1 X147.241 Y141.760 E9.89435
G1 X147.642 Y141.416 E9.91054
G1 X148.396 Y140.886 E9.93880
G1 X148.919 Y140.619 E9.95680
G1 X149.614 Y140.377 E9.97936
G1 X150.244 Y140.267 E9.99896
G1 X150.887 Y140.256 E10.01865
G1 X151.460 Y140.333 E10.03637
G1 X152.019 Y140.486 E10.05416
G1 X153.044 Y140.991 E10.08916
G1 X153.694 Y141.469 E10.11390
G1 X154.071 Y141.801 E10.12930
G1 X154.701 Y142.426 E10.15651
G1 X155.203 Y143.327 E10.18809
G1 X155.344 Y143.939 E10.20735
G1 X155.353 Y144.461 E10.22335
G1 X155.666 Y146.017 E10.27201
G1 X156.129 Y148.610 E10.35272
G1 X156.125 Y150.384 E10.40709
G1 X156.019 Y150.835 E10.42130
G1 X155.787 Y151.313 E10.43758
G1 X156.051 Y151.882 E10.45682
G1 X156.133 Y152.316 E10.47034
G1 X156.145 Y153.825 E10.51661
G1 X155.667 Y156.596 E10.60280
G1 X155.349 Y158.181 E10.65235
G1 X155.319 Y158.860 E10.67317
G1 X154.933 Y159.875 E10.70645
G1 X154.652 Y160.244 E10.72067
G1 X154.015 Y160.871 E10.74807
G1 X153.615 Y161.213 E10.76420
G1 X152.906 Y161.714 E10.79080
G1 X152.435 Y161.964 E10.80715
G1 X151.892 Y162.174 E10.82498
G1 X151.227 Y162.329 E10.84593
G1 X150.556 Y162.373 E10.86652
G1 X149.989 Y162.322 E10.88397
G1 X149.416 Y162.187 E10.90201
G1 X148.788 Y161.942 E10.92268
G1 X148.204 Y161.614 E10.94321
G1 X147.575 Y161.152 E10.96713
G1 X147.197 Y160.819 E10.98256
G1 X146.567 Y160.195 E11.00975
G1 X146.087 Y159.350 E11.03955
G1 X145.930 Y158.733 E11.05906
G1 X145.915 Y158.162 E11.07655
G1 X145.602 Y156.603 E11.12529
G1 X145.139 Y154.011 E11.20599
G1 X145.144 Y152.237 E11.26036
G1 X145.250 Y151.786 E11.27458
G1 X145.482 Y151.308 E11.29086
G1 X145.431 Y151.199 E11.29452
G1 X145.901 Y151.315 F7800.000
G1 F1200.000
G1 X145.570 Y150.603 E11.31858
G1 X145.509 Y150.256 E11.32936
G1 X145.500 Y148.810 E11.37369
G1 X145.972 Y146.091 E11.45827
G1 X146.294 Y144.485 E11.50848
G1 X146.324 Y143.808 E11.52927
G1 X146.652 Y142.952 E11.55735
G1 X146.891 Y142.636 E11.56948
G1 X147.492 Y142.042 E11.59541
G1 X147.867 Y141.719 E11.61057
G1 X148.581 Y141.215 E11.63734
G1 X149.057 Y140.970 E11.65376
G1 X149.696 Y140.745 E11.67453
G1 X150.267 Y140.643 E11.69230
G1 X150.851 Y140.632 E11.71022
G1 X151.397 Y140.705 E11.72708
G1 X151.901 Y140.844 E11.74312
G1 X152.834 Y141.305 E11.77500
G1 X153.451 Y141.758 E11.79847
G1 X153.810 Y142.073 E11.81310
G1 X154.416 Y142.674 E11.83927
G1 X154.858 Y143.482 E11.86750
G1 X154.972 Y143.999 E11.88371
G1 X154.977 Y144.499 E11.89905
G1 X155.295 Y146.086 E11.94864
G1 X155.755 Y148.659 E12.02877
G1 X155.752 Y150.318 E12.07962
G1 X155.657 Y150.726 E12.09247
G1 X155.368 Y151.306 E12.11231
