; generated by PrusaSlicer 2.2.0+win64 on 2020-10-20 at 19:20:44 UTC

; 

; external perimeters extrusion width = 0.45mm
; perimeters extrusion width = 0.45mm
; infill extrusion width = 0.45mm
; solid infill extrusion width = 0.45mm
; top infill extrusion width = 0.40mm
; first layer extrusion width = 0.42mm

M107
M190 S60 ; set bed temperature and wait for it to be reached
M104 S190 ; set temperature
G28 ; home all axes
;G29 S1
G1 Z5 F5000 ;E lift nozzle
M109 S190 ; set temperature and wait for it to be reached
G21 ; set units to millimeters
G90 ; use absolute coordinates
M82 ; use absolute distances for extrusion
G92 E0
; Filament gcode
G29 S1 P"heightmap_pla.csv"
M109 S190; heat nozzle to first_layer_temperature
G92 E0 ; reset extruder

G1 X0 Y200 Z0.2 F3000.0 ; move to start-line position2
G1 X0 Y20 Z0.2 F1500.0 E15 ; draw 1st line
G1 X0.5 Y20 Z0.2 F5000.0 ; move to side a little
G1 X0.5 Y200 Z0.2F1500.0 E30 ; draw 2nd line
G92 E0 ; reset extruder
G1 Z1.0 F1000 ; move z up little to prevent scratching of surface
G1 Z0.200 F7800.000
G10 ; retract
G92 E0
G1 X132.795 Y121.621
G11 ; unretract
G92 E0
G1 F1200.000
G1 X133.748 Y120.117 E0.05457
G1 X134.437 Y119.341 E0.08637
G1 X135.699 Y118.167 E0.13920
G1 X136.841 Y117.328 E0.18264
G1 X137.859 Y116.739 E0.21869
G1 X138.966 Y116.251 E0.25577
G1 X140.125 Y115.894 E0.29294
G1 X141.299 Y115.681 E0.32951
G1 X142.505 Y115.608 E0.36652
G1 X143.831 Y115.698 E0.40726
G1 X145.149 Y115.966 E0.44849
G1 X146.402 Y116.398 E0.48912
G1 X147.727 Y117.060 E0.53452
G1 X148.807 Y117.780 E0.57430
G1 X150.029 Y118.810 E0.62328
G1 X151.106 Y119.937 E0.67105
G1 X151.905 Y121.071 E0.71357
G1 X152.477 Y122.222 E0.75297
G1 X152.875 Y123.451 E0.79258
G1 X153.815 Y128.867 E0.96104
G1 X153.904 Y129.988 E0.99552
G1 X153.905 Y134.878 E1.14539
G1 X153.800 Y136.232 E1.18702
G1 X152.834 Y141.713 E1.35760
G1 X152.205 Y143.379 E1.41217
G1 X151.256 Y144.877 E1.46652
G1 X150.563 Y145.659 E1.49854
G1 X149.308 Y146.827 E1.55110
G1 X148.164 Y147.668 E1.59460
G1 X147.147 Y148.258 E1.63065
G1 X146.038 Y148.747 E1.66779
G1 X144.880 Y149.104 E1.70495
G1 X143.711 Y149.318 E1.74136
G1 X142.498 Y149.392 E1.77862
G1 X141.165 Y149.302 E1.81956
G1 X139.846 Y149.033 E1.86081
G1 X138.596 Y148.601 E1.90137
G1 X137.273 Y147.939 E1.94670
G1 X136.193 Y147.220 E1.98647
G1 X134.972 Y146.190 E2.03543
G1 X133.894 Y145.063 E2.08322
G1 X133.095 Y143.929 E2.12574
G1 X132.523 Y142.778 E2.16513
G1 X132.125 Y141.549 E2.20475
G1 X131.185 Y136.133 E2.37321
G1 X131.096 Y135.012 E2.40769
G1 X131.095 Y130.122 E2.55756
G1 X131.200 Y128.768 E2.59919
G1 X132.166 Y123.287 E2.76977
G1 X132.774 Y121.677 E2.82250
G1 X133.122 Y121.811 F7800.000
G1 F1200.000
G1 X134.027 Y120.373 E2.87457
G1 X134.694 Y119.618 E2.90545
G1 X135.926 Y118.469 E2.95709
G1 X137.038 Y117.651 E2.99939
G1 X138.017 Y117.081 E3.03413
G1 X139.086 Y116.609 E3.06995
G1 X140.206 Y116.263 E3.10585
G1 X141.342 Y116.056 E3.14126
G1 X142.510 Y115.985 E3.17711
G1 X143.793 Y116.073 E3.21653
G1 X145.063 Y116.333 E3.25628
G1 X146.271 Y116.752 E3.29546
G1 X147.559 Y117.399 E3.33964
G1 X148.594 Y118.092 E3.37780
G1 X149.784 Y119.098 E3.42558
G1 X150.836 Y120.202 E3.47231
G1 X151.608 Y121.309 E3.51369
G1 X152.145 Y122.407 E3.55113
G1 X152.516 Y123.571 E3.58857
G1 X153.445 Y128.947 E3.75579
G1 X153.527 Y130.008 E3.78842
G1 X153.528 Y134.878 E3.93768
G1 X153.427 Y136.174 E3.97753
G1 X152.476 Y141.591 E4.14610
G1 X151.881 Y143.183 E4.19817
G1 X150.978 Y144.621 E4.25024
G1 X150.306 Y145.382 E4.28134
G1 X149.081 Y146.526 E4.33272
G1 X148.144 Y147.229 E4.36862
G1 X146.989 Y147.916 E4.40981
G1 X145.918 Y148.390 E4.44570
G1 X144.800 Y148.736 E4.48158
G1 X143.668 Y148.943 E4.51684
G1 X142.500 Y149.015 E4.55271
G1 X141.217 Y148.928 E4.59211
G1 X139.939 Y148.667 E4.63210
G1 X138.733 Y148.250 E4.67121
G1 X137.440 Y147.601 E4.71555
G1 X136.406 Y146.908 E4.75370
G1 X135.216 Y145.902 E4.80145
G1 X134.164 Y144.798 E4.84820
G1 X133.392 Y143.691 E4.88958
G1 X132.855 Y142.593 E4.92702
G1 X132.484 Y141.429 E4.96446
G1 X131.555 Y136.053 E5.13168
G1 X131.473 Y134.992 E5.16431
G1 X131.472 Y130.122 E5.31357
G1 X131.573 Y128.826 E5.35342
G1 X132.524 Y123.409 E5.52199
G1 X133.101 Y121.867 E5.57244
G10 ; retract
G92 E0
G1 X135.308 Y132.544 F7800.000
G11 ; unretract
G92 E0
G1 F1200.000
G1 X135.151 Y131.686 E0.02676
G1 X135.135 Y129.947 E0.08006
G1 X135.639 Y126.928 E0.17386
G1 X135.930 Y125.475 E0.21929
G1 X135.985 Y124.676 E0.24383
G1 X136.645 Y122.979 E0.29964
G1 X137.135 Y122.354 E0.32399
G1 X137.891 Y121.612 E0.35646
G1 X138.426 Y121.162 E0.37788
G1 X139.364 Y120.517 E0.41278
G1 X140.120 Y120.142 E0.43861
G1 X141.093 Y119.818 E0.47006
G1 X142.016 Y119.669 E0.49873
G1 X142.937 Y119.666 E0.52695
G1 X143.708 Y119.774 E0.55082
G1 X144.461 Y119.976 E0.57472
G1 X145.951 Y120.708 E0.62558
G1 X146.759 Y121.308 E0.65643
G1 X147.226 Y121.720 E0.67553
G1 X147.962 Y122.450 E0.70730
G1 X148.719 Y123.708 E0.75231
G1 X149.031 Y124.779 E0.78649
G1 X149.076 Y125.505 E0.80878
G1 X149.357 Y126.909 E0.85265
G1 X149.831 Y129.544 E0.93473
G1 X149.848 Y131.700 E1.00081
G1 X149.692 Y132.456 E1.02445
G1 X149.849 Y133.314 E1.05121
G1 X149.865 Y135.053 E1.10451
G1 X149.361 Y138.072 E1.19831
G1 X149.070 Y139.525 E1.24374
G1 X149.015 Y140.324 E1.26828
G1 X148.355 Y142.021 E1.32409
G1 X147.865 Y142.646 E1.34843
G1 X147.131 Y143.368 E1.38000
G1 X146.585 Y143.830 E1.40192
G1 X145.692 Y144.451 E1.43524
G1 X145.018 Y144.799 E1.45849
G1 X144.236 Y145.091 E1.48408
G1 X143.283 Y145.298 E1.51397
G1 X142.317 Y145.349 E1.54361
G1 X141.482 Y145.263 E1.56934
G1 X140.657 Y145.058 E1.59539
G1 X139.791 Y144.710 E1.62400
G1 X139.007 Y144.261 E1.65169
G1 X138.241 Y143.693 E1.68091
G1 X137.774 Y143.280 E1.70004
G1 X137.038 Y142.550 E1.73182
G1 X136.281 Y141.292 E1.77682
G1 X135.969 Y140.221 E1.81100
G1 X135.924 Y139.495 E1.83329
G1 X135.643 Y138.091 E1.87717
G1 X135.169 Y135.456 E1.95924
G1 X135.152 Y133.300 E2.02532
G1 X135.296 Y132.603 E2.04712
G1 X135.703 Y132.502 F7800.000
G1 F1200.000
G1 X135.650 Y132.355 E2.05193
G1 X135.528 Y131.667 E2.07334
G1 X135.512 Y129.960 E2.12567
G1 X136.011 Y126.994 E2.21785
G1 X136.306 Y125.522 E2.26386
G1 X136.348 Y124.783 E2.28656
G1 X136.960 Y123.188 E2.33890
G1 X137.408 Y122.614 E2.36123
G1 X138.140 Y121.895 E2.39267
G1 X138.648 Y121.467 E2.41304
G1 X139.545 Y120.848 E2.44642
G1 X140.252 Y120.495 E2.47066
G1 X141.169 Y120.187 E2.50030
G1 X142.034 Y120.046 E2.52715
G1 X142.899 Y120.041 E2.55368
G1 X143.622 Y120.141 E2.57605
G1 X144.346 Y120.336 E2.59901
G1 X145.740 Y121.021 E2.64664
G1 X146.516 Y121.596 E2.67622
G1 X146.964 Y121.992 E2.69457
G1 X147.679 Y122.701 E2.72544
G1 X148.383 Y123.880 E2.76750
G1 X148.662 Y124.861 E2.79878
G1 X148.700 Y125.552 E2.81999
G1 X148.986 Y126.977 E2.86453
G1 X149.457 Y129.595 E2.94605
G1 X149.471 Y131.682 E3.01001
G1 X149.297 Y132.498 E3.03558
G1 X149.350 Y132.645 E3.04039
G1 X149.472 Y133.333 E3.06180
G1 X149.488 Y135.040 E3.11413
G1 X148.989 Y138.006 E3.20631
G1 X148.694 Y139.478 E3.25232
G1 X148.652 Y140.217 E3.27502
G1 X148.040 Y141.812 E3.32736
G1 X147.592 Y142.386 E3.34968
G1 X146.871 Y143.094 E3.38065
G1 X146.362 Y143.526 E3.40112
G1 X145.507 Y144.122 E3.43305
G1 X144.875 Y144.450 E3.45489
G1 X144.141 Y144.725 E3.47891
G1 X143.246 Y144.923 E3.50699
G1 X142.340 Y144.972 E3.53481
G1 X141.559 Y144.893 E3.55887
G1 X140.785 Y144.703 E3.58331
G1 X139.966 Y144.376 E3.61032
G1 X139.222 Y143.951 E3.63658
G1 X138.485 Y143.405 E3.66471
G1 X138.036 Y143.008 E3.68308
G1 X137.321 Y142.299 E3.71395
G1 X136.617 Y141.120 E3.75601
G1 X136.338 Y140.139 E3.78729
G1 X136.300 Y139.448 E3.80850
G1 X136.014 Y138.023 E3.85305
G1 X135.543 Y135.405 E3.93457
G1 X135.529 Y133.318 E3.99853
G1 X135.690 Y132.561 E4.02226
G1 X136.096 Y132.468 F7800.000
G1 F1200.000
G1 X136.017 Y132.266 E4.02892
G1 X135.905 Y131.647 E4.04820
G1 X135.889 Y129.973 E4.09951
G1 X136.382 Y127.060 E4.19008
G1 X136.681 Y125.570 E4.23664
G1 X136.723 Y124.833 E4.25925
G1 X137.275 Y123.398 E4.30640
G1 X137.682 Y122.874 E4.32673
G1 X138.389 Y122.179 E4.35713
G1 X138.870 Y121.771 E4.37645
G1 X139.726 Y121.179 E4.40834
G1 X140.386 Y120.848 E4.43098
G1 X141.246 Y120.557 E4.45881
G1 X142.052 Y120.423 E4.48384
G1 X142.862 Y120.417 E4.50866
G1 X143.559 Y120.513 E4.53023
G1 X144.229 Y120.695 E4.55153
G1 X145.530 Y121.335 E4.59594
G1 X146.272 Y121.884 E4.62426
G1 X146.703 Y122.264 E4.64185
G1 X147.396 Y122.952 E4.67180
G1 X148.045 Y124.049 E4.71087
G1 X148.293 Y124.941 E4.73924
G1 X148.325 Y125.598 E4.75940
G1 X148.615 Y127.046 E4.80466
G1 X149.083 Y129.646 E4.88562
G1 X149.094 Y131.662 E4.94743
G1 X148.904 Y132.532 E4.97471
G1 X148.983 Y132.734 E4.98137
G1 X149.095 Y133.353 E5.00065
G1 X149.111 Y135.027 E5.05197
G1 X148.618 Y137.940 E5.14253
G1 X148.319 Y139.430 E5.18910
G1 X148.277 Y140.167 E5.21171
G1 X147.725 Y141.602 E5.25886
G1 X147.318 Y142.126 E5.27918
G1 X146.612 Y142.820 E5.30955
G1 X146.138 Y143.222 E5.32858
G1 X145.322 Y143.793 E5.35912
G1 X144.730 Y144.102 E5.37956
G1 X144.045 Y144.361 E5.40200
G1 X143.209 Y144.547 E5.42826
G1 X142.362 Y144.596 E5.45427
G1 X141.635 Y144.524 E5.47666
G1 X140.911 Y144.348 E5.49949
G1 X140.141 Y144.042 E5.52489
G1 X139.437 Y143.641 E5.54971
G1 X138.728 Y143.117 E5.57674
G1 X138.297 Y142.736 E5.59436
G1 X137.604 Y142.048 E5.62431
G1 X136.955 Y140.951 E5.66338
G1 X136.707 Y140.059 E5.69175
G1 X136.675 Y139.402 E5.71191
G1 X136.385 Y137.954 E5.75717
G1 X135.917 Y135.354 E5.83813
G1 X135.906 Y133.338 E5.89994
G1 X136.084 Y132.527 E5.92538
G1 X136.515 Y132.486 F7800.000
G1 F1200.000
G1 X136.383 Y132.174 E5.93575
G1 X136.282 Y131.627 E5.95282
G1 X136.266 Y129.986 E6.00310
G1 X136.753 Y127.126 E6.09204
G1 X137.056 Y125.618 E6.13917
G1 X137.097 Y124.884 E6.16170
G1 X137.590 Y123.606 E6.20367
G1 X137.955 Y123.134 E6.22198
G1 X138.639 Y122.461 E6.25136
G1 X139.093 Y122.076 E6.26964
G1 X139.908 Y121.510 E6.30003
G1 X140.521 Y121.201 E6.32108
G1 X141.324 Y120.926 E6.34711
G1 X142.071 Y120.800 E6.37031
G1 X142.825 Y120.792 E6.39342
G1 X143.472 Y120.880 E6.41343
G1 X144.113 Y121.054 E6.43379
G1 X145.319 Y121.648 E6.47500
G1 X146.029 Y122.172 E6.50206
G1 X146.441 Y122.535 E6.51888
G1 X147.113 Y123.202 E6.54789
G1 X147.706 Y124.217 E6.58393
G1 X147.923 Y125.018 E6.60936
G1 X147.949 Y125.643 E6.62853
G1 X148.245 Y127.114 E6.67454
G1 X148.709 Y129.696 E6.75493
G1 X148.717 Y131.643 E6.81461
G1 X148.570 Y132.317 E6.83576
G1 X148.485 Y132.514 E6.84233
G1 X148.617 Y132.826 E6.85269
G1 X148.718 Y133.373 E6.86977
G1 X148.734 Y135.014 E6.92005
G1 X148.247 Y137.874 E7.00899
G1 X147.944 Y139.382 E7.05612
G1 X147.903 Y140.116 E7.07864
G1 X147.410 Y141.394 E7.12062
G1 X147.045 Y141.866 E7.13893
G1 X146.362 Y142.538 E7.16827
G1 X145.914 Y142.919 E7.18630
G1 X145.136 Y143.465 E7.21545
G1 X144.585 Y143.753 E7.23449
G1 X143.949 Y143.996 E7.25537
G1 X143.171 Y144.172 E7.27981
G1 X142.383 Y144.219 E7.30400
G1 X141.710 Y144.154 E7.32473
G1 X141.037 Y143.992 E7.34594
G1 X140.315 Y143.707 E7.36972
G1 X139.652 Y143.331 E7.39309
G1 X138.971 Y142.828 E7.41902
G1 X138.559 Y142.465 E7.43588
G1 X137.887 Y141.798 E7.46489
G1 X137.294 Y140.783 E7.50093
G1 X137.077 Y139.982 E7.52636
G1 X137.051 Y139.357 E7.54553
G1 X136.755 Y137.886 E7.59154
G1 X136.291 Y135.304 E7.67193
G1 X136.283 Y133.357 E7.73161
G1 X136.430 Y132.683 E7.75276
G1 X136.491 Y132.541 E7.75749
G1 X136.861 Y132.332 F7800.000
G1 F1200.000
G1 X136.749 Y132.080 E7.76592
G1 X136.659 Y131.606 E7.78073
G1 X136.643 Y130.000 E7.82995
G1 X137.124 Y127.192 E7.91726
G1 X137.431 Y125.662 E7.96508
G1 X137.461 Y124.988 E7.98577
G1 X137.906 Y123.814 E8.02427
G1 X138.229 Y123.393 E8.04053
G1 X138.888 Y122.744 E8.06887
G1 X139.317 Y122.380 E8.08611
G1 X140.090 Y121.840 E8.11502
G1 X140.657 Y121.553 E8.13448
G1 X141.404 Y121.295 E8.15871
G1 X142.091 Y121.177 E8.18008
G1 X142.788 Y121.168 E8.20145
G1 X143.409 Y121.252 E8.22064
G1 X143.996 Y121.413 E8.23930
G1 X145.109 Y121.961 E8.27733
G1 X145.786 Y122.461 E8.30313
G1 X146.180 Y122.807 E8.31919
G1 X146.829 Y123.451 E8.34724
G1 X147.367 Y124.383 E8.38018
G1 X147.553 Y125.092 E8.40267
G1 X147.574 Y125.686 E8.42088
G1 X147.874 Y127.183 E8.46768
G1 X148.334 Y129.746 E8.54750
G1 X148.340 Y131.622 E8.60500
G1 X148.207 Y132.212 E8.62352
G1 X148.068 Y132.510 E8.63360
G1 X148.251 Y132.920 E8.64735
G1 X148.341 Y133.394 E8.66215
G1 X148.357 Y135.000 E8.71138
G1 X147.876 Y137.808 E8.79869
G1 X147.569 Y139.338 E8.84651
G1 X147.539 Y140.012 E8.86720
G1 X147.094 Y141.186 E8.90569
G1 X146.771 Y141.607 E8.92195
G1 X146.112 Y142.255 E8.95027
G1 X145.690 Y142.616 E8.96729
G1 X144.949 Y143.137 E8.99506
G1 X144.439 Y143.405 E9.01271
G1 X143.851 Y143.631 E9.03202
G1 X143.131 Y143.796 E9.05465
G1 X142.403 Y143.842 E9.07701
G1 X141.784 Y143.784 E9.09608
G1 X141.162 Y143.636 E9.11567
G1 X140.489 Y143.372 E9.13783
G1 X139.866 Y143.021 E9.15974
G1 X139.214 Y142.540 E9.18457
G1 X138.820 Y142.193 E9.20066
G1 X138.171 Y141.549 E9.22871
G1 X137.633 Y140.617 E9.26166
G1 X137.447 Y139.908 E9.28414
G1 X137.426 Y139.314 E9.30235
G1 X137.126 Y137.817 E9.34915
G1 X136.666 Y135.254 E9.42898
G1 X136.660 Y133.378 E9.48648
G1 X136.793 Y132.788 E9.50500
G1 X136.932 Y132.490 E9.51508
G1 X136.885 Y132.386 E9.51855
G1 X137.351 Y132.494 F7800.000
G1 F1200.000
G1 X137.115 Y131.986 E9.53574
G1 X137.032 Y131.552 E9.54925
G1 X137.021 Y130.014 E9.59640
G1 X137.496 Y127.259 E9.68210
G1 X137.807 Y125.708 E9.73057
G1 X137.836 Y125.035 E9.75122
G1 X138.223 Y124.020 E9.78449
G1 X138.504 Y123.652 E9.79870
G1 X139.139 Y123.026 E9.82601
G1 X139.541 Y122.683 E9.84222
G1 X140.274 Y122.170 E9.86965
G1 X140.794 Y121.904 E9.88754
G1 X141.484 Y121.663 E9.90996
G1 X142.113 Y121.554 E9.92951
G1 X142.753 Y121.544 E9.94914
G1 X143.322 Y121.619 E9.96672
G1 X143.879 Y121.772 E9.98443
G1 X144.899 Y122.275 E10.01929
G1 X145.544 Y122.749 E10.04383
G1 X145.918 Y123.079 E10.05912
G1 X146.545 Y123.701 E10.08618
G1 X147.026 Y124.546 E10.11598
G1 X147.182 Y125.163 E10.13549
G1 X147.197 Y125.727 E10.15280
G1 X147.503 Y127.252 E10.20045
G1 X147.960 Y129.796 E10.27970
G1 X147.963 Y131.600 E10.33498
G1 X147.845 Y132.103 E10.35081
G1 X147.649 Y132.506 E10.36453
G1 X147.885 Y133.014 E10.38172
G1 X147.968 Y133.448 E10.39524
G1 X147.979 Y134.986 E10.44238
G1 X147.504 Y137.741 E10.52808
G1 X147.193 Y139.292 E10.57655
G1 X147.164 Y139.965 E10.59720
G1 X146.777 Y140.980 E10.63047
G1 X146.496 Y141.348 E10.64468
G1 X145.862 Y141.973 E10.67198
G1 X145.465 Y142.313 E10.68799
G1 X144.761 Y142.810 E10.71439
G1 X144.292 Y143.058 E10.73065
G1 X143.752 Y143.267 E10.74842
G1 X143.091 Y143.421 E10.76923
G1 X142.422 Y143.465 E10.78977
G1 X141.857 Y143.414 E10.80716
G1 X141.286 Y143.280 E10.82513
G1 X140.662 Y143.037 E10.84566
G1 X140.080 Y142.710 E10.86611
G1 X139.457 Y142.251 E10.88982
G1 X139.082 Y141.921 E10.90514
G1 X138.455 Y141.299 E10.93221
G1 X137.974 Y140.454 E10.96200
G1 X137.818 Y139.837 E10.98152
G1 X137.803 Y139.273 E10.99883
G1 X137.497 Y137.748 E11.04647
G1 X137.040 Y135.204 E11.12572
G1 X137.037 Y133.400 E11.18101
G1 X137.155 Y132.897 E11.19684
G1 X137.324 Y132.548 E11.20872
G1 X137.693 Y132.336 F7800.000
G1 F1200.000
G1 X137.468 Y131.850 E11.22512
G1 X137.406 Y131.504 E11.23591
G1 X137.398 Y130.029 E11.28111
G1 X137.867 Y127.326 E11.36520
G1 X138.182 Y125.754 E11.41434
G1 X138.212 Y125.082 E11.43494
G1 X138.539 Y124.227 E11.46302
G1 X138.779 Y123.910 E11.47517
G1 X139.389 Y123.308 E11.50145
G1 X139.765 Y122.986 E11.51664
G1 X140.458 Y122.499 E11.54260
G1 X140.931 Y122.255 E11.55891
G1 X141.566 Y122.032 E11.57953
G1 X142.135 Y121.930 E11.59725
G1 X142.718 Y121.919 E11.61511
G1 X143.259 Y121.991 E11.63184
G1 X143.761 Y122.130 E11.64781
G1 X144.689 Y122.589 E11.67954
G1 X145.301 Y123.038 E11.70281
G1 X145.657 Y123.351 E11.71732
G1 X146.260 Y123.949 E11.74338
G1 X146.684 Y124.706 E11.76994
G1 X146.811 Y125.230 E11.78648
G1 X146.821 Y125.767 E11.80296
G1 X147.132 Y127.320 E11.85149
G1 X147.586 Y129.846 E11.93016
G1 X147.586 Y131.576 E11.98319
G1 X147.485 Y131.991 E11.99627
G1 X147.230 Y132.498 E12.01365
G1 X147.532 Y133.150 E12.03567
G1 X147.594 Y133.496 E12.04646
G1 X147.602 Y134.971 E12.09166
