; generated by PrusaSlicer 2.2.0+win64 on 2020-10-24 at 15:26:09 UTC

; 

; external perimeters extrusion width = 0.45mm
; perimeters extrusion width = 0.45mm
; infill extrusion width = 0.45mm
; solid infill extrusion width = 0.45mm
; top infill extrusion width = 0.40mm
; first layer extrusion width = 0.42mm

M107
M190 S60 ; set bed temperature and wait for it to be reached
M104 S190 ; set temperature
G28 ; home all axes
;G29 S1
G1 Z5 F5000 ;E lift nozzle
M109 S190 ; set temperature and wait for it to be reached
G21 ; set units to millimeters
G90 ; use absolute coordinates
M82 ; use absolute distances for extrusion
G92 E0
; Filament gcode
G29 S1 P"heightmap_pla.csv"
M109 S190; heat nozzle to first_layer_temperature
G92 E0 ; reset extruder

G1 X0 Y200 Z0.2 F3000.0 ; move to start-line position2
G1 X0 Y20 Z0.2 F1500.0 E15 ; draw 1st line
G1 X0.5 Y20 Z0.2 F5000.0 ; move to side a little
G1 X0.5 Y200 Z0.2F1500.0 E30 ; draw 2nd line
G92 E0 ; reset extruder
G1 Z1.0 F1000 ; move z up little to prevent scratching of surface
G1 Z0.200 F7800.000
G10 ; retract
G92 E0
G1 X131.552 Y121.164
G11 ; unretract
G92 E0
G1 F1200.000
G1 X134.085 Y119.086 E0.09037
G1 X136.989 Y117.532 E0.18123
G1 X140.135 Y116.577 E0.27192
G1 X143.411 Y116.256 E0.36271
G1 X146.673 Y116.579 E0.45313
G1 X149.815 Y117.533 E0.54371
G1 X152.713 Y119.085 E0.63438
G1 X155.249 Y121.167 E0.72490
G1 X157.333 Y123.705 E0.81550
G1 X158.877 Y126.597 E0.90593
G1 X159.832 Y129.740 E0.99653
G1 X160.154 Y133.013 E1.08727
G1 X159.831 Y136.284 E1.17792
G1 X158.877 Y139.425 E1.26847
G1 X157.333 Y142.316 E1.35889
G1 X155.246 Y144.858 E1.44961
G1 X152.711 Y146.939 E1.54008
G1 X149.810 Y148.491 E1.63085
G1 X146.665 Y149.444 E1.72148
G1 X143.393 Y149.764 E1.81218
G1 X140.136 Y149.445 E1.90244
G1 X137.024 Y148.501 E1.99214
G1 X134.124 Y146.960 E2.08273
G1 X131.552 Y144.858 E2.17438
G1 X129.476 Y142.327 E2.26467
G1 X127.919 Y139.419 E2.35567
G1 X126.967 Y136.273 E2.44633
G1 X126.646 Y133.005 E2.53691
G1 X126.968 Y129.742 E2.62736
G1 X127.919 Y126.603 E2.71784
G1 X129.467 Y123.706 E2.80845
G1 X131.514 Y121.210 E2.89749
G1 X131.804 Y121.448 F7800.000
G1 F1200.000
G1 X134.298 Y119.397 E2.98655
G1 X137.137 Y117.879 E3.07536
G1 X140.206 Y116.947 E3.16383
G1 X143.407 Y116.633 E3.25257
G1 X146.596 Y116.948 E3.34096
G1 X149.674 Y117.883 E3.42969
G1 X152.503 Y119.398 E3.51823
G1 X154.985 Y121.436 E3.60680
G1 X157.017 Y123.912 E3.69517
G1 X158.530 Y126.745 E3.78375
G1 X159.462 Y129.817 E3.87232
G1 X159.777 Y133.017 E3.96101
G1 X159.462 Y136.207 E4.04943
G1 X158.528 Y139.282 E4.13809
G1 X157.017 Y142.110 E4.22653
G1 X154.977 Y144.594 E4.31520
G1 X152.499 Y146.627 E4.40362
G1 X149.668 Y148.141 E4.49217
G1 X146.595 Y149.074 E4.58076
G1 X143.397 Y149.387 E4.66939
G1 X140.213 Y149.076 E4.75765
G1 X137.165 Y148.151 E4.84550
G1 X134.330 Y146.645 E4.93406
G1 X131.816 Y144.588 E5.02366
G1 X129.791 Y142.121 E5.11172
G1 X128.268 Y139.277 E5.20068
G1 X127.337 Y136.203 E5.28928
G1 X127.023 Y133.004 E5.37797
G1 X127.339 Y129.812 E5.46644
G1 X128.269 Y126.744 E5.55488
G1 X129.783 Y123.912 E5.64346
G1 X131.766 Y121.495 E5.72971
G10 ; retract
G92 E0
G1 X148.229 Y137.841 F7800.000
G11 ; unretract
G92 E0
G1 F1200.000
G1 X147.194 Y138.690 E0.03693
G1 X146.014 Y139.321 E0.07384
G1 X144.734 Y139.710 E0.11074
G1 X143.400 Y139.840 E0.14772
G1 X142.067 Y139.711 E0.18467
G1 X140.787 Y139.322 E0.22156
G1 X139.606 Y138.689 E0.25853
G1 X138.568 Y137.839 E0.29554
G1 X137.721 Y136.808 E0.33235
G1 X137.089 Y135.625 E0.36935
G1 X136.701 Y134.344 E0.40625
G1 X136.570 Y133.011 E0.44321
G1 X136.701 Y131.679 E0.48014
G1 X137.089 Y130.398 E0.51705
G1 X137.721 Y129.216 E0.55402
G1 X138.569 Y128.181 E0.59093
G1 X139.603 Y127.334 E0.62781
G1 X140.787 Y126.700 E0.66485
G1 X142.066 Y126.311 E0.70173
G1 X143.405 Y126.181 E0.73883
G1 X144.733 Y126.312 E0.77564
G1 X146.013 Y126.700 E0.81255
G1 X147.193 Y127.331 E0.84945
G1 X148.229 Y128.181 E0.88643
G1 X149.080 Y129.217 E0.92339
G1 X149.710 Y130.398 E0.96033
G1 X150.099 Y131.680 E0.99727
G1 X150.230 Y133.009 E1.03412
G1 X150.098 Y134.345 E1.07116
G1 X149.710 Y135.624 E1.10801
G1 X149.079 Y136.806 E1.14498
G1 X148.267 Y137.794 E1.18025
G1 X148.468 Y138.132 F7800.000
G1 F1200.000
G1 X147.404 Y139.005 E1.21821
G1 X146.159 Y139.671 E1.25716
G1 X144.808 Y140.081 E1.29612
G1 X143.400 Y140.219 E1.33514
G1 X141.993 Y140.082 E1.37413
G1 X140.642 Y139.672 E1.41308
G1 X139.395 Y139.005 E1.45209
G1 X138.300 Y138.107 E1.49116
G1 X137.406 Y137.018 E1.53002
G1 X136.739 Y135.769 E1.56907
G1 X136.330 Y134.418 E1.60802
G1 X136.191 Y133.011 E1.64702
G1 X136.330 Y131.605 E1.68600
G1 X136.739 Y130.253 E1.72496
G1 X137.406 Y129.006 E1.76398
G1 X138.301 Y127.913 E1.80294
G1 X139.393 Y127.019 E1.84187
G1 X140.642 Y126.350 E1.88096
G1 X141.992 Y125.940 E1.91988
G1 X143.406 Y125.802 E1.95906
G1 X144.807 Y125.940 E1.99790
G1 X146.158 Y126.350 E2.03686
G1 X147.403 Y127.016 E2.07581
G1 X148.497 Y127.913 E2.11483
G1 X149.395 Y129.006 E2.15384
G1 X150.060 Y130.254 E2.19283
G1 X150.471 Y131.606 E2.23181
G1 X150.609 Y133.009 E2.27072
G1 X150.470 Y134.419 E2.30981
G1 X150.060 Y135.769 E2.34871
G1 X149.394 Y137.017 E2.38773
G1 X148.511 Y138.091 E2.42608
G1 X148.707 Y138.424 F7800.000
G1 F1200.000
G1 X147.615 Y139.320 E2.46505
G1 X146.305 Y140.021 E2.50605
G1 X144.882 Y140.453 E2.54706
G1 X143.400 Y140.598 E2.58812
G1 X141.920 Y140.454 E2.62917
G1 X140.497 Y140.022 E2.67017
G1 X139.185 Y139.320 E2.71123
G1 X138.032 Y138.375 E2.75234
G1 X137.091 Y137.229 E2.79325
G1 X136.389 Y135.914 E2.83436
G1 X135.958 Y134.492 E2.87535
G1 X135.812 Y133.011 E2.91640
G1 X135.958 Y131.531 E2.95743
G1 X136.388 Y130.108 E2.99843
G1 X137.090 Y128.795 E3.03951
G1 X138.033 Y127.645 E3.08052
G1 X139.182 Y126.704 E3.12150
G1 X140.497 Y126.000 E3.16263
G1 X141.918 Y125.568 E3.20361
G1 X143.407 Y125.423 E3.24486
G1 X144.881 Y125.568 E3.28572
G1 X146.303 Y126.000 E3.32674
G1 X147.614 Y126.701 E3.36773
G1 X148.765 Y127.645 E3.40879
G1 X149.710 Y128.796 E3.44986
G1 X150.410 Y130.109 E3.49090
G1 X150.842 Y131.532 E3.53193
G1 X150.988 Y133.009 E3.57288
G1 X150.842 Y134.494 E3.61403
G1 X150.410 Y135.914 E3.65497
G1 X149.709 Y137.227 E3.69604
G1 X148.754 Y138.386 E3.73746
G1 X148.321 Y138.319 F7800.000
G10 ; retract
G92 E0
G1 X137.727 Y136.618
G11 ; unretract
G92 E0
G1 F1200.000
G1 X138.783 Y137.674 E0.04214
G1 X139.753 Y138.469 E0.07757
G1 X140.550 Y138.896 E0.10310
G1 X137.513 Y135.859 E0.22436
G1 X137.334 Y135.523 E0.23511
G1 X137.165 Y134.964 E0.25159
G1 X141.447 Y139.246 E0.42258
G1 X142.119 Y139.450 E0.44240
G1 X142.205 Y139.459 E0.44486
G1 X136.953 Y134.207 E0.65458
G1 X136.893 Y133.601 E0.67176
G1 X142.810 Y139.518 E0.90802
G1 X143.412 Y139.574 E0.92510
G1 X136.836 Y132.998 E1.18768
G1 X136.885 Y132.501 E1.20177
G1 X143.909 Y139.525 E1.48224
G1 X144.406 Y139.477 E1.49635
G1 X136.934 Y132.005 E1.79472
G1 X136.961 Y131.730 E1.80250
G1 X137.018 Y131.543 E1.80804
G1 X144.869 Y139.393 E2.12152
G1 X145.287 Y139.266 E2.13387
G1 X137.145 Y131.124 E2.45901
G1 X137.272 Y130.705 E2.47137
G1 X145.706 Y139.139 E2.80816
G1 X145.913 Y139.076 E2.81425
G1 X146.093 Y138.980 E2.82002
G1 X137.431 Y130.318 E3.16590
G1 X137.621 Y129.962 E3.17729
G1 X146.448 Y138.789 E3.52977
G1 X146.804 Y138.599 E3.54116
G1 X137.811 Y129.606 E3.90024
G1 X137.941 Y129.363 E3.90802
G1 X138.019 Y129.268 E3.91149
G1 X147.142 Y138.391 E4.27577
G1 X147.442 Y138.145 E4.28672
G1 X138.265 Y128.968 E4.65315
G1 X138.511 Y128.669 E4.66410
G1 X147.741 Y137.899 E5.03268
G1 X148.041 Y137.653 E5.04363
G1 X138.757 Y128.369 E5.41436
G1 X139.057 Y128.123 E5.42531
G1 X148.288 Y137.354 E5.79390
G1 X148.534 Y137.054 E5.80485
G1 X139.357 Y127.877 E6.17129
G1 X139.657 Y127.631 E6.18224
G1 X148.780 Y136.754 E6.54654
G1 X148.858 Y136.659 E6.55002
G1 X148.988 Y136.416 E6.55779
G1 X139.995 Y127.424 E6.91688
G1 X140.351 Y127.233 E6.92826
G1 X149.178 Y136.060 E7.28073
G1 X149.368 Y135.704 E7.29212
G1 X140.706 Y127.043 E7.63798
G1 X140.889 Y126.945 E7.64383
G1 X141.092 Y126.883 E7.64984
G1 X149.527 Y135.318 E7.98663
G1 X149.654 Y134.899 E7.99898
G1 X141.511 Y126.756 E8.32414
G1 X141.930 Y126.629 E8.33649
G1 X149.781 Y134.481 E8.65002
G1 X149.838 Y134.294 E8.65555
G1 X149.865 Y134.019 E8.66334
G1 X142.392 Y126.545 E8.96178
G1 X142.889 Y126.496 E8.97589
G1 X149.914 Y133.522 E9.25642
G1 X149.963 Y133.025 E9.27052
G1 X143.386 Y126.448 E9.53316
G1 X143.988 Y126.504 E9.55023
G1 X149.907 Y132.423 E9.78658
G1 X149.847 Y131.817 E9.80376
G1 X144.593 Y126.563 E10.01356
G1 X144.681 Y126.572 E10.01606
G1 X145.351 Y126.775 E10.03582
G1 X149.634 Y131.059 E10.20686
G1 X149.465 Y130.500 E10.22335
G1 X149.286 Y130.164 E10.23410
G1 X146.246 Y127.124 E10.35547
G1 X147.045 Y127.552 E10.38107
G1 X148.014 Y128.346 E10.41643
G1 X149.074 Y129.407 E10.45877
G1 Z0.400 F7800.000
G1 X148.315 Y138.408
G1 F3600.000
G1 X147.780 Y138.838 E10.47922
G1 X147.208 Y139.219 E10.49970
G1 X146.598 Y139.546 E10.52030
G1 X145.956 Y139.816 E10.54104
G1 X145.285 Y140.028 E10.56201
G1 X144.587 Y140.176 E10.58325
G1 X144.113 Y140.237 E10.59748
G1 X143.378 Y140.273 E10.61940
G1 X142.645 Y140.237 E10.64125
G1 X141.932 Y140.133 E10.66270
G1 X141.243 Y139.964 E10.68382
G1 X140.582 Y139.733 E10.70469
G1 X139.950 Y139.443 E10.72537
G1 X139.353 Y139.098 E10.74592
G1 X138.792 Y138.700 E10.76639
G1 X138.271 Y138.253 E10.78683
G1 X137.795 Y137.762 E10.80723
G1 X137.364 Y137.226 E10.82769
G1 X136.982 Y136.653 E10.84818
G1 X136.656 Y136.044 E10.86876
G1 X136.384 Y135.402 E10.88953
G1 X136.174 Y134.731 E10.91046
G1 X136.026 Y134.032 E10.93175
G1 X135.964 Y133.558 E10.94600
G1 X135.928 Y132.825 E10.96785
G1 X135.965 Y132.091 E10.98974
G1 X136.068 Y131.378 E11.01117
G1 X136.238 Y130.689 E11.03231
G1 X136.468 Y130.028 E11.05317
G1 X136.758 Y129.397 E11.07383
G1 X137.104 Y128.800 E11.09440
G1 X137.502 Y128.238 E11.11490
G1 X137.948 Y127.717 E11.13530
G1 X138.440 Y127.241 E11.15570
G1 X138.976 Y126.810 E11.17618
G1 X139.549 Y126.428 E11.19668
G1 X140.158 Y126.102 E11.21726
G1 X140.799 Y125.831 E11.23799
G1 X141.471 Y125.620 E11.25896
G1 X142.169 Y125.471 E11.28022
G1 X142.642 Y125.410 E11.29443
G1 X143.378 Y125.374 E11.31636
G1 X144.111 Y125.411 E11.33822
G1 X144.824 Y125.514 E11.35966
G1 X145.511 Y125.684 E11.38074
G1 X146.174 Y125.915 E11.40167
G1 X146.804 Y126.205 E11.42232
G1 X147.403 Y126.551 E11.44291
G1 X147.964 Y126.948 E11.46338
G1 X148.484 Y127.394 E11.48379
G1 X148.961 Y127.886 E11.50419
G1 X149.392 Y128.422 E11.52466
G1 X149.773 Y128.995 E11.54515
G1 X150.100 Y129.603 E11.56573
G1 X150.370 Y130.246 E11.58648
G1 X150.582 Y130.917 E11.60746
G1 X150.730 Y131.615 E11.62870
G1 X150.791 Y132.088 E11.64289
G1 X150.827 Y132.824 E11.66485
G1 X150.791 Y133.557 E11.68669
G1 X150.687 Y134.270 E11.70814
G1 X150.518 Y134.958 E11.72924
G1 X150.287 Y135.620 E11.75013
G1 X149.997 Y136.250 E11.77078
G1 X149.651 Y136.849 E11.79137
G1 X149.255 Y137.409 E11.81182
G1 X148.807 Y137.930 E11.83227
G1 X148.358 Y138.366 E11.85090
G1 X148.585 Y138.713 F7800.000
G1 F3600.000
G1 X148.021 Y139.167 E11.87246
G1 X147.417 Y139.569 E11.89407
G1 X146.773 Y139.914 E11.91581
G1 X146.097 Y140.199 E11.93768
G1 X145.388 Y140.422 E11.95980
G1 X144.655 Y140.578 E11.98212
G1 X144.149 Y140.643 E11.99732
G1 X143.378 Y140.680 E12.02031
G1 X142.605 Y140.643 E12.04334
G1 X141.854 Y140.533 E12.06595
G1 X141.127 Y140.355 E12.08823
G1 X140.430 Y140.111 E12.11025
G1 X139.763 Y139.805 E12.13207
G1 X139.133 Y139.441 E12.15375
G1 X138.542 Y139.021 E12.17534
G1 X137.992 Y138.550 E12.19690
G1 X137.489 Y138.032 E12.21841
G1 X137.035 Y137.467 E12.23998
G1 X136.633 Y136.863 E12.26160
G1 X136.288 Y136.220 E12.28332
G1 X136.002 Y135.543 E12.30522
G1 X135.779 Y134.835 E12.32732
G1 X135.624 Y134.101 E12.34967
G1 X135.558 Y133.594 E12.36488
G1 X135.521 Y132.824 E12.38783
G1 X135.559 Y132.051 E12.41087
G1 X135.668 Y131.300 E12.43348
G1 X135.847 Y130.573 E12.45578
G1 X136.090 Y129.875 E12.47779
G1 X136.396 Y129.210 E12.49960
G1 X136.761 Y128.580 E12.52129
G1 X137.181 Y127.987 E12.54290
G1 X137.651 Y127.438 E12.56442
G1 X138.170 Y126.936 E12.58595
G1 X138.735 Y126.481 E12.60753
G1 X139.339 Y126.079 E12.62915
G1 X139.982 Y125.734 E12.65087
G1 X140.658 Y125.448 E12.67275
G1 X141.367 Y125.226 E12.69486
G1 X142.100 Y125.070 E12.71719
G1 X142.606 Y125.004 E12.73237
G1 X143.378 Y124.967 E12.75538
G1 X144.150 Y125.005 E12.77842
G1 X144.902 Y125.114 E12.80103
G1 X145.627 Y125.293 E12.82327
G1 X146.326 Y125.537 E12.84534
G1 X146.991 Y125.843 E12.86713
G1 X147.623 Y126.208 E12.88884
G1 X148.215 Y126.627 E12.91044
G1 X148.763 Y127.097 E12.93196
G1 X149.267 Y127.616 E12.95349
G1 X149.721 Y128.181 E12.97507
G1 X150.122 Y128.785 E12.99668
G1 X150.468 Y129.428 E13.01840
G1 X150.753 Y130.105 E13.04029
G1 X150.976 Y130.814 E13.06241
G1 X151.132 Y131.547 E13.08474
G1 X151.197 Y132.052 E13.09990
G1 X151.234 Y132.824 E13.12292
G1 X151.197 Y133.596 E13.14594
G1 X151.087 Y134.348 E13.16856
G1 X150.909 Y135.074 E13.19082
G1 X150.665 Y135.772 E13.21286
G1 X150.359 Y136.437 E13.23465
G1 X149.994 Y137.069 E13.25637
G1 X149.576 Y137.660 E13.27794
G1 X149.103 Y138.209 E13.29951
G1 X148.628 Y138.671 E13.31924
G10 ; retract
G92 E0
G1 X143.378 Y141.088 F7800.000
G11 ; unretract
G92 E0
G1 F1800.000
G1 X142.566 Y141.049 E0.02420
G1 X141.776 Y140.933 E0.04798
G1 X141.011 Y140.746 E0.07143
G1 X140.277 Y140.488 E0.09460
G1 X139.576 Y140.167 E0.11756
G1 X138.913 Y139.784 E0.14036
G1 X138.291 Y139.343 E0.16308
G1 X137.713 Y138.847 E0.18576
G1 X137.184 Y138.301 E0.20838
G1 X136.707 Y137.708 E0.23106
G1 X136.283 Y137.072 E0.25380
G1 X135.921 Y136.396 E0.27666
G1 X135.619 Y135.683 E0.29970
G1 X135.385 Y134.938 E0.32296
G1 X135.222 Y134.169 E0.34637
G1 X135.152 Y133.630 E0.36255
G1 X135.113 Y132.824 E0.38659
G1 X135.153 Y132.012 E0.41080
G1 X135.268 Y131.222 E0.43457
G1 X135.456 Y130.457 E0.45803
G1 X135.712 Y129.723 E0.48118
G1 X136.034 Y129.022 E0.50415
G1 X136.418 Y128.359 E0.52696
G1 X136.859 Y127.737 E0.54969
G1 X137.354 Y127.159 E0.57233
G1 X137.900 Y126.630 E0.59498
G1 X138.494 Y126.153 E0.61767
G1 X139.130 Y125.729 E0.64041
G1 X139.806 Y125.367 E0.66326
G1 X140.518 Y125.065 E0.68629
G1 X141.264 Y124.832 E0.70956
G1 X142.032 Y124.668 E0.73294
G1 X142.570 Y124.598 E0.74910
G1 X143.378 Y124.559 E0.77319
G1 X144.190 Y124.599 E0.79740
G1 X144.980 Y124.714 E0.82118
G1 X145.743 Y124.902 E0.84459
G1 X146.479 Y125.160 E0.86780
G1 X147.179 Y125.481 E0.89073
G1 X147.843 Y125.865 E0.91357
G1 X148.465 Y126.305 E0.93628
G1 X149.042 Y126.800 E0.95892
G1 X149.572 Y127.346 E0.98158
G1 X150.049 Y127.940 E1.00426
G1 X150.472 Y128.576 E1.02699
G1 X150.835 Y129.252 E1.04985
G1 X151.135 Y129.965 E1.07288
G1 X151.370 Y130.710 E1.09616
G1 X151.534 Y131.479 E1.11956
G1 X151.603 Y132.016 E1.13570
G1 X151.642 Y132.824 E1.15978
G1 X151.603 Y133.636 E1.18398
G1 X151.486 Y134.426 E1.20777
G1 X151.299 Y135.189 E1.23118
G1 X151.042 Y135.925 E1.25437
G1 X150.721 Y136.625 E1.27730
G1 X150.337 Y137.289 E1.30014
G1 X149.897 Y137.911 E1.32285
G1 X149.400 Y138.488 E1.34553
G1 X148.855 Y139.018 E1.36816
G1 X148.262 Y139.495 E1.39084
G1 X147.626 Y139.919 E1.41358
G1 X146.949 Y140.281 E1.43646
G1 X146.237 Y140.581 E1.45946
G1 X145.492 Y140.816 E1.48273
G1 X144.723 Y140.980 E1.50613
G1 X144.184 Y141.049 E1.52231
G1 X143.438 Y141.085 E1.54457
G1 X143.180 Y140.740 F7800.000
G10 ; retract
G92 E0
G1 X137.156 Y128.914
G11 ; unretract
G92 E0
G1 F1200.000
G1 X138.629 Y127.455 E0.06209
G1 X139.144 Y127.040 E0.08191
G1 X139.695 Y126.673 E0.10174
G1 X140.296 Y126.353 E0.12212
G1 X136.918 Y129.730 E0.26515
G1 X136.733 Y130.134 E0.27847
G1 X136.540 Y130.687 E0.29601
G1 X141.235 Y125.993 E0.49483
G1 X141.543 Y125.896 E0.50450
G1 X142.010 Y125.797 E0.51878
G1 X136.343 Y131.463 E0.75876
G1 X136.248 Y132.138 E0.77916
G1 X142.693 Y125.692 E1.05212
G1 X143.301 Y125.663 E1.07035
G1 X136.217 Y132.747 E1.37035
G1 X136.237 Y133.306 E1.38712
G1 X143.860 Y125.683 E1.70995
G1 X144.384 Y125.738 E1.72574
G1 X136.287 Y133.835 E2.06864
G1 X136.378 Y134.323 E2.08350
G1 X144.880 Y125.821 E2.44355
G1 X145.344 Y125.936 E2.45786
G1 X136.490 Y134.789 E2.83281
G1 X136.629 Y135.230 E2.84663
G1 X145.779 Y126.079 E3.23416
