; generated by PrusaSlicer 2.2.0+win64 on 2020-05-07 at 16:01:11 UTC

; 

; external perimeters extrusion width = 0.45mm
; perimeters extrusion width = 0.45mm
; infill extrusion width = 0.45mm
; solid infill extrusion width = 0.45mm
; top infill extrusion width = 0.40mm
; first layer extrusion width = 0.42mm

M107
M190 S60 ; set bed temperature and wait for it to be reached
M104 S205 ; set temperature
G28 ; home all axes
G29 S1
G1 Z5 F5000 ; lift nozzle
M109 S205 ; set temperature and wait for it to be reached
G21 ; set units to millimeters
G90 ; use absolute coordinates
M82 ; use absolute distances for extrusion
G92 E0
; Filament gcode
G1 Z0.200 F7800.000
G10 ; retract
G92 E0
G1 X137.284 Y69.010
G11 ; unretract
G92 E0
G1 F1200.000
G1 X138.379 Y67.184 E0.06992
G1 X139.761 Y65.508 E0.14126
G1 X141.356 Y64.079 E0.21159
G1 X143.118 Y62.917 E0.28089
G1 X145.102 Y62.000 E0.35265
G1 X147.146 Y61.406 E0.42256
G1 X149.555 Y61.114 E0.50226
G1 X151.198 Y61.133 E0.55621
G1 X152.826 Y61.358 E0.61017
G1 X154.881 Y61.910 E0.68005
G1 X157.049 Y62.870 E0.75790
G1 X158.702 Y63.935 E0.82250
G1 X160.459 Y65.472 E0.89914
G1 X161.848 Y67.143 E0.97049
G1 X162.971 Y69.010 E1.04204
G1 X163.842 Y71.169 E1.11849
G1 X164.277 Y72.921 E1.17777
G1 X181.869 Y170.800 E4.44344
G1 X182.233 Y173.463 E4.53169
G1 X182.375 Y176.200 E4.62169
G1 X182.270 Y179.088 E4.71660
G1 X181.987 Y181.519 E4.79698
G1 X181.515 Y183.908 E4.87695
G1 X180.722 Y186.726 E4.97308
G1 X179.760 Y189.260 E5.06206
G1 X178.572 Y191.736 E5.15227
G1 X177.087 Y194.238 E5.24779
G1 X175.501 Y196.451 E5.33720
G1 X173.934 Y198.313 E5.41714
G1 X172.229 Y200.043 E5.49690
G1 X170.010 Y201.962 E5.59324
G1 X167.801 Y203.553 E5.68263
G1 X165.461 Y204.956 E5.77222
G1 X162.850 Y206.223 E5.86754
G1 X160.301 Y207.199 E5.95716
G1 X157.967 Y207.891 E6.03709
G1 X155.573 Y208.399 E6.11747
G1 X152.688 Y208.774 E6.21299
G1 X149.987 Y208.886 E6.30177
G1 X147.237 Y208.768 E6.39218
G1 X144.353 Y208.386 E6.48770
G1 X141.694 Y207.798 E6.57712
G1 X139.365 Y207.090 E6.65705
G1 X137.081 Y206.193 E6.73763
G1 X134.467 Y204.917 E6.83315
G1 X132.131 Y203.509 E6.92275
G1 X129.926 Y201.912 E7.01214
G1 X127.720 Y199.997 E7.10807
G1 X126.011 Y198.253 E7.18824
G1 X124.448 Y196.386 E7.26821
G1 X122.868 Y194.170 E7.35759
G1 X121.389 Y191.665 E7.45311
G1 X120.210 Y189.191 E7.54311
G1 X119.252 Y186.650 E7.63230
G1 X118.467 Y183.836 E7.72823
G1 X118.000 Y181.439 E7.80840
G1 X117.724 Y179.014 E7.88857
G1 X117.625 Y176.175 E7.98184
G1 X117.773 Y173.388 E8.07348
G1 X118.144 Y170.723 E8.16185
G1 X135.985 Y72.885 E11.42767
G1 X136.405 Y71.199 E11.48473
G1 X137.261 Y69.066 E11.56022
G10 ; retract
G92 E0
G1 X159.880 Y110.364 F7800.000
G11 ; unretract
G92 E0
G1 F1200.000
G1 X158.976 Y111.574 E0.04961
G1 X157.925 Y112.660 E0.09921
G1 X156.744 Y113.601 E0.14882
G1 X155.452 Y114.385 E0.19842
G1 X154.071 Y114.996 E0.24803
G1 X152.623 Y115.426 E0.29764
G1 X151.132 Y115.667 E0.34724
G1 X149.622 Y115.715 E0.39685
G1 X148.118 Y115.570 E0.44645
G1 X146.645 Y115.234 E0.49606
G1 X145.228 Y114.712 E0.54566
G1 X143.888 Y114.014 E0.59527
G1 X142.649 Y113.149 E0.64488
G1 X141.531 Y112.134 E0.69448
G1 X140.552 Y110.984 E0.74409
G1 X139.728 Y109.718 E0.79369
G1 X139.072 Y108.357 E0.84330
G1 X138.596 Y106.923 E0.89291
G1 X138.308 Y105.440 E0.94251
G1 X138.211 Y103.933 E0.99212
G1 X138.308 Y102.425 E1.04172
G1 X138.596 Y100.942 E1.09133
G1 X139.072 Y99.509 E1.14093
G1 X139.728 Y98.148 E1.19054
G1 X140.552 Y96.882 E1.24015
G1 X141.531 Y95.732 E1.28975
G1 X142.649 Y94.716 E1.33936
G1 X143.888 Y93.852 E1.38896
G1 X145.228 Y93.153 E1.43857
G1 X146.645 Y92.631 E1.48818
G1 X148.118 Y92.295 E1.53778
G1 X149.537 Y92.158 E1.58458
G1 X151.130 Y92.198 E1.63690
G1 X152.623 Y92.440 E1.68658
G1 X154.071 Y92.869 E1.73618
G1 X155.452 Y93.481 E1.78579
G1 X156.744 Y94.264 E1.83540
G1 X157.925 Y95.206 E1.88500
G1 X158.976 Y96.291 E1.93461
G1 X159.880 Y97.502 E1.98421
G1 X160.621 Y98.818 E2.03382
G1 X161.188 Y100.218 E2.08342
G1 X161.571 Y101.679 E2.13303
G1 X161.764 Y103.177 E2.18264
G1 X161.764 Y104.688 E2.23224
G1 X161.571 Y106.186 E2.28185
G1 X161.188 Y107.647 E2.33145
G1 X160.621 Y109.048 E2.38106
G1 X159.909 Y110.312 E2.42870
G1 X159.563 Y110.158 F7800.000
G1 F1200.000
G1 X158.688 Y111.330 E2.47671
G1 X157.671 Y112.380 E2.52473
G1 X156.528 Y113.292 E2.57274
G1 X155.278 Y114.050 E2.62076
G1 X153.940 Y114.641 E2.66878
G1 X152.539 Y115.057 E2.71679
G1 X151.095 Y115.291 E2.76481
G1 X149.634 Y115.338 E2.81282
G1 X148.178 Y115.197 E2.86084
G1 X146.753 Y114.872 E2.90885
G1 X145.381 Y114.367 E2.95687
G1 X144.084 Y113.691 E3.00489
G1 X142.885 Y112.854 E3.05290
G1 X141.803 Y111.871 E3.10092
G1 X140.855 Y110.758 E3.14893
G1 X140.057 Y109.532 E3.19695
G1 X139.423 Y108.215 E3.24497
G1 X138.962 Y106.827 E3.29298
G1 X138.682 Y105.392 E3.34100
G1 X138.589 Y103.933 E3.38901
G1 X138.682 Y102.474 E3.43703
G1 X138.962 Y101.038 E3.48505
G1 X139.423 Y99.651 E3.53306
G1 X140.057 Y98.333 E3.58108
G1 X140.855 Y97.108 E3.62909
G1 X141.803 Y95.994 E3.67711
G1 X142.885 Y95.011 E3.72512
G1 X144.084 Y94.175 E3.77314
G1 X145.381 Y93.499 E3.82116
G1 X146.753 Y92.994 E3.86917
G1 X148.178 Y92.668 E3.91719
G1 X149.550 Y92.536 E3.96244
G1 X151.095 Y92.574 E4.01317
G1 X152.539 Y92.808 E4.06121
G1 X153.940 Y93.224 E4.10923
G1 X155.278 Y93.816 E4.15725
G1 X156.528 Y94.574 E4.20526
G1 X157.671 Y95.486 E4.25328
G1 X158.688 Y96.536 E4.30129
G1 X159.563 Y97.708 E4.34931
G1 X160.280 Y98.982 E4.39733
G1 X160.829 Y100.337 E4.44534
G1 X161.200 Y101.751 E4.49336
G1 X161.387 Y103.202 E4.54137
G1 X161.387 Y104.664 E4.58939
G1 X161.200 Y106.114 E4.63741
G1 X160.829 Y107.528 E4.68542
G1 X160.280 Y108.884 E4.73344
G1 X159.592 Y110.105 E4.77948
G1 X159.744 Y110.514 F7800.000
G10 ; retract
G92 E0
G1 X152.145 Y81.300
G11 ; unretract
G92 E0
G1 F1200.000
G1 X151.005 Y81.577 E0.03852
G1 X149.834 Y81.633 E0.07703
G1 X148.673 Y81.466 E0.11555
G1 X147.564 Y81.082 E0.15406
G1 X146.549 Y80.496 E0.19258
G1 X145.662 Y79.727 E0.23109
G1 X144.937 Y78.806 E0.26961
G1 X144.400 Y77.763 E0.30813
G1 X144.069 Y76.638 E0.34664
G1 X143.958 Y75.470 E0.38516
G1 X144.069 Y74.303 E0.42367
G1 X144.400 Y73.177 E0.46219
G1 X144.937 Y72.135 E0.50070
G1 X145.662 Y71.213 E0.53922
G1 X146.549 Y70.445 E0.57774
G1 X147.564 Y69.858 E0.61625
G1 X148.673 Y69.475 E0.65477
G1 X149.762 Y69.318 E0.69090
G1 X151.000 Y69.362 E0.73157
G1 X152.145 Y69.640 E0.77028
G1 X153.212 Y70.127 E0.80879
G1 X154.167 Y70.808 E0.84731
G1 X154.977 Y71.656 E0.88582
G1 X155.611 Y72.643 E0.92434
G1 X156.047 Y73.732 E0.96285
G1 X156.269 Y74.884 E1.00137
G1 X156.269 Y76.057 E1.03989
G1 X156.047 Y77.208 E1.07840
G1 X155.611 Y78.297 E1.11692
G1 X154.977 Y79.284 E1.15543
G1 X154.167 Y80.133 E1.19395
G1 X153.212 Y80.813 E1.23246
G1 X152.200 Y81.275 E1.26901
G1 X152.021 Y80.942 F7800.000
G1 F1200.000
G1 X150.951 Y81.202 E1.30516
G1 X149.852 Y81.254 E1.34131
G1 X148.762 Y81.098 E1.37746
G1 X147.722 Y80.737 E1.41361
G1 X146.768 Y80.187 E1.44976
G1 X145.936 Y79.466 E1.48591
G1 X145.256 Y78.601 E1.52207
G1 X144.751 Y77.622 E1.55822
G1 X144.441 Y76.566 E1.59437
G1 X144.337 Y75.470 E1.63052
G1 X144.441 Y74.374 E1.66667
G1 X144.751 Y73.318 E1.70282
G1 X145.256 Y72.339 E1.73897
G1 X145.936 Y71.474 E1.77512
G1 X146.768 Y70.753 E1.81127
G1 X147.722 Y70.203 E1.84742
G1 X148.762 Y69.843 E1.88357
G1 X149.782 Y69.696 E1.91742
G1 X150.948 Y69.738 E1.95572
G1 X152.021 Y69.998 E1.99199
G1 X153.023 Y70.455 E2.02814
G1 X153.919 Y71.094 E2.06429
G1 X154.679 Y71.891 E2.10044
G1 X155.274 Y72.817 E2.13659
G1 X155.683 Y73.839 E2.17274
G1 X155.892 Y74.920 E2.20890
G1 X155.892 Y76.021 E2.24505
G1 X155.683 Y77.101 E2.28120
G1 X155.274 Y78.124 E2.31735
G1 X154.679 Y79.050 E2.35350
G1 X153.919 Y79.846 E2.38965
G1 X153.023 Y80.485 E2.42580
G1 X152.076 Y80.917 E2.45998
G1 X151.897 Y80.584 F7800.000
G1 F1200.000
G1 X150.897 Y80.827 E2.49377
G1 X149.870 Y80.876 E2.52755
G1 X148.851 Y80.729 E2.56134
G1 X147.879 Y80.393 E2.59513
G1 X146.988 Y79.878 E2.62891
G1 X146.211 Y79.205 E2.66270
G1 X145.575 Y78.396 E2.69648
G1 X145.103 Y77.481 E2.73027
G1 X144.813 Y76.494 E2.76406
G1 X144.715 Y75.470 E2.79784
G1 X144.813 Y74.446 E2.83163
G1 X145.103 Y73.459 E2.86541
G1 X145.575 Y72.544 E2.89920
G1 X146.211 Y71.735 E2.93299
G1 X146.988 Y71.062 E2.96677
G1 X147.879 Y70.547 E3.00056
G1 X148.851 Y70.211 E3.03434
G1 X149.803 Y70.074 E3.06590
G1 X150.896 Y70.113 E3.10184
G1 X151.897 Y70.356 E3.13567
G1 X152.833 Y70.783 E3.16945
G1 X153.671 Y71.380 E3.20324
G1 X154.381 Y72.125 E3.23702
G1 X154.938 Y72.990 E3.27081
G1 X155.320 Y73.945 E3.30460
G1 X155.515 Y74.956 E3.33838
G1 X155.515 Y75.985 E3.37217
G1 X155.320 Y76.995 E3.40595
G1 X154.938 Y77.950 E3.43974
G1 X154.381 Y78.815 E3.47353
G1 X153.671 Y79.560 E3.50731
G1 X152.833 Y80.157 E3.54110
G1 X151.952 Y80.559 E3.57291
G1 X151.822 Y80.977 F7800.000
G10 ; retract
G92 E0
G1 X161.287 Y98.918
G11 ; unretract
G92 E0
G1 F1200.000
G1 X161.091 Y98.975 E0.00670
G1 X160.961 Y98.654 E0.01807
G1 X160.196 Y97.295 E0.06927
G1 X159.264 Y96.046 E0.12047
G1 X158.179 Y94.926 E0.17166
G1 X156.960 Y93.954 E0.22286
G1 X155.627 Y93.146 E0.27405
G1 X154.201 Y92.515 E0.32525
G1 X152.707 Y92.071 E0.37645
G1 X151.165 Y91.822 E0.42775
G1 X149.523 Y91.781 E0.48166
G1 X148.058 Y91.922 E0.53001
G1 X146.538 Y92.269 E0.58121
G1 X145.075 Y92.807 E0.63240
G1 X143.693 Y93.529 E0.68360
G1 X142.414 Y94.421 E0.73480
G1 X141.260 Y95.469 E0.78599
G1 X140.249 Y96.656 E0.83719
G1 X139.399 Y97.962 E0.88838
G1 X139.202 Y98.371 E0.90327
G1 X139.014 Y98.310 E0.90976
G1 X143.395 Y74.286 E1.71168
G1 X143.656 Y73.276 E1.74592
G1 X144.046 Y72.355 E1.77876
G1 X144.566 Y71.501 E1.81160
G1 X145.205 Y70.732 E1.84444
G1 X145.949 Y70.064 E1.87728
G1 X146.783 Y69.512 E1.91012
G1 X147.689 Y69.087 E1.94296
G1 X148.646 Y68.800 E1.97580
G1 X149.636 Y68.655 E2.00864
G1 X150.636 Y68.656 E2.04148
G1 X151.625 Y68.804 E2.07432
G1 X152.582 Y69.094 E2.10716
G1 X153.487 Y69.520 E2.14000
G1 X154.319 Y70.074 E2.17284
G1 X155.062 Y70.744 E2.20568
G1 X155.699 Y71.515 E2.23852
G1 X156.217 Y72.371 E2.27136
G1 X156.604 Y73.293 E2.30420
G1 X156.863 Y74.303 E2.33845
G1 X161.277 Y98.859 E3.15777
G10 ; retract
G92 E0
G1 X155.773 Y119.454 F7800.000
G11 ; unretract
G92 E0
G1 F1200.000
G1 X157.430 Y120.169 E0.05926
G1 X158.999 Y121.060 E0.11852
G1 X160.463 Y122.115 E0.17777
G1 X161.804 Y123.323 E0.23703
G1 X163.007 Y124.668 E0.29629
G1 X164.057 Y126.135 E0.35555
G1 X164.943 Y127.708 E0.41481
G1 X165.654 Y129.369 E0.47416
G1 X166.198 Y131.188 E0.53651
G1 X166.517 Y132.865 E0.59256
G1 X166.660 Y134.664 E0.65182
G1 X166.608 Y136.468 E0.71108
G1 X166.361 Y138.258 E0.77043
G1 X165.889 Y140.098 E0.83278
G1 X165.298 Y141.699 E0.88884
G1 X164.493 Y143.314 E0.94810
G1 X163.519 Y144.833 E1.00735
G1 X162.386 Y146.238 E1.06661
G1 X161.108 Y147.511 E1.12587
G1 X159.700 Y148.640 E1.18513
G1 X158.177 Y149.609 E1.24439
G1 X156.559 Y150.408 E1.30365
G1 X154.865 Y151.027 E1.36290
G1 X153.113 Y151.460 E1.42216
G1 X151.324 Y151.701 E1.48142
G1 X149.520 Y151.746 E1.54068
G1 X147.722 Y151.597 E1.59994
G1 X145.950 Y151.254 E1.65919
G1 X144.226 Y150.721 E1.71845
G1 X142.570 Y150.005 E1.77771
G1 X141.000 Y149.115 E1.83697
G1 X139.536 Y148.059 E1.89623
G1 X138.195 Y146.852 E1.95549
G1 X136.992 Y145.507 E2.01474
G1 X135.942 Y144.040 E2.07400
G1 X135.057 Y142.467 E2.13326
G1 X134.346 Y140.808 E2.19252
G1 X133.820 Y139.082 E2.25178
G1 X133.483 Y137.310 E2.31103
G1 X133.339 Y135.511 E2.37029
G1 X133.391 Y133.707 E2.42955
G1 X133.638 Y131.919 E2.48881
G1 X134.076 Y130.169 E2.54807
G1 X134.701 Y128.476 E2.60733
G1 X135.506 Y126.861 E2.66658
G1 X136.480 Y125.342 E2.72584
G1 X137.613 Y123.937 E2.78510
G1 X138.891 Y122.663 E2.84436
G1 X140.300 Y121.535 E2.90362
G1 X141.822 Y120.566 E2.96287
G1 X143.440 Y119.767 E3.02213
G1 X145.135 Y119.147 E3.08139
G1 X146.887 Y118.715 E3.14065
G1 X148.675 Y118.474 E3.19991
G1 X150.479 Y118.428 E3.25917
G1 X152.277 Y118.578 E3.31842
G1 X154.049 Y118.921 E3.37768
G1 X155.716 Y119.436 E3.43497
G1 X155.642 Y119.808 F7800.000
G1 F1200.000
G1 X157.261 Y120.507 E3.49289
G1 X158.795 Y121.378 E3.55080
G1 X160.226 Y122.409 E3.60872
G1 X161.536 Y123.589 E3.66663
G1 X162.712 Y124.904 E3.72455
G1 X163.739 Y126.338 E3.78246
G1 X164.604 Y127.875 E3.84038
G1 X165.299 Y129.498 E3.89835
G1 X165.831 Y131.278 E3.95936
G1 X166.142 Y132.916 E4.01411
G1 X166.283 Y134.674 E4.07202
G1 X166.232 Y136.437 E4.12994
G1 X165.991 Y138.186 E4.18791
G1 X165.529 Y139.985 E4.24892
G1 X164.951 Y141.549 E4.30367
G1 X164.165 Y143.128 E4.36158
G1 X163.213 Y144.612 E4.41950
G1 X162.105 Y145.985 E4.47741
G1 X160.856 Y147.230 E4.53533
G1 X159.480 Y148.333 E4.59324
G1 X157.992 Y149.280 E4.65116
G1 X156.411 Y150.061 E4.70908
G1 X154.754 Y150.666 E4.76699
G1 X153.042 Y151.089 E4.82491
G1 X151.294 Y151.324 E4.88282
G1 X149.531 Y151.369 E4.94074
G1 X147.774 Y151.223 E4.99865
G1 X146.042 Y150.888 E5.05657
G1 X144.357 Y150.367 E5.11448
G1 X142.738 Y149.667 E5.17240
G1 X141.204 Y148.797 E5.23031
G1 X139.773 Y147.766 E5.28823
G1 X138.463 Y146.586 E5.34615
G1 X137.287 Y145.271 E5.40406
G1 X136.261 Y143.837 E5.46198
G1 X135.395 Y142.300 E5.51989
G1 X134.701 Y140.679 E5.57781
G1 X134.186 Y138.992 E5.63572
G1 X133.857 Y137.259 E5.69364
G1 X133.717 Y135.501 E5.75155
G1 X133.767 Y133.738 E5.80947
G1 X134.008 Y131.991 E5.86738
G1 X134.437 Y130.280 E5.92530
G1 X135.048 Y128.626 E5.98322
G1 X135.834 Y127.047 E6.04113
G1 X136.786 Y125.563 E6.09905
G1 X137.894 Y124.190 E6.15696
G1 X139.143 Y122.945 E6.21488
G1 X140.519 Y121.842 E6.27279
G1 X142.007 Y120.895 E6.33071
G1 X143.588 Y120.114 E6.38862
G1 X145.245 Y119.509 E6.44654
G1 X146.957 Y119.086 E6.50445
G1 X148.705 Y118.851 E6.56237
G1 X150.468 Y118.806 E6.62029
G1 X152.226 Y118.952 E6.67820
G1 X153.957 Y119.287 E6.73612
G1 X155.585 Y119.790 E6.79206
G1 X155.511 Y120.162 F7800.000
G1 F1200.000
G1 X157.093 Y120.846 E6.84863
G1 X158.591 Y121.696 E6.90521
G1 X159.989 Y122.703 E6.96178
G1 X161.269 Y123.856 E7.01835
G1 X162.417 Y125.140 E7.07493
G1 X163.420 Y126.541 E7.13150
G1 X164.265 Y128.042 E7.18807
G1 X164.944 Y129.626 E7.24466
G1 X165.464 Y131.367 E7.30433
G1 X165.768 Y132.966 E7.35777
G1 X165.905 Y134.683 E7.41434
G1 X165.856 Y136.405 E7.47092
G1 X165.620 Y138.113 E7.52751
G1 X165.168 Y139.873 E7.58718
G1 X164.605 Y141.399 E7.64062
G1 X163.837 Y142.941 E7.69719
G1 X162.906 Y144.391 E7.75376
G1 X161.825 Y145.732 E7.81034
G1 X160.605 Y146.948 E7.86691
G1 X159.260 Y148.025 E7.92348
G1 X157.807 Y148.951 E7.98005
G1 X156.262 Y149.714 E8.03663
G1 X154.644 Y150.305 E8.09320
G1 X152.972 Y150.718 E8.14977
G1 X151.264 Y150.948 E8.20635
G1 X149.542 Y150.991 E8.26292
G1 X147.825 Y150.849 E8.31949
G1 X146.134 Y150.521 E8.37606
G1 X144.488 Y150.013 E8.43264
G1 X142.906 Y149.329 E8.48921
G1 X141.408 Y148.479 E8.54578
G1 X140.011 Y147.472 E8.60235
G1 X138.730 Y146.319 E8.65893
G1 X137.582 Y145.035 E8.71550
G1 X136.579 Y143.634 E8.77207
G1 X135.734 Y142.133 E8.82864
G1 X135.056 Y140.549 E8.88522
G1 X134.553 Y138.901 E8.94179
G1 X134.231 Y137.209 E8.99836
G1 X134.094 Y135.492 E9.05494
G1 X134.144 Y133.769 E9.11151
G1 X134.379 Y132.063 E9.16808
G1 X134.798 Y130.392 E9.22465
G1 X135.395 Y128.776 E9.28123
G1 X136.163 Y127.234 E9.33780
G1 X137.093 Y125.784 E9.39437
G1 X138.174 Y124.443 E9.45094
G1 X139.395 Y123.227 E9.50752
G1 X140.739 Y122.149 E9.56409
G1 X142.192 Y121.224 E9.62066
G1 X143.737 Y120.461 E9.67724
G1 X145.355 Y119.870 E9.73381
G1 X147.028 Y119.457 E9.79038
G1 X148.735 Y119.227 E9.84695
G1 X150.457 Y119.183 E9.90353
G1 X152.174 Y119.326 E9.96010
G1 X153.865 Y119.654 E10.01667
G1 X155.454 Y120.144 E10.07127
G1 X155.819 Y119.906 F7800.000
G10 ; retract
G92 E0
G1 X152.042 Y154.438
G11 ; unretract
G92 E0
G1 F1200.000
G1 X154.072 Y154.721 E0.06731
G1 X156.065 Y155.190 E0.13454
G1 X158.007 Y155.841 E0.20177
G1 X159.880 Y156.668 E0.26900
G1 X161.668 Y157.664 E0.33623
G1 X163.357 Y158.821 E0.40346
G1 X164.932 Y160.129 E0.47070
G1 X166.380 Y161.576 E0.53793
G1 X167.688 Y163.152 E0.60516
G1 X168.845 Y164.841 E0.67239
G1 X169.841 Y166.629 E0.73962
G1 X170.624 Y168.403 E0.80329
G1 X171.318 Y170.441 E0.87400
G1 X171.788 Y172.436 E0.94130
G1 X172.070 Y174.464 E1.00853
