; generated by PrusaSlicer 2.2.0+win64 on 2020-10-10 at 20:50:58 UTC

; 

; external perimeters extrusion width = 0.45mm
; perimeters extrusion width = 0.45mm
; infill extrusion width = 0.45mm
; solid infill extrusion width = 0.45mm
; top infill extrusion width = 0.40mm
; first layer extrusion width = 0.42mm

M107
M190 S85 ; set bed temperature and wait for it to be reached
M104 S230 ; set temperature
G28 ; home all axes
;G29 S1
G1 Z5 F5000 ;E lift nozzle
M109 S230 ; set temperature and wait for it to be reached
G21 ; set units to millimeters
G90 ; use absolute coordinates
M82 ; use absolute distances for extrusion
G92 E0
; Filament gcode
G29 S1 P"heightmap_petg.csv"
G1 Z0.200 F7800.000
G10 ; retract
G92 E0
G1 X25.163 Y17.725
G11 ; unretract
G92 E0
G1 F1800.000
G1 X26.189 Y16.433 E0.05417
G1 X27.505 Y15.311 E0.11096
G1 X29.023 Y14.466 E0.16800
G1 X30.670 Y13.939 E0.22479
G1 X32.396 Y13.746 E0.28183
G1 X252.507 Y13.746 E7.50991
G1 X254.185 Y13.910 E7.56527
G1 X255.801 Y14.392 E7.62064
G1 X257.294 Y15.175 E7.67600
G1 X258.609 Y16.230 E7.73136
G1 X259.698 Y17.517 E7.78672
G1 X260.519 Y18.989 E7.84209
G1 X261.044 Y20.591 E7.89745
G1 X261.251 Y22.265 E7.95281
G1 X261.254 Y242.595 E15.18809
G1 X261.080 Y244.235 E15.24226
G1 X260.603 Y245.814 E15.29643
G1 X259.837 Y247.275 E15.35060
G1 X258.811 Y248.567 E15.40477
G1 X257.471 Y249.706 E15.46252
G1 X255.937 Y250.551 E15.52003
G1 X254.258 Y251.076 E15.57778
G1 X252.509 Y251.254 E15.63553
G1 X32.405 Y251.254 E22.86337
G1 X30.765 Y251.080 E22.91754
G1 X29.186 Y250.603 E22.97171
G1 X27.725 Y249.837 E23.02588
G1 X26.433 Y248.811 E23.08005
G1 X25.294 Y247.471 E23.13780
G1 X24.449 Y245.937 E23.19531
G1 X23.924 Y244.258 E23.25306
G1 X23.746 Y242.509 E23.31081
G1 X23.746 Y22.405 E30.53865
G1 X23.920 Y20.765 E30.59282
G1 X24.397 Y19.186 E30.64699
G1 X25.135 Y17.778 E30.69919
G1 X25.468 Y17.953 F7800.000
G1 F1800.000
G1 X26.466 Y16.689 E30.75204
G1 X27.733 Y15.612 E30.80666
G1 X29.181 Y14.808 E30.86105
G1 X30.759 Y14.306 E30.91543
G1 X32.405 Y14.123 E30.96982
G1 X252.507 Y14.123 E38.19760
G1 X254.113 Y14.280 E38.25058
G1 X255.666 Y14.744 E38.30380
G1 X257.094 Y15.495 E38.35679
G1 X258.352 Y16.506 E38.40977
G1 X259.392 Y17.739 E38.46275
G1 X260.177 Y19.148 E38.51574
G1 X260.677 Y20.682 E38.56872
G1 X260.874 Y22.284 E38.62171
G1 X260.877 Y242.586 E45.85606
G1 X260.712 Y244.155 E45.90788
G1 X260.253 Y245.672 E45.95993
G1 X259.517 Y247.076 E46.01198
G1 X258.534 Y248.311 E46.06379
G1 X257.256 Y249.396 E46.11888
G1 X255.780 Y250.208 E46.17420
G1 X254.178 Y250.707 E46.22929
G1 X252.509 Y250.877 E46.28438
G1 X32.414 Y250.877 E53.51192
G1 X30.845 Y250.712 E53.56373
G1 X29.328 Y250.253 E53.61578
G1 X27.924 Y249.517 E53.66783
G1 X26.689 Y248.534 E53.71965
G1 X25.604 Y247.256 E53.77474
G1 X24.792 Y245.780 E53.83006
G1 X24.293 Y244.178 E53.88515
G1 X24.123 Y242.509 E53.94024
G1 X24.123 Y22.414 E61.16778
G1 X24.288 Y20.845 E61.21959
G1 X24.747 Y19.328 E61.27164
G1 X25.440 Y18.006 E61.32067
G10 ; retract
G92 E0
G1 X143.664 Y117.587 F7800.000
G11 ; unretract
G92 E0
G1 F1800.000
G1 X127.587 Y117.587 E0.52794
G1 X127.587 Y147.413 E1.50737
G1 X184.914 Y147.413 E3.38988
G1 X184.914 Y90.086 E5.27239
G1 X100.086 Y90.086 E8.05799
G1 X100.086 Y174.914 E10.84359
G1 X212.414 Y174.914 E14.53226
G1 X212.414 Y62.585 E18.22093
G1 X72.586 Y62.585 E22.81267
G1 X72.586 Y202.415 E27.40443
G1 X239.911 Y202.415 E32.89913
G1 X239.911 Y35.089 E38.39383
G1 X45.089 Y35.089 E44.79148
G1 X45.089 Y229.911 E51.18913
G1 X251.336 Y229.911 E57.96194
G1 X251.336 Y241.336 E58.33711
G1 X33.664 Y241.336 E65.48508
G1 X33.664 Y23.664 E72.63305
G1 X251.336 Y23.664 E79.78102
G1 X251.336 Y213.835 E86.02592
G1 X61.165 Y213.835 E92.27079
G1 X61.165 Y51.165 E97.61260
G1 X223.835 Y51.165 E102.95439
G1 X223.835 Y186.333 E107.39309
G1 X88.667 Y186.333 E111.83178
G1 X88.667 Y78.667 E115.36737
G1 X196.333 Y78.667 E118.90296
G1 X196.333 Y158.837 E121.53561
G1 X116.163 Y158.837 E124.16827
G1 X116.163 Y106.163 E125.89798
G1 X168.837 Y106.163 E127.62771
G1 X168.837 Y131.336 E128.45433
G1 X143.664 Y131.336 E129.28097
G1 X143.664 Y117.647 E129.73049
G1 X143.287 Y117.964 F7800.000
G1 F1800.000
G1 X127.964 Y117.964 E130.23366
G1 X127.964 Y147.036 E131.18832
G1 X184.537 Y147.036 E133.04607
G1 X184.537 Y90.463 E134.90381
G1 X100.463 Y90.463 E137.66465
G1 X100.463 Y174.537 E140.42548
G1 X212.037 Y174.537 E144.08939
G1 X212.037 Y62.963 E147.75330
G1 X72.963 Y62.963 E152.32027
G1 X72.963 Y202.037 E156.88726
G1 X239.534 Y202.037 E162.35720
G1 X239.534 Y35.466 E167.82713
G1 X45.466 Y35.466 E174.20002
G1 X45.466 Y229.534 E180.57290
G1 X251.713 Y229.534 E187.34571
G1 X251.713 Y241.713 E187.74564
G1 X33.287 Y241.713 E194.91838
G1 X33.287 Y23.287 E202.09112
G1 X251.713 Y23.287 E209.26386
G1 X251.713 Y214.212 E215.53351
G1 X60.788 Y214.212 E221.80316
G1 X60.788 Y50.788 E227.16973
G1 X224.212 Y50.788 E232.53628
G1 X224.212 Y186.710 E236.99975
G1 X88.290 Y186.710 E241.46320
G1 X88.290 Y78.290 E245.02356
G1 X196.710 Y78.290 E248.58392
G1 X196.710 Y159.214 E251.24133
G1 X115.786 Y159.214 E253.89876
G1 X115.786 Y105.786 E255.65323
G1 X169.214 Y105.786 E257.40773
G1 X169.214 Y131.713 E258.25912
G1 X143.287 Y131.713 E259.11052
G1 X143.287 Y118.024 E259.56003
G1 X142.910 Y118.341 F7800.000
G1 F1800.000
G1 X128.341 Y118.341 E260.03844
G1 X128.341 Y146.659 E260.96834
G1 X184.160 Y146.659 E262.80132
G1 X184.160 Y90.840 E264.63430
G1 X100.840 Y90.840 E267.37037
G1 X100.840 Y174.160 E270.10644
G1 X211.660 Y174.160 E273.74558
G1 X211.660 Y63.340 E277.38472
G1 X73.340 Y63.340 E281.92693
G1 X73.340 Y201.660 E286.46916
G1 X239.157 Y201.660 E291.91432
G1 X239.157 Y35.843 E297.35949
G1 X45.843 Y35.843 E303.70762
G1 X45.843 Y229.157 E310.05573
G1 X252.090 Y229.157 E316.82855
G1 X252.090 Y242.090 E317.25324
G1 X32.910 Y242.090 E324.45074
G1 X32.910 Y22.910 E331.64825
G1 X252.090 Y22.910 E338.84575
G1 X252.090 Y214.589 E345.14017
G1 X60.411 Y214.589 E351.43458
G1 X60.411 Y50.411 E356.82592
G1 X224.589 Y50.411 E362.21724
G1 X224.589 Y187.087 E366.70547
G1 X87.913 Y187.087 E371.19369
G1 X87.913 Y77.913 E374.77881
G1 X197.087 Y77.913 E378.36393
G1 X197.087 Y159.591 E381.04611
G1 X115.409 Y159.591 E383.72831
G1 X115.409 Y105.409 E385.50754
G1 X169.591 Y105.409 E387.28680
G1 X169.591 Y132.090 E388.16296
G1 X142.910 Y132.090 E389.03913
G1 X142.910 Y118.401 E389.48864
G1 X142.767 Y117.968 F7800.000
G1 X143.507 Y117.493
G1 F1800.000
G1 X132.441 Y106.427 E390.00303
G1 X131.907 Y106.427 E390.02058
G1 X142.803 Y117.323 E390.52709
G1 X142.269 Y117.323 E390.54463
G1 X131.373 Y106.427 E391.05114
G1 X130.840 Y106.427 E391.06868
G1 X141.736 Y117.323 E391.57519
G1 X141.202 Y117.323 E391.59273
G1 X130.306 Y106.427 E392.09924
G1 X129.772 Y106.427 E392.11679
G1 X140.668 Y117.323 E392.62329
G1 X140.134 Y117.323 E392.64084
G1 X129.238 Y106.427 E393.14734
G1 X128.704 Y106.427 E393.16489
G1 X139.600 Y117.323 E393.67139
G1 X139.067 Y117.323 E393.68894
G1 X128.171 Y106.427 E394.19544
G1 X127.637 Y106.427 E394.21299
G1 X138.533 Y117.323 E394.71949
G1 X137.999 Y117.323 E394.73704
G1 X127.103 Y106.427 E395.24355
G1 X126.569 Y106.427 E395.26109
G1 X137.465 Y117.323 E395.76760
G1 X136.931 Y117.323 E395.78514
G1 X126.035 Y106.427 E396.29165
G1 X125.502 Y106.427 E396.30919
G1 X136.398 Y117.323 E396.81570
G1 X135.864 Y117.323 E396.83325
G1 X124.968 Y106.427 E397.33975
G1 X124.434 Y106.427 E397.35730
G1 X135.330 Y117.323 E397.86380
G1 X134.796 Y117.323 E397.88135
G1 X123.900 Y106.427 E398.38785
G1 X123.367 Y106.427 E398.40540
G1 X134.262 Y117.323 E398.91190
G1 X133.729 Y117.323 E398.92945
G1 X122.833 Y106.427 E399.43596
G1 X122.299 Y106.427 E399.45350
G1 X133.195 Y117.323 E399.96001
G1 X132.661 Y117.323 E399.97755
G1 X121.765 Y106.427 E400.48406
G1 X121.231 Y106.427 E400.50160
G1 X132.127 Y117.323 E401.00811
G1 X131.593 Y117.323 E401.02566
G1 X120.698 Y106.427 E401.53216
G1 X120.164 Y106.427 E401.54971
G1 X131.060 Y117.323 E402.05621
G1 X130.526 Y117.323 E402.07376
G1 X119.630 Y106.427 E402.58026
G1 X119.096 Y106.427 E402.59781
G1 X129.992 Y117.323 E403.10431
G1 X129.458 Y117.323 E403.12186
G1 X118.562 Y106.427 E403.62837
G1 X118.029 Y106.427 E403.64591
G1 X128.924 Y117.323 E404.15242
G1 X128.391 Y117.323 E404.16996
G1 X117.495 Y106.427 E404.67647
G1 X116.961 Y106.427 E404.69401
G1 X127.857 Y117.323 E405.20052
G1 X127.323 Y117.323 E405.21806
G1 X116.427 Y106.427 E405.72458
G1 X116.427 Y106.961 E405.74212
G1 X127.323 Y117.857 E406.24865
G1 X127.323 Y118.391 E406.26620
G1 X116.427 Y107.494 E406.77273
G1 X116.427 Y108.028 E406.79028
G1 X127.323 Y118.925 E407.29681
G1 X127.323 Y119.459 E407.31436
G1 X116.427 Y108.562 E407.82089
G1 X116.427 Y109.096 E407.83844
G1 X127.323 Y119.992 E408.34497
G1 X127.323 Y120.526 E408.36252
G1 X116.427 Y109.630 E408.86905
G1 X116.427 Y110.163 E408.88660
G1 X127.323 Y121.060 E409.39313
G1 X127.323 Y121.594 E409.41068
G1 X116.427 Y110.697 E409.91721
G1 X116.427 Y111.231 E409.93476
G1 X127.323 Y122.128 E410.44130
G1 X127.323 Y122.661 E410.45884
G1 X116.427 Y111.765 E410.96538
G1 X116.427 Y112.299 E410.98292
G1 X127.323 Y123.195 E411.48946
G1 X127.323 Y123.729 E411.50700
G1 X116.427 Y112.832 E412.01354
G1 X116.427 Y113.366 E412.03108
G1 X127.323 Y124.263 E412.53762
G1 X127.323 Y124.797 E412.55516
G1 X116.427 Y113.900 E413.06170
G1 X116.427 Y114.434 E413.07924
G1 X127.323 Y125.330 E413.58578
G1 X127.323 Y125.864 E413.60333
G1 X116.427 Y114.968 E414.10986
G1 X116.427 Y115.501 E414.12741
G1 X127.323 Y126.398 E414.63394
G1 X127.323 Y126.932 E414.65149
G1 X116.427 Y116.035 E415.15802
G1 X116.427 Y116.569 E415.17557
G1 X127.323 Y127.465 E415.68210
G1 X127.323 Y127.999 E415.69965
G1 X116.427 Y117.103 E416.20618
G1 X116.427 Y117.637 E416.22373
G1 X127.323 Y128.533 E416.73026
G1 X127.323 Y129.067 E416.74781
G1 X116.427 Y118.170 E417.25434
G1 X116.427 Y118.704 E417.27189
G1 X127.323 Y129.601 E417.77842
G1 X127.323 Y130.134 E417.79597
G1 X116.427 Y119.238 E418.30250
G1 X116.427 Y119.772 E418.32005
G1 X127.323 Y130.668 E418.82659
G1 X127.323 Y131.202 E418.84413
G1 X116.427 Y120.306 E419.35067
G1 X116.427 Y120.839 E419.36821
G1 X127.323 Y131.736 E419.87475
G1 X127.323 Y132.270 E419.89229
G1 X116.427 Y121.373 E420.39883
G1 X116.427 Y121.907 E420.41637
G1 X127.323 Y132.803 E420.92291
G1 X127.323 Y133.337 E420.94045
G1 X116.427 Y122.441 E421.44699
G1 X116.427 Y122.974 E421.46453
G1 X127.323 Y133.871 E421.97107
G1 X127.323 Y134.405 E421.98862
G1 X116.427 Y123.508 E422.49515
G1 X116.427 Y124.042 E422.51270
G1 X127.323 Y134.939 E423.01923
G1 X127.323 Y135.472 E423.03678
G1 X116.427 Y124.576 E423.54331
G1 X116.427 Y125.110 E423.56086
G1 X127.323 Y136.006 E424.06739
G1 X127.323 Y136.540 E424.08494
G1 X116.427 Y125.643 E424.59147
G1 X116.427 Y126.177 E424.60902
G1 X127.323 Y137.074 E425.11555
G1 X127.323 Y137.608 E425.13310
G1 X116.427 Y126.711 E425.63963
G1 X116.427 Y127.245 E425.65718
G1 X127.323 Y138.141 E426.16371
G1 X127.323 Y138.675 E426.18126
G1 X116.427 Y127.779 E426.68779
G1 X116.427 Y128.312 E426.70534
G1 X127.323 Y139.209 E427.21188
G1 X127.323 Y139.743 E427.22942
G1 X116.427 Y128.846 E427.73596
G1 X116.427 Y129.380 E427.75350
G1 X127.323 Y140.277 E428.26004
G1 X127.323 Y140.810 E428.27758
G1 X116.427 Y129.914 E428.78412
G1 X116.427 Y130.448 E428.80166
G1 X127.323 Y141.344 E429.30820
G1 X127.323 Y141.878 E429.32574
G1 X116.427 Y130.981 E429.83228
G1 X116.427 Y131.515 E429.84982
G1 X127.323 Y142.412 E430.35636
G1 X127.323 Y142.945 E430.37391
G1 X116.427 Y132.049 E430.88044
G1 X116.427 Y132.583 E430.89799
G1 X127.323 Y143.479 E431.40452
G1 X127.323 Y144.013 E431.42207
G1 X116.427 Y133.117 E431.92860
G1 X116.427 Y133.650 E431.94615
G1 X127.323 Y144.547 E432.45268
G1 X127.323 Y145.081 E432.47023
G1 X116.427 Y134.184 E432.97676
G1 X116.427 Y134.718 E432.99431
G1 X127.323 Y145.614 E433.50084
G1 X127.323 Y146.148 E433.51839
G1 X116.427 Y135.252 E434.02492
G1 X116.427 Y135.786 E434.04247
G1 X127.323 Y146.682 E434.54900
G1 X127.323 Y147.216 E434.56655
G1 X116.427 Y136.319 E435.07308
G1 X116.427 Y136.853 E435.09063
G1 X138.146 Y158.573 E436.10029
G1 X138.680 Y158.573 E436.11783
G1 X127.784 Y147.677 E436.62434
G1 X128.318 Y147.677 E436.64188
G1 X139.214 Y158.573 E437.14839
G1 X139.748 Y158.573 E437.16593
G1 X128.852 Y147.677 E437.67244
G1 X129.386 Y147.677 E437.68999
G1 X140.282 Y158.573 E438.19649
G1 X140.815 Y158.573 E438.21404
G1 X129.920 Y147.677 E438.72054
G1 X130.453 Y147.677 E438.73809
G1 X141.349 Y158.573 E439.24459
G1 X141.883 Y158.573 E439.26214
G1 X130.987 Y147.677 E439.76864
G1 X131.521 Y147.677 E439.78619
G1 X142.417 Y158.573 E440.29270
G1 X142.951 Y158.573 E440.31024
G1 X132.055 Y147.677 E440.81675
G1 X132.589 Y147.677 E440.83429
G1 X143.484 Y158.573 E441.34080
G1 X144.018 Y158.573 E441.35834
G1 X133.122 Y147.677 E441.86485
G1 X133.656 Y147.677 E441.88240
G1 X144.552 Y158.573 E442.38890
G1 X145.086 Y158.573 E442.40645
G1 X134.190 Y147.677 E442.91295
G1 X134.724 Y147.677 E442.93050
G1 X145.620 Y158.573 E443.43700
G1 X146.153 Y158.573 E443.45455
G1 X135.257 Y147.677 E443.96105
G1 X135.791 Y147.677 E443.97860
G1 X146.687 Y158.573 E444.48511
G1 X147.221 Y158.573 E444.50265
G1 X136.325 Y147.677 E445.00916
G1 X136.859 Y147.677 E445.02670
G1 X147.755 Y158.573 E445.53321
G1 X148.289 Y158.573 E445.55075
G1 X137.393 Y147.677 E446.05726
G1 X137.926 Y147.677 E446.07481
G1 X148.822 Y158.573 E446.58131
G1 X149.356 Y158.573 E446.59886
G1 X138.460 Y147.677 E447.10536
G1 X138.994 Y147.677 E447.12291
G1 X149.890 Y158.573 E447.62941
G1 X150.424 Y158.573 E447.64696
G1 X139.528 Y147.677 E448.15346
G1 X140.062 Y147.677 E448.17101
G1 X150.958 Y158.573 E448.67752
G1 X151.491 Y158.573 E448.69506
G1 X140.595 Y147.677 E449.20157
G1 X141.129 Y147.677 E449.21911
G1 X152.025 Y158.573 E449.72562
G1 X152.559 Y158.573 E449.74316
G1 X141.663 Y147.677 E450.24967
G1 X142.197 Y147.677 E450.26722
G1 X153.093 Y158.573 E450.77372
G1 X153.626 Y158.573 E450.79127
G1 X142.731 Y147.677 E451.29777
G1 X143.264 Y147.677 E451.31532
G1 X154.160 Y158.573 E451.82182
G1 X154.694 Y158.573 E451.83937
G1 X143.798 Y147.677 E452.34587
G1 X144.332 Y147.677 E452.36342
G1 X155.228 Y158.573 E452.86993
G1 X155.762 Y158.573 E452.88747
G1 X144.866 Y147.677 E453.39398
G1 X145.400 Y147.677 E453.41152
G1 X156.295 Y158.573 E453.91803
G1 X156.829 Y158.573 E453.93557
G1 X145.933 Y147.677 E454.44208
G1 X146.467 Y147.677 E454.45962
G1 X157.363 Y158.573 E454.96613
G1 X157.897 Y158.573 E454.98368
G1 X147.001 Y147.677 E455.49018
G1 X147.535 Y147.677 E455.50773
G1 X158.431 Y158.573 E456.01423
G1 X158.964 Y158.573 E456.03178
G1 X148.069 Y147.677 E456.53828
G1 X148.602 Y147.677 E456.55583
G1 X159.498 Y158.573 E457.06233
G1 X160.032 Y158.573 E457.07988
G1 X149.136 Y147.677 E457.58639
G1 X149.670 Y147.677 E457.60393
G1 X160.566 Y158.573 E458.11044
G1 X161.100 Y158.573 E458.12798
G1 X150.204 Y147.677 E458.63449
G1 X150.737 Y147.677 E458.65203
G1 X161.633 Y158.573 E459.15854
G1 X162.167 Y158.573 E459.17609
G1 X151.271 Y147.677 E459.68259
G1 X151.805 Y147.677 E459.70014
G1 X162.701 Y158.573 E460.20664
G1 X163.235 Y158.573 E460.22419
G1 X152.339 Y147.677 E460.73069
G1 X152.873 Y147.677 E460.74824
G1 X163.769 Y158.573 E461.25474
G1 X164.302 Y158.573 E461.27229
G1 X153.406 Y147.677 E461.77879
G1 X153.940 Y147.677 E461.79634
G1 X164.836 Y158.573 E462.30285
G1 X165.370 Y158.573 E462.32039
G1 X154.474 Y147.677 E462.82690
G1 X155.008 Y147.677 E462.84444
G1 X165.904 Y158.573 E463.35095
G1 X166.438 Y158.573 E463.36849
G1 X155.542 Y147.677 E463.87500
G1 X156.075 Y147.677 E463.89255
G1 X166.971 Y158.573 E464.39905
G1 X167.505 Y158.573 E464.41660
G1 X156.609 Y147.677 E464.92310
G1 X157.143 Y147.677 E464.94065
G1 X168.039 Y158.573 E465.44715
G1 X168.573 Y158.573 E465.46470
G1 X157.677 Y147.677 E465.97120
G1 X158.211 Y147.677 E465.98875
G1 X169.106 Y158.573 E466.49526
G1 X169.640 Y158.573 E466.51280
G1 X158.744 Y147.677 E467.01931
G1 X159.278 Y147.677 E467.03685
G1 X170.174 Y158.573 E467.54336
G1 X170.708 Y158.573 E467.56090
G1 X159.812 Y147.677 E468.06741
G1 X160.346 Y147.677 E468.08496
G1 X171.242 Y158.573 E468.59146
G1 X171.775 Y158.573 E468.60901
