; generated by PrusaSlicer 2.2.0+win64 on 2020-10-14 at 16:50:05 UTC

; 

; external perimeters extrusion width = 0.45mm
; perimeters extrusion width = 0.45mm
; infill extrusion width = 0.45mm
; solid infill extrusion width = 0.45mm
; top infill extrusion width = 0.40mm
; first layer extrusion width = 0.42mm

M107
M190 S80 ; set bed temperature and wait for it to be reached
M104 S230 ; set temperature
G28 ; home all axes
;G29 S1
G1 Z5 F5000 ;E lift nozzle
M109 S230 ; set temperature and wait for it to be reached
G21 ; set units to millimeters
G90 ; use absolute coordinates
M82 ; use absolute distances for extrusion
G92 E0
; Filament gcode
G29 S1 P"heightmap_petg.csv"
M109 S230; heat nozzle to first_layer_temperature
G92 E0 ; reset extruder
G1 X0 Y225 Z120.0 F500.0 ; move XandY to Position1

G1 X0 Y200 Z0.2 F3000.0 ; move to start-line position2
G1 X0 Y20 Z0.2 F1500.0 E15 ; draw 1st line
G1 X0.5 Y20 Z0.2 F5000.0 ; move to side a little
G1 X0.5 Y200 Z0.2F1500.0 E30 ; draw 2nd line
G92 E0 ; reset extruder
G1 Z1.0 F1000 ; move z up little to prevent scratching of surface
G1 Z0.200 F7800.000
G10 ; retract
G92 E0
G1 X75.675 Y94.664
G11 ; unretract
G92 E0
G1 F1200.000
G1 X77.168 Y94.432 E0.04122
G1 X87.793 Y94.225 E0.33107
G1 X199.055 Y97.198 E3.36692
G1 X209.919 Y97.997 E3.66403
G1 X211.628 Y98.413 E3.71200
G1 X213.219 Y99.162 E3.75997
G1 X214.070 Y99.743 E3.78807
G1 X214.851 Y100.425 E3.81636
G1 X215.542 Y101.189 E3.84446
G1 X216.138 Y102.029 E3.87255
G1 X216.632 Y102.933 E3.90065
G1 X217.018 Y103.896 E3.92894
G1 X217.286 Y104.891 E3.95704
G1 X217.435 Y105.910 E3.98513
G1 X217.465 Y106.896 E4.01204
G1 X216.595 Y138.020 E4.86131
G1 X216.363 Y139.225 E4.89478
G1 X215.964 Y140.386 E4.92825
G1 X206.644 Y161.831 E5.56603
G1 X205.294 Y164.695 E5.65239
G1 X204.649 Y165.626 E5.68327
G1 X203.890 Y166.466 E5.71415
G1 X202.255 Y167.985 E5.77503
G1 X201.039 Y168.832 E5.81545
G1 X199.963 Y169.358 E5.84813
G1 X197.303 Y170.353 E5.92558
G1 X196.079 Y170.634 E5.95985
G1 X194.819 Y170.736 E5.99431
G1 X87.981 Y167.884 E8.90945
G1 X86.726 Y167.738 E8.94391
G1 X85.505 Y167.413 E8.97837
G1 X82.853 Y166.271 E9.05713
G1 X81.973 Y165.809 E9.08423
G1 X80.612 Y164.802 E9.13041
G1 X78.905 Y163.041 E9.19731
G1 X78.069 Y161.951 E9.23475
G1 X77.415 Y160.745 E9.27220
G1 X76.431 Y158.215 E9.34624
G1 X68.699 Y136.392 E9.97774
G1 X68.374 Y135.224 E10.01081
G1 X68.233 Y134.262 E10.03731
G1 X68.198 Y133.291 E10.06381
G1 X69.036 Y102.458 E10.90512
G1 X69.209 Y101.295 E10.93719
G1 X69.537 Y100.166 E10.96927
G1 X70.014 Y99.090 E11.00134
G1 X70.634 Y98.083 E11.03362
G1 X71.380 Y97.173 E11.06569
G1 X72.240 Y96.372 E11.09777
G1 X73.201 Y95.694 E11.12985
G1 X74.244 Y95.150 E11.16192
G1 X75.618 Y94.684 E11.20150
G1 X75.737 Y95.043 F7800.000
G1 F1200.000
G1 X77.218 Y94.807 E11.24241
G1 X87.796 Y94.602 E11.53098
G1 X199.036 Y97.575 E14.56620
G1 X209.844 Y98.368 E14.86179
G1 X211.482 Y98.762 E14.90774
G1 X213.002 Y99.471 E14.95350
G1 X213.829 Y100.034 E14.98078
G1 X214.578 Y100.686 E15.00788
G1 X215.245 Y101.422 E15.03497
G1 X215.820 Y102.232 E15.06207
G1 X216.296 Y103.105 E15.08916
G1 X216.664 Y104.027 E15.11625
G1 X216.921 Y104.987 E15.14335
G1 X217.062 Y105.970 E15.17044
G1 X217.088 Y106.892 E15.19561
G1 X216.217 Y137.999 E16.04442
G1 X215.994 Y139.143 E16.07618
G1 X215.615 Y140.244 E16.10795
G1 X206.299 Y161.680 E16.74547
G1 X204.981 Y164.483 E16.82995
G1 X204.365 Y165.377 E16.85957
G1 X203.633 Y166.190 E16.88939
G1 X202.022 Y167.689 E16.94942
G1 X200.856 Y168.502 E16.98818
G1 X199.823 Y169.007 E17.01956
G1 X197.194 Y169.992 E17.09612
G1 X196.010 Y170.263 E17.12924
G1 X194.807 Y170.359 E17.16218
G1 X88.001 Y167.507 E20.07642
G1 X86.795 Y167.367 E20.10955
G1 X85.621 Y167.054 E20.14267
G1 X83.014 Y165.930 E20.22012
G1 X82.184 Y165.496 E20.24566
G1 X80.863 Y164.520 E20.29044
G1 X79.191 Y162.795 E20.35598
G1 X78.383 Y161.741 E20.39222
G1 X77.753 Y160.579 E20.42826
G1 X76.787 Y158.091 E20.50108
G1 X69.055 Y136.266 E21.13262
G1 X68.740 Y135.130 E21.16477
G1 X68.607 Y134.217 E21.18992
G1 X68.575 Y133.296 E21.21507
G1 X69.410 Y102.507 E22.05517
G1 X69.576 Y101.383 E22.08615
G1 X69.893 Y100.292 E22.11714
G1 X70.354 Y99.254 E22.14813
G1 X70.951 Y98.287 E22.17911
G1 X71.674 Y97.411 E22.21010
G1 X72.509 Y96.640 E22.24109
G1 X73.440 Y95.990 E22.27207
G1 X74.451 Y95.471 E22.30306
G1 X75.681 Y95.062 E22.33841
G10 ; retract
G92 E0
G1 X198.072 Y135.544 F7800.000
G11 ; unretract
G92 E0
G1 F1200.000
G1 X197.470 Y158.051 E0.61412
G1 X196.820 Y159.502 E0.65749
G1 X196.034 Y160.243 E0.68694
G1 X194.539 Y160.813 E0.73058
G1 X186.404 Y160.595 E0.95254
G1 X184.796 Y159.992 E0.99939
G1 X183.589 Y158.991 E1.04217
G1 X182.703 Y157.529 E1.08880
G1 X177.912 Y135.005 E1.71690
G1 X106.605 Y133.098 E3.66254
G1 X100.617 Y155.334 E4.29065
G1 X99.655 Y156.746 E4.33727
G1 X98.395 Y157.681 E4.38006
G1 X96.757 Y158.198 E4.42691
G1 X88.622 Y157.980 E4.64887
G1 X87.160 Y157.332 E4.69250
G1 X86.415 Y156.550 E4.72196
G1 X85.844 Y155.066 E4.76533
G1 X86.445 Y132.559 E5.37945
G1 X78.146 Y132.336 E5.60591
G1 X78.894 Y104.363 E6.36917
G1 X85.856 Y104.560 E6.55915
G1 X86.585 Y104.412 E6.57944
G1 X86.573 Y104.840 E6.59112
G1 X86.955 Y107.306 E6.65918
G1 X88.229 Y109.621 E6.73128
G1 X90.226 Y111.454 E6.80521
G1 X92.734 Y112.647 E6.88096
G1 X95.436 Y113.093 E6.95565
G1 X190.534 Y115.636 E9.55044
G1 X193.256 Y115.335 E9.62513
G1 X195.824 Y114.278 E9.70088
G1 X197.916 Y112.555 E9.77481
G1 X199.313 Y110.310 E9.84691
G1 X199.825 Y107.868 E9.91497
G1 X199.836 Y107.440 E9.92665
G1 X200.557 Y107.627 E9.94694
G1 X207.519 Y107.802 E10.13692
G1 X206.771 Y135.775 E10.90018
G1 X198.132 Y135.545 E11.13591
G1 X198.438 Y135.931 F7800.000
G1 F1200.000
G1 X197.845 Y158.136 E11.74180
G1 X197.133 Y159.725 E11.78928
G1 X196.238 Y160.569 E11.82282
G1 X194.604 Y161.192 E11.87054
G1 X186.331 Y160.970 E12.09626
G1 X184.605 Y160.323 E12.14656
G1 X183.299 Y159.241 E12.19281
G1 X182.348 Y157.669 E12.24291
G1 X177.605 Y135.374 E12.86465
G1 X173.486 Y135.263 E12.97703
G1 X106.892 Y133.483 E14.79409
G1 X100.964 Y155.493 E15.41583
G1 X99.930 Y157.011 E15.46593
G1 X98.569 Y158.022 E15.51218
G1 X96.810 Y158.577 E15.56248
G1 X88.538 Y158.355 E15.78820
G1 X86.939 Y157.646 E15.83591
G1 X86.090 Y156.755 E15.86946
G1 X85.465 Y155.131 E15.91693
G1 X86.058 Y132.926 E16.52282
G1 X77.759 Y132.703 E16.74929
G1 X78.527 Y103.975 E17.53314
G1 X85.823 Y104.182 E17.73223
G1 X86.974 Y103.948 E17.76427
G1 X86.951 Y104.816 E17.78795
G1 X87.317 Y107.182 E17.85327
G1 X88.530 Y109.385 E17.92187
G1 X90.439 Y111.138 E17.99256
G1 X92.848 Y112.284 E18.06532
G1 X95.472 Y112.717 E18.13785
G1 X190.518 Y115.259 E20.73123
G1 X193.161 Y114.966 E20.80376
G1 X195.628 Y113.951 E20.87652
G1 X197.628 Y112.303 E20.94721
G1 X198.957 Y110.168 E21.01581
G1 X199.449 Y107.824 E21.08113
G1 X199.472 Y106.956 E21.10481
G1 X200.609 Y107.251 E21.13685
G1 X207.906 Y107.435 E21.33594
G1 X207.138 Y136.162 E22.11979
G1 X198.498 Y135.932 E22.35553
G1 X198.805 Y136.318 F7800.000
G1 F1200.000
G1 X198.220 Y158.222 E22.95319
G1 X197.447 Y159.948 E23.00477
G1 X196.443 Y160.894 E23.04241
G1 X194.668 Y161.571 E23.09420
G1 X186.258 Y161.346 E23.32368
G1 X184.413 Y160.653 E23.37744
G1 X183.010 Y159.490 E23.42715
G1 X181.992 Y157.810 E23.48072
G1 X177.298 Y135.743 E24.09610
G1 X173.476 Y135.640 E24.20037
G1 X107.179 Y133.867 E26.00933
G1 X101.312 Y155.653 E26.62471
G1 X100.206 Y157.276 E26.67828
G1 X98.743 Y158.362 E26.72799
G1 X96.863 Y158.955 E26.78175
G1 X88.453 Y158.730 E27.01123
G1 X86.717 Y157.960 E27.06302
G1 X85.765 Y156.961 E27.10066
G1 X85.086 Y155.196 E27.15224
G1 X85.671 Y133.292 E27.74990
G1 X77.372 Y133.069 E27.97637
G1 X78.160 Y103.587 E28.78080
G1 X85.791 Y103.803 E28.98901
G1 X87.364 Y103.484 E29.03281
G1 X87.329 Y104.792 E29.06849
G1 X87.680 Y107.059 E29.13106
G1 X88.830 Y109.149 E29.19615
G1 X90.653 Y110.822 E29.26362
G1 X92.962 Y111.920 E29.33338
G1 X95.508 Y112.341 E29.40375
G1 X190.502 Y114.881 E31.99572
G1 X193.067 Y114.597 E32.06609
G1 X195.432 Y113.624 E32.13585
G1 X197.341 Y112.051 E32.20331
G1 X198.602 Y110.025 E32.26841
G1 X199.073 Y107.780 E32.33098
G1 X199.108 Y106.472 E32.36666
G1 X200.662 Y106.875 E32.41046
G1 X208.293 Y107.067 E32.61867
G1 X207.505 Y136.549 E33.42310
G1 X198.865 Y136.319 E33.65884
G1 X198.437 Y136.474 F7800.000
G10 ; retract
G92 E0
G1 X197.465 Y154.709
G11 ; unretract
G92 E0
G1 F1200.000
G1 X178.296 Y135.540 E0.73964
G1 X178.440 Y136.217 E0.75854
G1 X197.286 Y155.063 E1.48571
G1 X197.272 Y155.583 E1.49989
G1 X178.584 Y136.895 E2.22096
G1 X178.728 Y137.572 E2.23986
G1 X197.258 Y156.102 E2.95484
G1 X197.244 Y156.622 E2.96902
G1 X178.872 Y138.250 E3.67789
G1 X179.016 Y138.927 E3.69679
G1 X197.230 Y157.141 E4.39957
G1 X197.216 Y157.661 E4.41375
G1 X179.160 Y139.605 E5.11043
G1 X179.304 Y140.283 E5.12933
G1 X197.147 Y158.125 E5.81780
G1 X196.982 Y158.494 E5.82881
G1 X179.449 Y140.960 E6.50534
G1 X179.593 Y141.638 E6.52424
G1 X196.817 Y158.862 E7.18885
G1 X196.652 Y159.231 E7.19986
G1 X179.737 Y142.315 E7.85254
G1 X179.881 Y142.993 E7.87144
G1 X196.412 Y159.524 E8.50929
G1 X196.138 Y159.783 E8.51959
G1 X180.025 Y143.670 E9.14128
G1 X180.169 Y144.348 E9.16018
G1 X195.852 Y160.030 E9.76528
G1 X195.465 Y160.177 E9.77656
G1 X180.313 Y145.025 E10.36120
G1 X180.458 Y145.703 E10.38010
G1 X195.079 Y160.325 E10.94427
G1 X194.693 Y160.472 E10.95555
G1 X180.602 Y146.381 E11.49926
G1 X180.746 Y147.058 E11.51816
G1 X194.228 Y160.540 E12.03837
G1 X193.680 Y160.526 E12.05333
G1 X180.890 Y147.736 E12.54683
G1 X181.034 Y148.413 E12.56573
G1 X193.132 Y160.511 E13.03253
G1 X192.584 Y160.496 E13.04749
G1 X181.178 Y149.091 E13.48757
G1 X181.322 Y149.768 E13.50647
G1 X192.036 Y160.482 E13.91985
G1 X191.488 Y160.467 E13.93481
G1 X181.466 Y150.446 E14.32148
G1 X181.611 Y151.124 E14.34038
G1 X190.940 Y160.452 E14.70033
G1 X190.391 Y160.438 E14.71529
G1 X181.755 Y151.801 E15.04854
G1 X181.899 Y152.479 E15.06744
G1 X189.843 Y160.423 E15.37398
G1 X189.295 Y160.408 E15.38894
G1 X182.043 Y153.156 E15.66877
G1 X182.187 Y153.834 E15.68767
G1 X188.747 Y160.394 E15.94080
G1 X188.199 Y160.379 E15.95575
G1 X182.331 Y154.511 E16.18217
G1 X182.475 Y155.189 E16.20107
G1 X187.651 Y160.365 E16.40077
G1 X187.103 Y160.350 E16.41573
G1 X182.619 Y155.866 E16.58873
G1 X182.764 Y156.544 E16.60763
G1 X186.555 Y160.335 E16.75391
G1 X186.456 Y160.333 E16.75662
G1 X185.756 Y160.070 E16.77700
G1 X182.908 Y157.222 E16.88691
G1 X182.952 Y157.430 E16.89273
G1 X183.519 Y158.366 E16.92260
G1 X185.193 Y160.040 E16.98717
G10 ; retract
G92 E0
G1 X207.403 Y108.637 F7800.000
G11 ; unretract
G92 E0
G1 F1200.000
G1 X206.814 Y108.049 E0.02270
G1 X206.267 Y108.035 E0.03763
G1 X207.223 Y108.991 E0.07453
G1 X207.210 Y109.511 E0.08871
G1 X205.720 Y108.021 E0.14618
G1 X205.173 Y108.007 E0.16111
G1 X207.196 Y110.030 E0.23916
G1 X207.182 Y110.550 E0.25334
G1 X204.626 Y107.993 E0.35197
G1 X204.078 Y107.980 E0.36691
G1 X207.168 Y111.069 E0.48612
G1 X207.154 Y111.589 E0.50030
G1 X203.531 Y107.966 E0.64008
G1 X202.984 Y107.952 E0.65502
G1 X207.140 Y112.108 E0.81538
G1 X207.126 Y112.628 E0.82956
G1 X202.437 Y107.938 E1.01050
G1 X201.890 Y107.925 E1.02544
G1 X207.112 Y113.147 E1.22696
G1 X207.098 Y113.667 E1.24114
G1 X201.342 Y107.911 E1.46323
G1 X200.795 Y107.897 E1.47817
G1 X207.085 Y114.186 E1.72085
G1 X207.071 Y114.706 E1.73503
G1 X200.162 Y107.797 E2.00159
G1 X200.091 Y107.779 E2.00359
G1 X200.088 Y107.899 E2.00686
G1 X200.026 Y108.195 E2.01511
G1 X207.057 Y115.225 E2.28638
G1 X207.043 Y115.745 E2.30056
G1 X199.934 Y108.636 E2.57488
G1 X199.841 Y109.077 E2.58717
G1 X207.029 Y116.264 E2.86451
G1 X207.015 Y116.784 E2.87869
G1 X199.749 Y109.518 E3.15907
G1 X199.656 Y109.958 E3.17136
G1 X207.001 Y117.304 E3.45477
G1 X206.987 Y117.823 E3.46895
G1 X199.564 Y110.399 E3.75540
G1 X199.362 Y110.731 E3.76599
G1 X206.973 Y118.343 E4.05969
G1 X206.959 Y118.862 E4.07387
G1 X199.157 Y111.060 E4.37493
G1 X198.952 Y111.388 E4.38550
G1 X206.946 Y119.382 E4.69392
G1 X206.932 Y119.901 E4.70810
G1 X198.748 Y111.717 E5.02387
G1 X198.543 Y112.046 E5.03444
G1 X206.918 Y120.421 E5.35758
G1 X206.904 Y120.940 E5.37176
G1 X198.339 Y112.375 E5.70225
G1 X198.134 Y112.704 E5.71282
G1 X206.890 Y121.460 E6.05068
G1 X206.876 Y121.979 E6.06486
G1 X197.849 Y112.952 E6.41318
G1 X197.556 Y113.193 E6.42352
G1 X206.862 Y122.499 E6.78259
G1 X206.848 Y123.018 E6.79677
G1 X197.264 Y113.434 E7.16660
G1 X196.971 Y113.675 E7.17694
G1 X206.834 Y123.538 E7.55751
G1 X206.821 Y124.058 E7.57169
G1 X196.679 Y113.916 E7.96301
G1 X196.386 Y114.157 E7.97335
G1 X206.807 Y124.577 E8.37542
G1 X206.793 Y125.097 E8.38960
G1 X196.094 Y114.398 E8.80241
G1 X195.961 Y114.507 E8.80711
G1 X195.755 Y114.592 E8.81320
G1 X206.779 Y125.616 E9.23856
G1 X206.765 Y126.136 E9.25274
G1 X195.377 Y114.748 E9.69215
G1 X194.999 Y114.903 E9.70330
G1 X206.751 Y126.655 E10.15676
G1 X206.737 Y127.175 E10.17094
G1 X194.621 Y115.059 E10.63844
G1 X194.243 Y115.214 E10.64959
G1 X206.723 Y127.694 E11.13114
G1 X206.709 Y128.214 E11.14532
G1 X193.865 Y115.370 E11.64091
G1 X193.487 Y115.525 E11.65206
G1 X206.696 Y128.733 E12.16170
G1 X206.682 Y129.253 E12.17588
G1 X193.052 Y115.623 E12.70178
G1 X192.572 Y115.676 E12.71497
G1 X206.668 Y129.772 E13.25886
G1 X206.654 Y130.292 E13.27304
G1 X192.091 Y115.729 E13.83494
G1 X191.611 Y115.783 E13.84812
G1 X206.640 Y130.811 E14.42801
G1 X206.626 Y131.331 E14.44219
G1 X191.131 Y115.836 E15.04008
G1 X190.650 Y115.889 E15.05326
G1 X206.612 Y131.851 E15.66914
G1 X206.598 Y132.370 E15.68332
G1 X190.117 Y115.889 E16.31924
G1 X189.569 Y115.874 E16.33420
G1 X206.584 Y132.890 E16.99074
G1 X206.570 Y133.409 E17.00492
G1 X189.021 Y115.860 E17.68206
G1 X188.473 Y115.845 E17.69702
G1 X206.557 Y133.929 E18.39477
G1 X206.543 Y134.448 E18.40895
G1 X187.925 Y115.830 E19.12732
G1 X187.377 Y115.816 E19.14228
G1 X206.529 Y134.968 E19.88126
G1 X206.515 Y135.487 E19.89544
G1 X186.829 Y115.801 E20.65503
G1 X186.281 Y115.786 E20.66999
G1 X205.985 Y135.490 E21.43027
G1 X205.437 Y135.476 E21.44523
G1 X185.733 Y115.772 E22.20551
G1 X185.185 Y115.757 E22.22047
G1 X204.889 Y135.461 E22.98075
G1 X204.341 Y135.447 E22.99571
G1 X184.636 Y115.743 E23.75600
G1 X184.088 Y115.728 E23.77095
G1 X203.793 Y135.432 E24.53124
G1 X203.245 Y135.418 E24.54620
G1 X183.540 Y115.713 E25.30649
G1 X182.992 Y115.699 E25.32145
G1 X202.697 Y135.403 E26.08174
G1 X202.148 Y135.388 E26.09670
G1 X182.444 Y115.684 E26.85700
G1 X181.896 Y115.669 E26.87196
G1 X201.600 Y135.374 E27.63225
G1 X201.052 Y135.359 E27.64721
G1 X181.348 Y115.655 E28.40751
G1 X180.800 Y115.640 E28.42247
G1 X200.504 Y135.345 E29.18277
G1 X199.956 Y135.330 E29.19773
G1 X180.252 Y115.625 E29.95804
G1 X179.704 Y115.611 E29.97299
G1 X199.408 Y135.315 E30.73330
G1 X198.860 Y135.301 E30.74826
G1 X179.156 Y115.596 E31.50857
G1 X178.607 Y115.581 E31.52353
G1 X198.312 Y135.286 E32.28384
G1 X197.815 Y135.273 E32.29742
G1 X197.814 Y135.321 E32.29873
G1 X178.059 Y115.567 E33.06094
G1 X177.511 Y115.552 E33.07590
G1 X197.800 Y135.840 E33.85872
G1 X197.786 Y136.360 E33.87290
G1 X176.963 Y115.537 E34.67634
G1 X176.415 Y115.523 E34.69130
G1 X197.772 Y136.879 E35.51535
G1 X197.758 Y137.399 E35.52953
G1 X175.867 Y115.508 E36.37419
G1 X175.319 Y115.493 E36.38915
G1 X197.744 Y137.918 E37.25442
G1 X197.730 Y138.438 E37.26860
G1 X174.771 Y115.479 E38.15449
G1 X174.223 Y115.464 E38.16944
G1 X197.716 Y138.958 E39.07594
G1 X197.702 Y139.477 E39.09012
G1 X173.675 Y115.449 E40.01723
G1 X173.127 Y115.435 E40.03219
G1 X197.688 Y139.997 E40.97991
G1 X197.675 Y140.516 E40.99409
G1 X172.579 Y115.420 E41.96242
G1 X172.030 Y115.405 E41.97738
G1 X197.661 Y141.036 E42.96632
G1 X197.647 Y141.555 E42.98050
G1 X171.482 Y115.391 E43.99006
G1 X170.934 Y115.376 E44.00502
G1 X197.633 Y142.075 E45.03518
G1 X197.619 Y142.594 E45.04936
G1 X170.386 Y115.361 E46.10014
G1 X169.838 Y115.347 E46.11510
G1 X197.605 Y143.114 E47.18649
G1 X197.591 Y143.633 E47.20067
G1 X169.290 Y115.332 E48.29268
G1 X168.742 Y115.317 E48.30764
G1 X197.577 Y144.153 E49.42025
G1 X197.563 Y144.672 E49.43443
G1 X168.194 Y115.303 E50.56766
G1 X167.646 Y115.288 E50.58262
G1 X197.550 Y145.192 E51.73645
