; generated by PrusaSlicer 2.2.0+win64 on 2020-05-10 at 15:40:01 UTC

; 

; external perimeters extrusion width = 0.45mm
; perimeters extrusion width = 0.45mm
; infill extrusion width = 0.45mm
; solid infill extrusion width = 0.45mm
; top infill extrusion width = 0.40mm
; first layer extrusion width = 0.42mm

M107
M190 S100 ; set bed temperature and wait for it to be reached
M104 S245 ; set temperature
G28 ; home all axes
G29 S1
G1 Z5 F5000 ; lift nozzle
M109 S245 ; set temperature and wait for it to be reached
G21 ; set units to millimeters
G90 ; use absolute coordinates
M82 ; use absolute distances for extrusion
G92 E0
; Filament gcode
G1 Z0.100 F7800.000
G10 ; retract
G92 E0
G1 X87.905 Y51.976
G11 ; unretract
G92 E0
G1 F1200.000
G1 X112.397 Y37.637 E0.48680
G1 X113.890 Y36.919 E0.51521
G1 X115.713 Y36.294 E0.54828
G1 X134.864 Y31.297 E0.88776
G1 X135.655 Y31.145 E0.90158
G1 X136.466 Y31.094 E0.91550
G1 X137.548 Y31.187 E0.93413
G1 X140.736 Y31.748 E0.98966
G1 X141.601 Y31.981 E1.00502
G1 X203.482 Y53.412 E2.12829
G1 X204.250 Y53.746 E2.14265
G1 X207.086 Y55.269 E2.19787
G1 X207.955 Y55.835 E2.21564
G1 X208.564 Y56.371 E2.22957
G1 X209.101 Y56.980 E2.24349
G1 X221.072 Y72.767 E2.58333
G1 X221.934 Y74.055 E2.60991
G1 X222.566 Y75.237 E2.63290
G1 X233.074 Y101.804 E3.12294
G1 X233.627 Y103.814 E3.15870
G1 X233.836 Y105.142 E3.18176
G1 X233.916 Y106.372 E3.20290
G1 X233.851 Y108.294 E3.23589
G1 X231.182 Y133.840 E3.67644
G1 X230.925 Y134.921 E3.69550
G1 X229.655 Y138.432 E3.75954
G1 X228.979 Y139.753 E3.78499
G1 X207.290 Y170.257 E4.42698
G1 X202.636 Y176.494 E4.56046
G1 X156.765 Y233.215 E5.81170
G1 X155.586 Y234.432 E5.84076
G1 X154.371 Y235.454 E5.86799
G1 X153.050 Y236.356 E5.89544
G1 X151.656 Y237.118 E5.92268
G1 X150.207 Y237.733 E5.94969
G1 X148.671 Y238.212 E5.97727
G1 X147.123 Y238.530 E6.00439
G1 X145.389 Y238.702 E6.03427
G1 X143.993 Y238.705 E6.05822
G1 X142.443 Y238.564 E6.08492
G1 X140.938 Y238.280 E6.11119
G1 X139.503 Y237.865 E6.13680
G1 X77.811 Y216.501 E7.25663
G1 X76.330 Y215.903 E7.28402
G1 X75.133 Y215.286 E7.30712
G1 X74.010 Y214.582 E7.32986
G1 X72.472 Y213.391 E7.36322
G1 X71.144 Y212.076 E7.39528
G1 X70.300 Y211.061 E7.41792
G1 X69.613 Y210.079 E7.43847
G1 X68.649 Y208.384 E7.47192
G1 X67.934 Y206.670 E7.50377
G1 X67.550 Y205.430 E7.52605
G1 X67.285 Y204.227 E7.54718
G1 X67.043 Y202.197 E7.58223
G1 X66.110 Y132.642 E8.77538
G1 X66.126 Y125.344 E8.90057
G1 X67.941 Y84.418 E9.60323
G1 X68.189 Y83.075 E9.62666
G1 X69.615 Y78.791 E9.70409
G1 X70.123 Y77.796 E9.72326
G1 X83.833 Y56.137 E10.16294
G1 X84.651 Y55.002 E10.18694
G1 X85.664 Y53.856 E10.21317
G1 X86.787 Y52.819 E10.23939
G1 X87.857 Y52.012 E10.26237
G10 ; retract
G92 E0
G1 X143.770 Y40.229 F7800.000
G11 ; unretract
G92 E0
G1 F1200.000
G1 X146.846 Y40.790 E0.05362
G1 X150.894 Y41.635 E0.12456
G1 X154.970 Y42.585 E0.19635
G1 X158.974 Y43.617 E0.26727
G1 X162.993 Y44.752 E0.33890
G1 X166.954 Y45.971 E0.40998
G1 X170.924 Y47.295 E0.48177
G1 X174.841 Y48.703 E0.55316
G1 X178.699 Y50.191 E0.62408
G1 X182.559 Y51.784 E0.69571
G1 X186.352 Y53.454 E0.76680
G1 X190.134 Y55.224 E0.83843
G1 X193.842 Y57.066 E0.90944
G1 X196.604 Y58.526 E0.96303
G1 X197.493 Y56.868 E0.99529
G1 X198.215 Y56.011 E1.01452
G1 X199.469 Y55.212 E1.04001
G1 X200.919 Y54.836 E1.06572
G1 X201.904 Y54.851 E1.08261
G1 X202.894 Y55.102 E1.10013
G1 X207.038 Y57.379 E1.18123
G1 X207.653 Y58.024 E1.19652
G1 X208.251 Y59.016 E1.21639
G1 X208.632 Y60.435 E1.24158
G1 X208.600 Y61.648 E1.26239
G1 X208.308 Y62.624 E1.27987
G1 X207.222 Y64.662 E1.31949
G1 X210.202 Y66.550 E1.38000
G1 X213.480 Y68.741 E1.44763
G1 X216.762 Y71.041 E1.51636
G1 X217.763 Y71.841 E1.53835
G1 X218.766 Y72.824 E1.56244
G1 X219.647 Y73.892 E1.58618
G1 X220.387 Y75.006 E1.60913
G1 X221.052 Y76.276 E1.63371
G1 X221.603 Y77.697 E1.65985
G1 X221.930 Y78.898 E1.68121
G1 X222.148 Y80.173 E1.70339
G1 X222.245 Y81.680 E1.72928
G1 X222.174 Y83.142 E1.75440
G1 X221.942 Y84.587 E1.77950
G1 X221.584 Y85.902 E1.80288
G1 X220.961 Y87.547 E1.83304
G1 X220.817 Y88.065 E1.84228
G1 X220.722 Y88.590 E1.85142
G1 X220.675 Y89.121 E1.86056
G1 X220.678 Y89.654 E1.86970
G1 X220.730 Y90.184 E1.87884
G1 X220.831 Y90.707 E1.88798
G1 X220.980 Y91.219 E1.89712
G1 X221.176 Y91.714 E1.90626
G1 X221.416 Y92.190 E1.91540
G1 X221.657 Y92.575 E1.92319
G1 X222.035 Y93.078 E1.93398
G1 X222.384 Y93.456 E1.94280
G1 X222.781 Y93.812 E1.95195
G1 X223.208 Y94.131 E1.96109
G1 X223.670 Y94.412 E1.97036
G1 X225.353 Y95.249 E2.00261
G1 X226.671 Y96.095 E2.02947
G1 X227.828 Y97.045 E2.05516
G1 X228.691 Y97.912 E2.07613
G1 X229.499 Y98.897 E2.09799
G1 X230.224 Y99.980 E2.12034
G1 X230.830 Y101.112 E2.14236
G1 X231.426 Y102.589 E2.16969
G1 X231.784 Y103.868 E2.19247
G1 X231.998 Y105.084 E2.21364
G1 X232.109 Y106.573 E2.23925
G1 X232.054 Y108.019 E2.26407
G1 X231.841 Y109.448 E2.28885
G1 X231.087 Y112.890 E2.34929
G1 X230.254 Y116.324 E2.40990
G1 X229.358 Y119.692 E2.46968
G1 X228.381 Y123.065 E2.52991
G1 X227.338 Y126.393 E2.58973
G1 X226.558 Y128.673 E2.63107
G1 X227.202 Y128.934 E2.64298
G1 X228.058 Y129.579 E2.66137
G1 X228.688 Y130.348 E2.67841
G1 X229.363 Y131.913 E2.70765
G1 X229.471 Y132.997 E2.72633
G1 X229.315 Y134.041 E2.74445
G1 X227.837 Y138.131 E2.81904
G1 X227.511 Y138.763 E2.83124
G1 X226.231 Y140.023 E2.86205
G1 X225.148 Y140.554 E2.88273
G1 X224.127 Y140.792 E2.90071
G1 X222.874 Y140.739 E2.92223
G1 X221.996 Y140.446 E2.93810
G1 X221.238 Y142.206 E2.97098
G1 X219.606 Y145.734 E3.03765
G1 X217.886 Y149.222 E3.10436
G1 X216.084 Y152.664 E3.17099
G1 X214.196 Y156.064 E3.23770
G1 X212.236 Y159.401 E3.30408
G1 X210.188 Y162.701 E3.37070
G1 X208.316 Y165.559 E3.42930
G1 X205.832 Y169.175 E3.50455
G1 X203.555 Y172.305 E3.57093
G1 X201.171 Y175.420 E3.63823
G1 X198.744 Y178.435 E3.70461
G1 X196.219 Y181.419 E3.77166
G1 X193.648 Y184.312 E3.83804
G1 X190.990 Y187.158 E3.90484
G1 X188.243 Y189.960 E3.97213
G1 X185.481 Y192.642 E4.03818
G1 X182.622 Y195.287 E4.10497
G1 X179.722 Y197.841 E4.17126
G1 X177.107 Y200.034 E4.22979
G1 X173.674 Y202.787 E4.30528
G1 X170.590 Y205.125 E4.37165
G1 X167.447 Y207.390 E4.43812
G1 X164.212 Y209.603 E4.50533
G1 X160.949 Y211.719 E4.57205
G1 X157.648 Y213.748 E4.63852
G1 X156.129 Y214.628 E4.66862
G1 X156.822 Y215.405 E4.68647
G1 X157.424 Y216.363 E4.70586
G1 X158.011 Y217.719 E4.73122
G1 X158.443 Y219.094 E4.75594
G1 X158.747 Y220.620 E4.78263
G1 X158.880 Y221.913 E4.80493
G1 X158.889 Y223.226 E4.82745
G1 X158.755 Y224.698 E4.85280
G1 X158.477 Y226.116 E4.87759
G1 X158.045 Y227.520 E4.90278
G1 X157.562 Y228.698 E4.92462
G1 X156.964 Y229.838 E4.94670
G1 X156.189 Y231.027 E4.97104
G1 X155.257 Y232.180 E4.99647
G1 X154.141 Y233.290 E5.02347
G1 X153.188 Y234.072 E5.04463
G1 X152.172 Y234.765 E5.06570
G1 X150.942 Y235.446 E5.08983
G1 X149.621 Y236.014 E5.11450
G1 X148.260 Y236.443 E5.13896
G1 X146.792 Y236.744 E5.16467
G1 X145.229 Y236.892 E5.19161
G1 X144.030 Y236.889 E5.21216
G1 X142.840 Y236.786 E5.23266
G1 X141.278 Y236.494 E5.25992
G1 X139.729 Y236.020 E5.28770
G1 X138.625 Y235.557 E5.30823
G1 X137.571 Y235.008 E5.32861
G1 X136.224 Y234.128 E5.35621
G1 X134.998 Y233.116 E5.38348
G1 X134.157 Y232.268 E5.40396
G1 X133.390 Y231.353 E5.42445
G1 X132.395 Y229.881 E5.45492
G1 X131.833 Y228.824 E5.47545
G1 X131.358 Y227.710 E5.49623
G1 X130.875 Y226.185 E5.52366
G1 X130.568 Y224.619 E5.55104
G1 X130.455 Y223.431 E5.57151
G1 X130.444 Y222.235 E5.59202
G1 X130.579 Y220.648 E5.61934
G1 X130.895 Y219.079 E5.64679
G1 X131.244 Y217.938 E5.66726
G1 X131.695 Y216.824 E5.68787
G1 X132.460 Y215.353 E5.71631
G1 X133.317 Y214.083 E5.74259
G1 X134.074 Y213.166 E5.76299
G1 X134.915 Y212.310 E5.78357
G1 X136.064 Y211.334 E5.80943
G1 X137.240 Y210.530 E5.83387
G1 X138.500 Y209.845 E5.85845
G1 X141.888 Y208.193 E5.92311
G1 X145.144 Y206.504 E5.98603
G1 X148.357 Y204.734 E6.04895
G1 X151.525 Y202.884 E6.11187
G1 X154.645 Y200.955 E6.17479
G1 X157.330 Y199.201 E6.22980
G1 X160.741 Y196.864 E6.30072
G1 X163.704 Y194.710 E6.36355
G1 X166.616 Y192.480 E6.42647
G1 X169.472 Y190.178 E6.48939
G1 X172.269 Y187.805 E6.55230
G1 X175.006 Y185.362 E6.61523
G1 X177.681 Y182.853 E6.67814
G1 X180.293 Y180.276 E6.74106
G1 X182.839 Y177.636 E6.80399
G1 X185.319 Y174.933 E6.86691
G1 X187.731 Y172.168 E6.92983
G1 X190.072 Y169.345 E6.99274
G1 X192.342 Y166.463 E7.05566
G1 X194.540 Y163.526 E7.11858
G1 X196.663 Y160.535 E7.18150
G1 X198.711 Y157.491 E7.24442
G1 X200.682 Y154.398 E7.30734
G1 X202.575 Y151.256 E7.37026
G1 X204.390 Y148.068 E7.43318
G1 X206.124 Y144.835 E7.49610
G1 X207.776 Y141.560 E7.55902
G1 X209.347 Y138.245 E7.62194
G1 X210.834 Y134.891 E7.68486
G1 X212.236 Y131.502 E7.74778
G1 X213.388 Y128.509 E7.80279
G1 X214.787 Y124.618 E7.87372
G1 X215.930 Y121.138 E7.93654
G1 X216.987 Y117.625 E7.99946
G1 X217.957 Y114.088 E8.06238
G1 X218.837 Y110.527 E8.12530
G1 X219.603 Y107.061 E8.18618
G1 X219.633 Y106.764 E8.19129
G1 X219.600 Y106.572 E8.19464
G1 X219.514 Y106.380 E8.19825
G1 X219.335 Y106.187 E8.20277
G1 X217.805 Y105.418 E8.23214
G1 X216.537 Y104.670 E8.25739
G1 X215.320 Y103.810 E8.28295
G1 X214.125 Y102.808 E8.30970
G1 X213.032 Y101.719 E8.33616
G1 X212.076 Y100.595 E8.36147
G1 X211.195 Y99.369 E8.38737
G1 X210.419 Y98.074 E8.41327
G1 X209.746 Y96.705 E8.43942
G1 X209.230 Y95.365 E8.46406
G1 X208.483 Y95.595 E8.47747
G1 X207.417 Y95.747 E8.49594
G1 X206.274 Y95.724 E8.51554
G1 X205.145 Y95.509 E8.53527
G1 X204.224 Y95.178 E8.55204
G1 X203.378 Y94.718 E8.56857
G1 X202.701 Y94.198 E8.58320
G1 X202.202 Y93.694 E8.59537
G1 X200.265 Y91.366 E8.64732
G1 X198.433 Y89.298 E8.69470
G1 X196.533 Y87.294 E8.74207
G1 X194.569 Y85.353 E8.78944
G1 X192.541 Y83.477 E8.83682
G1 X190.453 Y81.670 E8.88419
G1 X188.306 Y79.933 E8.93156
G1 X186.103 Y78.268 E8.97893
G1 X183.845 Y76.676 E9.02630
G1 X181.537 Y75.160 E9.07367
G1 X179.180 Y73.721 E9.12104
G1 X176.776 Y72.360 E9.16841
G1 X174.329 Y71.080 E9.21578
G1 X171.841 Y69.881 E9.26315
G1 X169.315 Y68.765 E9.31052
G1 X166.753 Y67.733 E9.35790
G1 X164.159 Y66.787 E9.40526
G1 X161.535 Y65.926 E9.45263
G1 X158.884 Y65.153 E9.50000
G1 X156.209 Y64.467 E9.54737
G1 X153.512 Y63.871 E9.59475
G1 X150.797 Y63.363 E9.64211
G1 X148.067 Y62.946 E9.68949
G1 X145.325 Y62.619 E9.73686
G1 X142.573 Y62.383 E9.78423
G1 X139.815 Y62.238 E9.83160
G1 X137.054 Y62.184 E9.87897
G1 X134.293 Y62.221 E9.92634
G1 X131.534 Y62.349 E9.97371
G1 X128.781 Y62.569 E10.02108
G1 X126.036 Y62.879 E10.06845
G1 X123.304 Y63.280 E10.11582
G1 X120.586 Y63.771 E10.16320
G1 X117.623 Y64.403 E10.21516
G1 X116.920 Y64.490 E10.22732
G1 X116.067 Y64.480 E10.24195
G1 X115.119 Y64.319 E10.25843
G1 X114.195 Y64.011 E10.27515
G1 X113.173 Y63.483 E10.29488
G1 X112.258 Y62.793 E10.31454
G1 X111.512 Y62.012 E10.33305
G1 X111.067 Y61.369 E10.34648
G1 X109.835 Y62.102 E10.37107
G1 X108.392 Y62.791 E10.39849
G1 X107.011 Y63.312 E10.42382
G1 X105.576 Y63.724 E10.44942
G1 X104.079 Y64.023 E10.47561
G1 X102.580 Y64.193 E10.50148
G1 X101.075 Y64.240 E10.52732
G1 X99.570 Y64.162 E10.55317
G1 X98.137 Y63.970 E10.57797
G1 X96.507 Y63.629 E10.60651
G1 X96.240 Y63.648 E10.61111
G1 X96.016 Y63.737 E10.61526
G1 X95.842 Y63.894 E10.61926
G1 X95.683 Y64.145 E10.62436
G1 X94.141 Y67.342 E10.68524
G1 X92.631 Y70.685 E10.74817
G1 X91.204 Y74.065 E10.81109
G1 X89.863 Y77.479 E10.87400
G1 X88.607 Y80.925 E10.93693
G1 X87.438 Y84.402 E10.99984
G1 X86.356 Y87.907 E11.06276
G1 X85.362 Y91.438 E11.12568
G1 X84.456 Y94.993 E11.18860
G1 X83.640 Y98.569 E11.25152
G1 X82.913 Y102.165 E11.31444
G1 X82.356 Y105.323 E11.36945
G1 X81.729 Y109.411 E11.44038
G1 X81.275 Y113.045 E11.50320
G1 X80.956 Y116.236 E11.55822
G1 X80.637 Y120.359 E11.62914
G1 X80.456 Y124.017 E11.69196
G1 X80.366 Y127.684 E11.75488
G1 X80.368 Y131.352 E11.81780
G1 X80.462 Y135.019 E11.88072
G1 X80.647 Y138.683 E11.94363
G1 X80.924 Y142.341 E12.00656
G1 X81.292 Y145.991 E12.06947
G1 X81.751 Y149.630 E12.13240
G1 X82.301 Y153.257 E12.19532
G1 X82.861 Y156.415 E12.25033
G1 X83.673 Y160.469 E12.32125
G1 X84.492 Y164.039 E12.38407
G1 X85.287 Y167.146 E12.43908
G1 X86.401 Y171.128 E12.51001
G1 X87.485 Y174.627 E12.57283
G1 X88.658 Y178.102 E12.63575
G1 X89.917 Y181.548 E12.69867
G1 X91.093 Y184.532 E12.75368
G1 X92.694 Y188.344 E12.82460
G1 X94.206 Y191.680 E12.88742
G1 X95.851 Y195.082 E12.95225
G1 X96.456 Y196.523 E12.97906
G1 X96.819 Y197.669 E12.99967
G1 X97.078 Y198.829 E13.02005
G1 X97.255 Y200.199 E13.04376
G1 X97.296 Y201.677 E13.06912
G1 X97.183 Y203.163 E13.09467
G1 X96.878 Y204.767 E13.12267
G1 X96.543 Y205.920 E13.14328
G1 X96.112 Y207.033 E13.16375
G1 X95.390 Y208.461 E13.19119
G1 X94.515 Y209.792 E13.21852
G1 X93.767 Y210.724 E13.23902
G1 X92.943 Y211.588 E13.25949
G1 X91.733 Y212.629 E13.28687
G1 X90.410 Y213.529 E13.31432
G1 X89.347 Y214.111 E13.33509
G1 X88.252 Y214.594 E13.35562
G1 X86.561 Y215.135 E13.38608
G1 X85.392 Y215.379 E13.40656
G1 X84.207 Y215.525 E13.42704
G1 X82.617 Y215.563 E13.45433
G1 X81.014 Y215.422 E13.48192
G1 X79.847 Y215.201 E13.50230
G1 X78.693 Y214.882 E13.52282
G1 X77.162 Y214.287 E13.55100
G1 X75.774 Y213.560 E13.57788
G1 X74.746 Y212.884 E13.59897
G1 X73.779 Y212.121 E13.62012
G1 X72.695 Y211.083 E13.64585
G1 X71.727 Y209.938 E13.67157
G1 X70.923 Y208.760 E13.69603
G1 X70.236 Y207.497 E13.72070
G1 X69.691 Y206.200 E13.74483
G1 X69.321 Y205.028 E13.76591
G1 X69.056 Y203.823 E13.78706
G1 X68.865 Y202.261 E13.81406
G1 X68.846 Y200.779 E13.83949
G1 X68.972 Y199.365 E13.86384
G1 X69.208 Y198.099 E13.88593
G1 X69.556 Y196.875 E13.90775
G1 X70.085 Y195.505 E13.93294
G1 X70.744 Y194.218 E13.95774
G1 X71.548 Y192.979 E13.98308
G1 X72.368 Y191.952 E14.00561
G1 X73.273 Y191.019 E14.02791
G1 X74.455 Y190.007 E14.05459
G1 X75.645 Y189.194 E14.07932
G1 X76.945 Y188.492 E14.10466
G1 X78.010 Y188.111 E14.12406
G1 X79.035 Y187.929 E14.14192
G1 X78.384 Y186.294 E14.17211
G1 X77.047 Y182.662 E14.23849
G1 X75.793 Y178.985 E14.30512
G1 X74.622 Y175.256 E14.37217
G1 X73.553 Y171.532 E14.43863
G1 X72.573 Y167.778 E14.50516
G1 X71.579 Y163.499 E14.58053
G1 X70.878 Y160.146 E14.63928
G1 X70.177 Y156.335 E14.70574
G1 X69.567 Y152.494 E14.77245
G1 X69.049 Y148.629 E14.83933
G1 X68.629 Y144.777 E14.90579
G1 X68.302 Y140.902 E14.97250
G1 X68.070 Y137.024 E15.03914
G1 X67.932 Y133.132 E15.10593
G1 X67.889 Y129.233 E15.17281
G1 X67.942 Y125.344 E15.23953
G1 X68.089 Y121.461 E15.30618
G1 X68.371 Y117.125 E15.38071
G1 X68.667 Y113.720 E15.43934
G1 X69.099 Y109.854 E15.50605
G1 X69.623 Y106.010 E15.57259
G1 X70.249 Y102.132 E15.63997
G1 X70.958 Y98.332 E15.70627
G1 X71.762 Y94.537 E15.77281
G1 X72.660 Y90.755 E15.83949
G1 X73.049 Y89.294 E15.86543
G1 X72.268 Y89.026 E15.87961
G1 X71.421 Y88.494 E15.89675
G1 X70.596 Y87.613 E15.91746
G1 X69.846 Y86.049 E15.94721
G1 X69.714 Y85.167 E15.96251
G1 X69.809 Y83.943 E15.98357
G1 X71.356 Y79.263 E16.06811
G1 X72.299 Y77.905 E16.09648
G1 X73.104 Y77.292 E16.11383
G1 X74.146 Y76.800 E16.13359
G1 X75.451 Y76.577 E16.15631
G1 X76.331 Y76.656 E16.17146
G1 X76.855 Y76.812 E16.18083
G1 X77.507 Y74.951 E16.21465
G1 X78.883 Y71.302 E16.28154
G1 X80.200 Y68.050 E16.34173
G1 X81.426 Y65.202 E16.39491
G1 X83.040 Y61.653 E16.46178
G1 X84.583 Y58.464 E16.52254
G1 X85.290 Y57.222 E16.54706
G1 X86.121 Y56.071 E16.57141
G1 X87.035 Y55.051 E16.59490
G1 X87.967 Y54.199 E16.61656
G1 X88.978 Y53.439 E16.63825
G1 X90.258 Y52.670 E16.66386
G1 X91.604 Y52.056 E16.68924
G1 X93.016 Y51.593 E16.71474
G1 X94.472 Y51.291 E16.74023
G1 X95.830 Y51.160 E16.76363
G1 X97.225 Y51.171 E16.78756
G1 X98.585 Y51.325 E16.81105
G1 X100.312 Y51.690 E16.84131
G1 X100.847 Y51.754 E16.85055
G1 X101.379 Y51.769 E16.85970
G1 X101.911 Y51.734 E16.86884
G1 X102.437 Y51.650 E16.87798
G1 X102.877 Y51.537 E16.88576
G1 X103.472 Y51.330 E16.89656
G1 X103.938 Y51.113 E16.90539
G1 X104.382 Y50.853 E16.91421
G1 X104.891 Y50.483 E16.92501
G1 X105.235 Y50.185 E16.93280
G1 X105.603 Y49.801 E16.94194
G1 X105.935 Y49.384 E16.95108
G1 X106.227 Y48.938 E16.96022
G1 X106.477 Y48.467 E16.96936
G1 X106.684 Y47.970 E16.97860
G1 X107.241 Y46.213 E17.01021
G1 X107.806 Y44.912 E17.03454
G1 X108.542 Y43.622 E17.06002
