; generated by PrusaSlicer 2.2.0+win64 on 2020-05-10 at 15:40:32 UTC

; 

; external perimeters extrusion width = 0.45mm
; perimeters extrusion width = 0.45mm
; infill extrusion width = 0.45mm
; solid infill extrusion width = 0.45mm
; top infill extrusion width = 0.40mm
; first layer extrusion width = 0.42mm

M107
M190 S60 ; set bed temperature and wait for it to be reached
M104 S205 ; set temperature
G28 ; home all axes
G29 S1
G1 Z5 F5000 ; lift nozzle
M109 S205 ; set temperature and wait for it to be reached
G21 ; set units to millimeters
G90 ; use absolute coordinates
M82 ; use absolute distances for extrusion
G92 E0
; Filament gcode
G1 Z0.100 F7800.000
G10 ; retract
G92 E0
G1 X87.905 Y51.976
G11 ; unretract
G92 E0
G1 F1200.000
G1 X112.397 Y37.637 E0.49251
G1 X113.890 Y36.919 E0.52125
G1 X115.713 Y36.294 E0.55471
G1 X134.864 Y31.297 E0.89817
G1 X135.655 Y31.145 E0.91215
G1 X136.466 Y31.094 E0.92624
G1 X137.548 Y31.187 E0.94509
G1 X140.736 Y31.748 E1.00127
G1 X141.601 Y31.981 E1.01681
G1 X203.482 Y53.412 E2.15326
G1 X204.250 Y53.746 E2.16778
G1 X207.086 Y55.269 E2.22365
G1 X207.955 Y55.835 E2.24163
G1 X208.564 Y56.371 E2.25572
G1 X209.101 Y56.980 E2.26981
G1 X221.072 Y72.767 E2.61363
G1 X221.934 Y74.055 E2.64052
G1 X222.566 Y75.237 E2.66378
G1 X233.074 Y101.804 E3.15957
G1 X233.627 Y103.814 E3.19575
G1 X233.836 Y105.142 E3.21908
G1 X233.916 Y106.372 E3.24047
G1 X233.851 Y108.294 E3.27385
G1 X231.182 Y133.840 E3.71957
G1 X230.925 Y134.921 E3.73885
G1 X229.655 Y138.432 E3.80364
G1 X228.979 Y139.753 E3.82939
G1 X207.290 Y170.257 E4.47891
G1 X202.636 Y176.494 E4.61396
G1 X156.765 Y233.215 E5.87987
G1 X155.586 Y234.432 E5.90928
G1 X154.371 Y235.454 E5.93682
G1 X153.050 Y236.356 E5.96459
G1 X151.656 Y237.118 E5.99215
G1 X150.207 Y237.733 E6.01948
G1 X148.671 Y238.212 E6.04739
G1 X147.123 Y238.530 E6.07482
G1 X145.389 Y238.702 E6.10505
G1 X143.993 Y238.705 E6.12928
G1 X142.443 Y238.564 E6.15629
G1 X140.938 Y238.280 E6.18288
G1 X139.503 Y237.865 E6.20879
G1 X77.811 Y216.501 E7.34175
G1 X76.330 Y215.903 E7.36946
G1 X75.133 Y215.286 E7.39283
G1 X74.010 Y214.582 E7.41584
G1 X72.472 Y213.391 E7.44959
G1 X71.144 Y212.076 E7.48203
G1 X70.300 Y211.061 E7.50493
G1 X69.613 Y210.079 E7.52573
G1 X68.649 Y208.384 E7.55957
G1 X67.934 Y206.670 E7.59179
G1 X67.550 Y205.430 E7.61433
G1 X67.285 Y204.227 E7.63571
G1 X67.043 Y202.197 E7.67117
G1 X66.110 Y132.642 E8.87831
G1 X66.126 Y125.344 E9.00497
G1 X67.941 Y84.418 E9.71587
G1 X68.189 Y83.075 E9.73958
G1 X69.615 Y78.791 E9.81792
G1 X70.123 Y77.796 E9.83731
G1 X83.833 Y56.137 E10.28215
G1 X84.651 Y55.002 E10.30643
G1 X85.664 Y53.856 E10.33297
G1 X86.787 Y52.819 E10.35950
G1 X87.857 Y52.012 E10.38275
G10 ; retract
G92 E0
G1 X143.770 Y40.229 F7800.000
G11 ; unretract
G92 E0
G1 F1200.000
G1 X146.846 Y40.790 E0.05425
G1 X150.894 Y41.635 E0.12602
G1 X154.970 Y42.585 E0.19865
G1 X158.974 Y43.617 E0.27041
G1 X162.993 Y44.752 E0.34288
G1 X166.954 Y45.971 E0.41479
G1 X170.924 Y47.295 E0.48743
G1 X174.841 Y48.703 E0.55965
G1 X178.699 Y50.191 E0.63140
G1 X182.559 Y51.784 E0.70387
G1 X186.352 Y53.454 E0.77579
G1 X190.134 Y55.224 E0.84826
G1 X193.842 Y57.066 E0.92011
G1 X196.604 Y58.526 E0.97432
G1 X197.493 Y56.868 E1.00697
G1 X198.215 Y56.011 E1.02642
G1 X199.469 Y55.212 E1.05221
G1 X200.919 Y54.836 E1.07822
G1 X201.904 Y54.851 E1.09531
G1 X202.894 Y55.102 E1.11304
G1 X207.038 Y57.379 E1.19509
G1 X207.653 Y58.024 E1.21055
G1 X208.251 Y59.016 E1.23066
G1 X208.632 Y60.435 E1.25615
G1 X208.600 Y61.648 E1.27720
G1 X208.308 Y62.624 E1.29488
G1 X207.222 Y64.662 E1.33496
G1 X210.202 Y66.550 E1.39619
G1 X213.480 Y68.741 E1.46461
G1 X216.762 Y71.041 E1.53415
G1 X217.763 Y71.841 E1.55640
G1 X218.766 Y72.824 E1.58077
G1 X219.647 Y73.892 E1.60478
G1 X220.387 Y75.006 E1.62801
G1 X221.052 Y76.276 E1.65287
G1 X221.603 Y77.697 E1.67932
G1 X221.930 Y78.898 E1.70093
G1 X222.148 Y80.173 E1.72337
G1 X222.245 Y81.680 E1.74957
G1 X222.174 Y83.142 E1.77498
G1 X221.942 Y84.587 E1.80037
G1 X221.584 Y85.902 E1.82403
G1 X220.961 Y87.547 E1.85454
G1 X220.817 Y88.065 E1.86389
G1 X220.722 Y88.590 E1.87314
G1 X220.675 Y89.121 E1.88238
G1 X220.678 Y89.654 E1.89163
G1 X220.730 Y90.184 E1.90088
G1 X220.831 Y90.707 E1.91013
G1 X220.980 Y91.219 E1.91937
G1 X221.176 Y91.714 E1.92862
G1 X221.416 Y92.190 E1.93787
G1 X221.657 Y92.575 E1.94575
G1 X222.035 Y93.078 E1.95667
G1 X222.384 Y93.456 E1.96559
G1 X222.781 Y93.812 E1.97484
G1 X223.208 Y94.131 E1.98409
G1 X223.670 Y94.412 E1.99347
G1 X225.353 Y95.249 E2.02610
G1 X226.671 Y96.095 E2.05328
G1 X227.828 Y97.045 E2.07926
G1 X228.691 Y97.912 E2.10049
G1 X229.499 Y98.897 E2.12260
G1 X230.224 Y99.980 E2.14521
G1 X230.830 Y101.112 E2.16749
G1 X231.426 Y102.589 E2.19514
G1 X231.784 Y103.868 E2.21818
G1 X231.998 Y105.084 E2.23961
G1 X232.109 Y106.573 E2.26552
G1 X232.054 Y108.019 E2.29063
G1 X231.841 Y109.448 E2.31570
G1 X231.087 Y112.890 E2.37685
G1 X230.254 Y116.324 E2.43817
G1 X229.358 Y119.692 E2.49865
G1 X228.381 Y123.065 E2.55959
G1 X227.338 Y126.393 E2.62011
G1 X226.558 Y128.673 E2.66193
G1 X227.202 Y128.934 E2.67399
G1 X228.058 Y129.579 E2.69259
G1 X228.688 Y130.348 E2.70983
G1 X229.363 Y131.913 E2.73941
G1 X229.471 Y132.997 E2.75831
G1 X229.315 Y134.041 E2.77664
G1 X227.837 Y138.131 E2.85211
G1 X227.511 Y138.763 E2.86445
G1 X226.231 Y140.023 E2.89562
G1 X225.148 Y140.554 E2.91654
G1 X224.127 Y140.792 E2.93474
G1 X222.874 Y140.739 E2.95650
G1 X221.996 Y140.446 E2.97256
G1 X221.238 Y142.206 E3.00583
G1 X219.606 Y145.734 E3.07328
G1 X217.886 Y149.222 E3.14077
G1 X216.084 Y152.664 E3.20819
G1 X214.196 Y156.064 E3.27568
G1 X212.236 Y159.401 E3.34283
G1 X210.188 Y162.701 E3.41024
G1 X208.316 Y165.559 E3.46953
G1 X205.832 Y169.175 E3.54566
G1 X203.555 Y172.305 E3.61282
G1 X201.171 Y175.420 E3.68091
G1 X198.744 Y178.435 E3.74807
G1 X196.219 Y181.419 E3.81590
G1 X193.648 Y184.312 E3.88306
G1 X190.990 Y187.158 E3.95064
G1 X188.243 Y189.960 E4.01873
G1 X185.481 Y192.642 E4.08555
G1 X182.622 Y195.287 E4.15312
G1 X179.722 Y197.841 E4.22019
G1 X177.107 Y200.034 E4.27941
G1 X173.674 Y202.787 E4.35578
G1 X170.590 Y205.125 E4.42293
G1 X167.447 Y207.390 E4.49018
G1 X164.212 Y209.603 E4.55818
G1 X160.949 Y211.719 E4.62568
G1 X157.648 Y213.748 E4.69293
G1 X156.129 Y214.628 E4.72338
G1 X156.822 Y215.405 E4.74144
G1 X157.424 Y216.363 E4.76106
G1 X158.011 Y217.719 E4.78672
G1 X158.443 Y219.094 E4.81173
G1 X158.747 Y220.620 E4.83873
G1 X158.880 Y221.913 E4.86129
G1 X158.889 Y223.226 E4.88407
G1 X158.755 Y224.698 E4.90972
G1 X158.477 Y226.116 E4.93480
G1 X158.045 Y227.520 E4.96029
G1 X157.562 Y228.698 E4.98238
G1 X156.964 Y229.838 E5.00473
G1 X156.189 Y231.027 E5.02935
G1 X155.257 Y232.180 E5.05508
G1 X154.141 Y233.290 E5.08240
G1 X153.188 Y234.072 E5.10380
G1 X152.172 Y234.765 E5.12513
G1 X150.942 Y235.446 E5.14954
G1 X149.621 Y236.014 E5.17449
G1 X148.260 Y236.443 E5.19924
G1 X146.792 Y236.744 E5.22525
G1 X145.229 Y236.892 E5.25250
G1 X144.030 Y236.889 E5.27330
G1 X142.840 Y236.786 E5.29404
G1 X141.278 Y236.494 E5.32162
G1 X139.729 Y236.020 E5.34972
G1 X138.625 Y235.557 E5.37049
G1 X137.571 Y235.008 E5.39112
G1 X136.224 Y234.128 E5.41904
G1 X134.998 Y233.116 E5.44663
G1 X134.157 Y232.268 E5.46735
G1 X133.390 Y231.353 E5.48808
G1 X132.395 Y229.881 E5.51890
G1 X131.833 Y228.824 E5.53968
G1 X131.358 Y227.710 E5.56070
G1 X130.875 Y226.185 E5.58846
G1 X130.568 Y224.619 E5.61615
G1 X130.455 Y223.431 E5.63687
G1 X130.444 Y222.235 E5.65761
G1 X130.579 Y220.648 E5.68526
G1 X130.895 Y219.079 E5.71302
G1 X131.244 Y217.938 E5.73374
G1 X131.695 Y216.824 E5.75459
G1 X132.460 Y215.353 E5.78337
G1 X133.317 Y214.083 E5.80995
G1 X134.074 Y213.166 E5.83059
G1 X134.915 Y212.310 E5.85141
G1 X136.064 Y211.334 E5.87758
G1 X137.240 Y210.530 E5.90230
G1 X138.500 Y209.845 E5.92718
G1 X141.888 Y208.193 E5.99259
G1 X145.144 Y206.504 E6.05625
G1 X148.357 Y204.734 E6.11990
G1 X151.525 Y202.884 E6.18356
G1 X154.645 Y200.955 E6.24722
G1 X157.330 Y199.201 E6.30288
G1 X160.741 Y196.864 E6.37463
G1 X163.704 Y194.710 E6.43819
G1 X166.616 Y192.480 E6.50185
G1 X169.472 Y190.178 E6.56551
G1 X172.269 Y187.805 E6.62916
G1 X175.006 Y185.362 E6.69282
G1 X177.681 Y182.853 E6.75648
G1 X180.293 Y180.276 E6.82014
G1 X182.839 Y177.636 E6.88380
G1 X185.319 Y174.933 E6.94746
G1 X187.731 Y172.168 E7.01111
G1 X190.072 Y169.345 E7.07477
G1 X192.342 Y166.463 E7.13843
G1 X194.540 Y163.526 E7.20209
G1 X196.663 Y160.535 E7.26574
G1 X198.711 Y157.491 E7.32940
G1 X200.682 Y154.398 E7.39306
G1 X202.575 Y151.256 E7.45672
G1 X204.390 Y148.068 E7.52038
G1 X206.124 Y144.835 E7.58403
G1 X207.776 Y141.560 E7.64769
G1 X209.347 Y138.245 E7.71135
G1 X210.834 Y134.891 E7.77501
G1 X212.236 Y131.502 E7.83866
G1 X213.388 Y128.509 E7.89432
G1 X214.787 Y124.618 E7.96608
G1 X215.930 Y121.138 E8.02963
G1 X216.987 Y117.625 E8.09329
G1 X217.957 Y114.088 E8.15695
G1 X218.837 Y110.527 E8.22061
G1 X219.603 Y107.061 E8.28221
G1 X219.633 Y106.764 E8.28737
G1 X219.600 Y106.572 E8.29077
G1 X219.514 Y106.380 E8.29441
G1 X219.335 Y106.187 E8.29899
G1 X217.805 Y105.418 E8.32870
G1 X216.537 Y104.670 E8.35425
G1 X215.320 Y103.810 E8.38011
G1 X214.125 Y102.808 E8.40717
G1 X213.032 Y101.719 E8.43394
G1 X212.076 Y100.595 E8.45955
G1 X211.195 Y99.369 E8.48575
G1 X210.419 Y98.074 E8.51196
G1 X209.746 Y96.705 E8.53842
G1 X209.230 Y95.365 E8.56334
G1 X208.483 Y95.595 E8.57692
G1 X207.417 Y95.747 E8.59560
G1 X206.274 Y95.724 E8.61543
G1 X205.145 Y95.509 E8.63538
G1 X204.224 Y95.178 E8.65236
G1 X203.378 Y94.718 E8.66908
G1 X202.701 Y94.198 E8.68388
G1 X202.202 Y93.694 E8.69619
G1 X200.265 Y91.366 E8.74875
G1 X198.433 Y89.298 E8.79669
G1 X196.533 Y87.294 E8.84462
G1 X194.569 Y85.353 E8.89254
G1 X192.541 Y83.477 E8.94047
G1 X190.453 Y81.670 E8.98840
G1 X188.306 Y79.933 E9.03633
G1 X186.103 Y78.268 E9.08425
G1 X183.845 Y76.676 E9.13218
G1 X181.537 Y75.160 E9.18010
G1 X179.180 Y73.721 E9.22803
G1 X176.776 Y72.360 E9.27596
G1 X174.329 Y71.080 E9.32388
G1 X171.841 Y69.881 E9.37181
G1 X169.315 Y68.765 E9.41974
G1 X166.753 Y67.733 E9.46767
G1 X164.159 Y66.787 E9.51559
G1 X161.535 Y65.926 E9.56351
G1 X158.884 Y65.153 E9.61144
G1 X156.209 Y64.467 E9.65936
G1 X153.512 Y63.871 E9.70729
G1 X150.797 Y63.363 E9.75522
G1 X148.067 Y62.946 E9.80314
G1 X145.325 Y62.619 E9.85107
G1 X142.573 Y62.383 E9.89900
G1 X139.815 Y62.238 E9.94692
G1 X137.054 Y62.184 E9.99485
G1 X134.293 Y62.221 E10.04277
G1 X131.534 Y62.349 E10.09070
G1 X128.781 Y62.569 E10.13863
G1 X126.036 Y62.879 E10.18655
G1 X123.304 Y63.280 E10.23448
G1 X120.586 Y63.771 E10.28242
G1 X117.623 Y64.403 E10.33499
G1 X116.920 Y64.490 E10.34728
G1 X116.067 Y64.480 E10.36209
G1 X115.119 Y64.319 E10.37876
G1 X114.195 Y64.011 E10.39568
G1 X113.173 Y63.483 E10.41564
G1 X112.258 Y62.793 E10.43553
G1 X111.512 Y62.012 E10.45426
G1 X111.067 Y61.369 E10.46784
G1 X109.835 Y62.102 E10.49273
G1 X108.392 Y62.791 E10.52047
G1 X107.011 Y63.312 E10.54609
G1 X105.576 Y63.724 E10.57199
G1 X104.079 Y64.023 E10.59849
G1 X102.580 Y64.193 E10.62466
G1 X101.075 Y64.240 E10.65080
G1 X99.570 Y64.162 E10.67696
G1 X98.137 Y63.970 E10.70205
G1 X96.507 Y63.629 E10.73093
G1 X96.240 Y63.648 E10.73557
G1 X96.016 Y63.737 E10.73977
G1 X95.842 Y63.894 E10.74383
G1 X95.683 Y64.145 E10.74898
G1 X94.141 Y67.342 E10.81058
G1 X92.631 Y70.685 E10.87424
G1 X91.204 Y74.065 E10.93790
G1 X89.863 Y77.479 E11.00156
G1 X88.607 Y80.925 E11.06522
G1 X87.438 Y84.402 E11.12887
G1 X86.356 Y87.907 E11.19253
G1 X85.362 Y91.438 E11.25619
G1 X84.456 Y94.993 E11.31985
G1 X83.640 Y98.569 E11.38350
G1 X82.913 Y102.165 E11.44716
G1 X82.356 Y105.323 E11.50282
G1 X81.729 Y109.411 E11.57458
G1 X81.275 Y113.045 E11.63813
G1 X80.956 Y116.236 E11.69379
G1 X80.637 Y120.359 E11.76555
G1 X80.456 Y124.017 E11.82910
G1 X80.366 Y127.684 E11.89276
G1 X80.368 Y131.352 E11.95642
G1 X80.462 Y135.019 E12.02008
G1 X80.647 Y138.683 E12.08373
G1 X80.924 Y142.341 E12.14739
G1 X81.292 Y145.991 E12.21105
G1 X81.751 Y149.630 E12.27471
G1 X82.301 Y153.257 E12.33837
G1 X82.861 Y156.415 E12.39403
G1 X83.673 Y160.469 E12.46578
G1 X84.492 Y164.039 E12.52934
G1 X85.287 Y167.146 E12.58500
G1 X86.401 Y171.128 E12.65675
G1 X87.485 Y174.627 E12.72031
G1 X88.658 Y178.102 E12.78397
G1 X89.917 Y181.548 E12.84762
G1 X91.093 Y184.532 E12.90328
G1 X92.694 Y188.344 E12.97503
G1 X94.206 Y191.680 E13.03859
G1 X95.851 Y195.082 E13.10418
G1 X96.456 Y196.523 E13.13131
G1 X96.819 Y197.669 E13.15216
G1 X97.078 Y198.829 E13.17278
G1 X97.255 Y200.199 E13.19676
G1 X97.296 Y201.677 E13.22242
G1 X97.183 Y203.163 E13.24827
G1 X96.878 Y204.767 E13.27660
G1 X96.543 Y205.920 E13.29745
G1 X96.112 Y207.033 E13.31816
G1 X95.390 Y208.461 E13.34592
G1 X94.515 Y209.792 E13.37357
G1 X93.767 Y210.724 E13.39431
G1 X92.943 Y211.588 E13.41502
G1 X91.733 Y212.629 E13.44272
G1 X90.410 Y213.529 E13.47050
G1 X89.347 Y214.111 E13.49151
G1 X88.252 Y214.594 E13.51228
G1 X86.561 Y215.135 E13.54310
G1 X85.392 Y215.379 E13.56382
G1 X84.207 Y215.525 E13.58454
G1 X82.617 Y215.563 E13.61215
G1 X81.014 Y215.422 E13.64007
G1 X79.847 Y215.201 E13.66068
G1 X78.693 Y214.882 E13.68145
G1 X77.162 Y214.287 E13.70996
G1 X75.774 Y213.560 E13.73715
G1 X74.746 Y212.884 E13.75849
G1 X73.779 Y212.121 E13.77988
G1 X72.695 Y211.083 E13.80591
G1 X71.727 Y209.938 E13.83194
G1 X70.923 Y208.760 E13.85669
G1 X70.236 Y207.497 E13.88164
G1 X69.691 Y206.200 E13.90606
G1 X69.321 Y205.028 E13.92738
G1 X69.056 Y203.823 E13.94879
G1 X68.865 Y202.261 E13.97610
G1 X68.846 Y200.779 E14.00183
G1 X68.972 Y199.365 E14.02646
G1 X69.208 Y198.099 E14.04881
G1 X69.556 Y196.875 E14.07089
G1 X70.085 Y195.505 E14.09637
G1 X70.744 Y194.218 E14.12146
G1 X71.548 Y192.979 E14.14710
G1 X72.368 Y191.952 E14.16989
G1 X73.273 Y191.019 E14.19246
G1 X74.455 Y190.007 E14.21945
G1 X75.645 Y189.194 E14.24447
G1 X76.945 Y188.492 E14.27011
G1 X78.010 Y188.111 E14.28974
G1 X79.035 Y187.929 E14.30781
G1 X78.384 Y186.294 E14.33835
G1 X77.047 Y182.662 E14.40551
G1 X75.793 Y178.985 E14.47292
G1 X74.622 Y175.256 E14.54076
G1 X73.553 Y171.532 E14.60799
G1 X72.573 Y167.778 E14.67531
G1 X71.579 Y163.499 E14.75156
G1 X70.878 Y160.146 E14.81100
G1 X70.177 Y156.335 E14.87824
G1 X69.567 Y152.494 E14.94573
G1 X69.049 Y148.629 E15.01340
G1 X68.629 Y144.777 E15.08064
G1 X68.302 Y140.902 E15.14813
G1 X68.070 Y137.024 E15.21555
G1 X67.932 Y133.132 E15.28313
G1 X67.889 Y129.233 E15.35079
G1 X67.942 Y125.344 E15.41829
G1 X68.089 Y121.461 E15.48572
G1 X68.371 Y117.125 E15.56113
G1 X68.667 Y113.720 E15.62044
G1 X69.099 Y109.854 E15.68794
G1 X69.623 Y106.010 E15.75526
G1 X70.249 Y102.132 E15.82343
G1 X70.958 Y98.332 E15.89051
G1 X71.762 Y94.537 E15.95783
G1 X72.660 Y90.755 E16.02529
G1 X73.049 Y89.294 E16.05153
G1 X72.268 Y89.026 E16.06588
G1 X71.421 Y88.494 E16.08322
G1 X70.596 Y87.613 E16.10418
G1 X69.846 Y86.049 E16.13428
G1 X69.714 Y85.167 E16.14975
G1 X69.809 Y83.943 E16.17106
G1 X71.356 Y79.263 E16.25659
G1 X72.299 Y77.905 E16.28529
G1 X73.104 Y77.292 E16.30284
G1 X74.146 Y76.800 E16.32284
G1 X75.451 Y76.577 E16.34582
G1 X76.331 Y76.656 E16.36115
G1 X76.855 Y76.812 E16.37063
G1 X77.507 Y74.951 E16.40485
G1 X78.883 Y71.302 E16.47253
G1 X80.200 Y68.050 E16.53342
G1 X81.426 Y65.202 E16.58722
G1 X83.040 Y61.653 E16.65488
G1 X84.583 Y58.464 E16.71635
G1 X85.290 Y57.222 E16.74115
G1 X86.121 Y56.071 E16.76580
G1 X87.035 Y55.051 E16.78956
G1 X87.967 Y54.199 E16.81148
G1 X88.978 Y53.439 E16.83342
G1 X90.258 Y52.670 E16.85933
G1 X91.604 Y52.056 E16.88501
G1 X93.016 Y51.593 E16.91080
G1 X94.472 Y51.291 E16.93660
G1 X95.830 Y51.160 E16.96027
G1 X97.225 Y51.171 E16.98448
G1 X98.585 Y51.325 E17.00824
G1 X100.312 Y51.690 E17.03886
G1 X100.847 Y51.754 E17.04821
G1 X101.379 Y51.769 E17.05746
G1 X101.911 Y51.734 E17.06671
G1 X102.437 Y51.650 E17.07596
G1 X102.877 Y51.537 E17.08384
G1 X103.472 Y51.330 E17.09476
G1 X103.938 Y51.113 E17.10369
G1 X104.382 Y50.853 E17.11261
G1 X104.891 Y50.483 E17.12354
G1 X105.235 Y50.185 E17.13142
G1 X105.603 Y49.801 E17.14067
G1 X105.935 Y49.384 E17.14991
G1 X106.227 Y48.938 E17.15916
G1 X106.477 Y48.467 E17.16841
G1 X106.684 Y47.970 E17.17776
G1 X107.241 Y46.213 E17.20974
G1 X107.806 Y44.912 E17.23436
G1 X108.542 Y43.622 E17.26013
