; G-Code generated by Simplify3D(R) Version 4.0.0
; Aug 21, 2017 at 10:17:43 AM
; Settings Summary
;   processName,Process1
;   applyToModels,Temp calibration170-210PLA
;   profileName,Tronxy P802 (modified)
;   profileVersion,2017-08-19 17:21:20
;   baseProfile,Default (modified)
;   printMaterial,PETG
;   printQuality,Medium
;   printExtruders,
;   extruderName,Primary Extruder
;   extruderToolheadNumber,0
;   extruderDiameter,0.4
;   extruderAutoWidth,0
;   extruderWidth,0.4
;   extrusionMultiplier,1
;   extruderUseRetract,1
;   extruderRetractionDistance,1.5
;   extruderExtraRestartDistance,0
;   extruderRetractionZLift,0
;   extruderRetractionSpeed,1800
;   extruderUseCoasting,0
;   extruderCoastingDistance,0.2
;   extruderUseWipe,0
;   extruderWipeDistance,5
;   primaryExtruder,0
;   layerHeight,0.2
;   topSolidLayers,3
;   bottomSolidLayers,3
;   perimeterOutlines,3
;   printPerimetersInsideOut,1
;   startPointOption,2
;   startPointOriginX,0
;   startPointOriginY,0
;   sequentialIslands,0
;   spiralVaseMode,0
;   firstLayerHeightPercentage,90
;   firstLayerWidthPercentage,100
;   firstLayerUnderspeed,0.5
;   useRaft,0
;   raftExtruder,0
;   raftTopLayers,3
;   raftBaseLayers,2
;   raftOffset,3
;   raftSeparationDistance,0.14
;   raftTopInfill,100
;   aboveRaftSpeedMultiplier,0.3
;   useSkirt,1
;   skirtExtruder,0
;   skirtLayers,1
;   skirtOutlines,4
;   skirtOffset,4
;   usePrimePillar,0
;   primePillarExtruder,999
;   primePillarWidth,12
;   primePillarLocation,7
;   primePillarSpeedMultiplier,1
;   useOozeShield,0
;   oozeShieldExtruder,999
;   oozeShieldOffset,2
;   oozeShieldOutlines,1
;   oozeShieldSidewallShape,1
;   oozeShieldSidewallAngle,30
;   oozeShieldSpeedMultiplier,1
;   infillExtruder,0
;   internalInfillPattern,Rectilinear
;   externalInfillPattern,Rectilinear
;   infillPercentage,20
;   outlineOverlapPercentage,15
;   infillExtrusionWidthPercentage,100
;   minInfillLength,5
;   infillLayerInterval,1
;   internalInfillAngles,45,-45
;   overlapInternalInfillAngles,0
;   externalInfillAngles,45,-45
;   generateSupport,0
;   supportExtruder,0
;   supportInfillPercentage,30
;   supportExtraInflation,0
;   supportBaseLayers,0
;   denseSupportExtruder,0
;   denseSupportLayers,0
;   denseSupportInfillPercentage,70
;   supportLayerInterval,1
;   supportHorizontalPartOffset,0.3
;   supportUpperSeparationLayers,1
;   supportLowerSeparationLayers,1
;   supportType,0
;   supportGridSpacing,4
;   maxOverhangAngle,45
;   supportAngles,0
;   temperatureName,Primary Extruder,Headed bed
;   temperatureNumber,0,1
;   temperatureSetpointCount,9,1
;   temperatureSetpointLayers,1,39,73,106,140,174,207,241,275,1
;   temperatureSetpointTemperatures,210,205,200,195,190,185,180,175,170,60
;   temperatureStabilizeAtStartup,1,1
;   temperatureHeatedBed,0,1
;   temperatureRelayBetweenLayers,0,0
;   temperatureRelayBetweenLoops,0,0
;   fanLayers,1,2
;   fanSpeeds,0,100
;   blipFanToFullPower,0
;   adjustSpeedForCooling,1
;   minSpeedLayerTime,15
;   minCoolingSpeedSlowdown,20
;   increaseFanForCooling,0
;   minFanLayerTime,45
;   maxCoolingFanSpeed,100
;   increaseFanForBridging,0
;   bridgingFanSpeed,100
;   use5D,1
;   relativeEdistances,0
;   allowEaxisZeroing,1
;   independentExtruderAxes,0
;   includeM10123,0
;   stickySupport,1
;   applyToolheadOffsets,0
;   gcodeXoffset,0
;   gcodeYoffset,0
;   gcodeZoffset,3.46945e-18
;   overrideMachineDefinition,0
;   machineTypeOverride,0
;   strokeXoverride,200
;   strokeYoverride,200
;   strokeZoverride,200
;   originOffsetXoverride,0
;   originOffsetYoverride,0
;   originOffsetZoverride,0
;   homeXdirOverride,-1
;   homeYdirOverride,-1
;   homeZdirOverride,-1
;   flipXoverride,1
;   flipYoverride,-1
;   flipZoverride,1
;   toolheadOffsets,0,0|0,0|0,0|0,0|0,0|0,0
;   overrideFirmwareConfiguration,0
;   firmwareTypeOverride,RepRap (Marlin/Repetier/Sprinter)
;   GPXconfigOverride,r2
;   baudRateOverride,115200
;   overridePrinterModels,0
;   printerModelsOverride
;   startingGcode,G28 ;Home,G1 Z15.0 F6000 ;Move the platform down 15mm,G1 E10 F240 ;Extrude 10MM fillament,,,
;   layerChangeGcode,
;   retractionGcode,
;   toolChangeGcode,
;   endingGcode,M104 S0,M140 S0,G92 E1,G1 E-1 F300,G28 X0 Y0,M84
;   exportFileFormat,gcode
;   celebration,0
;   celebrationSong,Random Song
;   postProcessing,
;   defaultSpeed,3600
;   outlineUnderspeed,0.5
;   solidInfillUnderspeed,0.8
;   supportUnderspeed,0.8
;   rapidXYspeed,4800
;   rapidZspeed,1002
;   minBridgingArea,50
;   bridgingExtraInflation,0
;   bridgingExtrusionMultiplier,1
;   bridgingSpeedMultiplier,1
;   useFixedBridgingAngle,0
;   fixedBridgingAngle,0
;   applyBridgingToPerimeters,0
;   filamentDiameters,1.75|1.75|1.75|1.75|1.75|1.75
;   filamentPricesPerKg,46|46|46|46|46|46
;   filamentDensities,1.25|1.25|1.25|1.25|1.25|1.25
;   useMinPrintHeight,0
;   minPrintHeight,0
;   useMaxPrintHeight,0
;   maxPrintHeight,0
;   useDiaphragm,0
;   diaphragmLayerInterval,20
;   robustSlicing,1
;   mergeAllIntoSolid,0
;   onlyRetractWhenCrossingOutline,1
;   retractBetweenLayers,1
;   useRetractionMinTravel,0
;   retractionMinTravel,3
;   retractWhileWiping,0
;   onlyWipeOutlines,1
;   avoidCrossingOutline,0
;   maxMovementDetourFactor,3
;   toolChangeRetractionDistance,12
;   toolChangeExtraRestartDistance,-0.5
;   toolChangeRetractionSpeed,600
;   externalThinWallType,0
;   internalThinWallType,2
;   thinWallAllowedOverlapPercentage,10
;   singleExtrusionMinLength,1
;   singleExtrusionMinPrintingWidthPercentage,50
;   singleExtrusionMaxPrintingWidthPercentage,200
;   singleExtrusionEndpointExtension,0.2
;   horizontalSizeCompensation,0
G90
M82
M106 S0
M140 S60
M190 S60
M104 S210 T0
M109 S210 T0
G28 ;Home
G1 Z15.0 F6000 ;Move the platform down 15mm
G1 E10 F240 ;Extrude 10MM fillament
G92 E0
G1 E-1.5000 F1800
G1 Z0.180 F1002
; process Process1
; layer 1, Z = 0.180
T0
; tool H0.200 W0.400
; skirt
G1 X87.550 Y99.813 F4800
G1 E0.0000 F540
G92 E0
G1 X88.065 Y99.600 E0.0185 F1800
G1 X131.935 Y99.600 E1.4777
G1 X132.450 Y99.813 E1.4962
G1 X135.187 Y102.550 E1.6249
G1 X135.400 Y103.065 E1.6435
G1 X135.400 Y116.935 E2.1048
G1 X135.187 Y117.450 E2.1233
G1 X132.450 Y120.187 E2.2521
G1 X131.935 Y120.400 E2.2706
G1 X88.065 Y120.400 E3.7297
G1 X87.550 Y120.187 E3.7483
G1 X84.813 Y117.450 E3.8770
G1 X84.600 Y116.935 E3.8955
G1 X84.600 Y103.065 E4.3569
G1 X84.813 Y102.550 E4.3754
G1 X87.550 Y99.813 E4.5041
G1 X87.777 Y100.152 F4800
G92 E0
G1 X88.144 Y100.000 E0.0132 F1800
G1 X131.856 Y100.000 E1.4671
G1 X132.223 Y100.152 E1.4803
G1 X134.848 Y102.777 E1.6038
G1 X135.000 Y103.144 E1.6170
G1 X135.000 Y116.856 E2.0730
G1 X134.848 Y117.223 E2.0863
G1 X132.223 Y119.848 E2.2097
G1 X131.856 Y120.000 E2.2229
G1 X88.144 Y120.000 E3.6768
G1 X87.777 Y119.848 E3.6900
G1 X85.152 Y117.223 E3.8135
G1 X85.000 Y116.856 E3.8267
G1 X85.000 Y103.144 E4.2828
G1 X85.152 Y102.777 E4.2960
G1 X87.777 Y100.152 E4.4194
G1 X88.003 Y100.491 F4800
G92 E0
G1 X88.224 Y100.400 E0.0079 F1800
G1 X131.776 Y100.400 E1.4565
G1 X131.997 Y100.491 E1.4644
G1 X134.509 Y103.003 E1.5826
G1 X134.600 Y103.224 E1.5905
G1 X134.600 Y116.776 E2.0413
G1 X134.509 Y116.997 E2.0492
G1 X131.997 Y119.509 E2.1674
G1 X131.776 Y119.600 E2.1753
G1 X88.224 Y119.600 E3.6239
G1 X88.003 Y119.509 E3.6318
G1 X85.491 Y116.997 E3.7500
G1 X85.400 Y116.776 E3.7579
G1 X85.400 Y103.224 E4.2087
G1 X85.491 Y103.003 E4.2166
G1 X88.003 Y100.491 E4.3348
G1 X88.230 Y100.830 F4800
G92 E0
G1 X88.303 Y100.800 E0.0026 F1800
G1 X131.697 Y100.800 E1.4459
G1 X131.770 Y100.830 E1.4486
G1 X134.170 Y103.230 E1.5614
G1 X134.200 Y103.303 E1.5641
G1 X134.200 Y116.697 E2.0095
G1 X134.170 Y116.770 E2.0122
G1 X131.770 Y119.170 E2.1250
G1 X131.697 Y119.200 E2.1277
G1 X88.303 Y119.200 E3.5709
G1 X88.230 Y119.170 E3.5736
G1 X85.830 Y116.770 E3.6865
G1 X85.800 Y116.697 E3.6891
G1 X85.800 Y103.303 E4.1346
G1 X85.830 Y103.230 E4.1372
G1 X88.230 Y100.830 E4.2501
G92 E0
G1 E-1.5000 F1800
; inner perimeter
G1 X91.000 Y106.000 F4800
G1 E0.0000 F1800
G92 E0
G1 X129.000 Y106.000 E1.2639 F1350
G1 X129.000 Y114.000 E1.5300
G1 X91.000 Y114.000 E2.7939
G1 X91.000 Y106.000 E3.0599
G1 X90.600 Y105.600 F4800
G92 E0
G1 X129.400 Y105.600 E1.2905 F1350
G1 X129.400 Y114.400 E1.5832
G1 X90.600 Y114.400 E2.8737
G1 X90.600 Y105.600 E3.1664
; outer perimeter
G1 X90.200 Y105.200 F4800
G92 E0
G1 X129.800 Y105.200 E1.3171 F900
G1 X129.800 Y114.800 E1.6364
G1 X90.200 Y114.800 E2.9535
G1 X90.200 Y105.200 E3.2728
; solid layer
G1 X91.598 Y113.660 F4800
G92 E0
G1 X91.340 Y113.402 E0.0121 F1440
G1 X91.340 Y112.836 E0.0310
G1 X92.164 Y113.660 E0.0697
G1 X92.730 Y113.660 E0.0885
G1 X91.340 Y112.270 E0.1539
G1 X91.340 Y111.705 E0.1727
G1 X93.295 Y113.660 E0.2647
G1 X93.861 Y113.660 E0.2835
G1 X91.340 Y111.139 E0.4021
G1 X91.340 Y110.573 E0.4209
G1 X94.427 Y113.660 E0.5661
G1 X94.992 Y113.660 E0.5849
G1 X91.340 Y110.008 E0.7567
G1 X91.340 Y109.442 E0.7755
G1 X95.558 Y113.660 E0.9739
G1 X96.124 Y113.660 E0.9927
G1 X91.340 Y108.876 E1.2177
G1 X91.340 Y108.311 E1.2366
G1 X96.689 Y113.660 E1.4882
G1 X97.255 Y113.660 E1.5070
G1 X91.340 Y107.745 E1.7852
G1 X91.340 Y107.179 E1.8040
G1 X97.821 Y113.660 E2.1089
G1 X98.387 Y113.660 E2.1277
G1 X91.340 Y106.613 E2.4591
G1 X91.340 Y106.340 E2.4682
G1 X91.632 Y106.340 E2.4780
G1 X98.952 Y113.660 E2.8223
G1 X99.518 Y113.660 E2.8411
G1 X92.198 Y106.340 E3.1854
G1 X92.764 Y106.340 E3.2042
G1 X100.084 Y113.660 E3.5485
G1 X100.649 Y113.660 E3.5673
G1 X93.329 Y106.340 E3.9116
G1 X93.895 Y106.340 E3.9305
G1 X101.215 Y113.660 E4.2748
G1 X101.781 Y113.660 E4.2936
G1 X94.461 Y106.340 E4.6379
G1 X95.026 Y106.340 E4.6567
G1 X102.346 Y113.660 E5.0010
G1 X102.912 Y113.660 E5.0198
G1 X95.592 Y106.340 E5.3641
G1 X96.158 Y106.340 E5.3830
G1 X103.478 Y113.660 E5.7273
G1 X104.043 Y113.660 E5.7461
G1 X96.723 Y106.340 E6.0904
G1 X97.289 Y106.340 E6.1092
G1 X104.609 Y113.660 E6.4535
G1 X105.175 Y113.660 E6.4723
G1 X97.855 Y106.340 E6.8166
G1 X98.420 Y106.340 E6.8355
G1 X105.740 Y113.660 E7.1798
G1 X106.306 Y113.660 E7.1986
G1 X98.986 Y106.340 E7.5429
G1 X99.552 Y106.340 E7.5617
G1 X106.872 Y113.660 E7.9060
G1 X107.437 Y113.660 E7.9248
G1 X100.117 Y106.340 E8.2691
G1 X100.683 Y106.340 E8.2880
G1 X108.003 Y113.660 E8.6323
G1 X108.569 Y113.660 E8.6511
G1 X101.249 Y106.340 E8.9954
G1 X101.815 Y106.340 E9.0142
G1 X109.135 Y113.660 E9.3585
G1 X109.700 Y113.660 E9.3773
G1 X102.380 Y106.340 E9.7216
G1 X102.946 Y106.340 E9.7405
G1 X110.266 Y113.660 E10.0848
G1 X110.832 Y113.660 E10.1036
G1 X103.512 Y106.340 E10.4479
G1 X104.077 Y106.340 E10.4667
G1 X111.397 Y113.660 E10.8110
G1 X111.963 Y113.660 E10.8298
G1 X104.643 Y106.340 E11.1741
G1 X105.209 Y106.340 E11.1930
G1 X112.529 Y113.660 E11.5373
G1 X113.094 Y113.660 E11.5561
G1 X105.774 Y106.340 E11.9004
G1 X106.340 Y106.340 E11.9192
G1 X113.660 Y113.660 E12.2635
G1 X114.226 Y113.660 E12.2823
G1 X106.906 Y106.340 E12.6266
G1 X107.471 Y106.340 E12.6455
G1 X114.791 Y113.660 E12.9898
G1 X115.357 Y113.660 E13.0086
G1 X108.037 Y106.340 E13.3529
G1 X108.603 Y106.340 E13.3717
G1 X115.923 Y113.660 E13.7160
G1 X116.488 Y113.660 E13.7348
G1 X109.168 Y106.340 E14.0791
G1 X109.734 Y106.340 E14.0980
G1 X117.054 Y113.660 E14.4423
G1 X117.620 Y113.660 E14.4611
G1 X110.300 Y106.340 E14.8054
G1 X110.865 Y106.340 E14.8242
G1 X118.185 Y113.660 E15.1685
G1 X118.751 Y113.660 E15.1873
G1 X111.431 Y106.340 E15.5316
G1 X111.997 Y106.340 E15.5505
G1 X119.317 Y113.660 E15.8948
G1 X119.883 Y113.660 E15.9136
G1 X112.563 Y106.340 E16.2579
G1 X113.128 Y106.340 E16.2767
G1 X120.448 Y113.660 E16.6210
G1 X121.014 Y113.660 E16.6398
G1 X113.694 Y106.340 E16.9841
G1 X114.260 Y106.340 E17.0030
G1 X121.580 Y113.660 E17.3473
G1 X122.145 Y113.660 E17.3661
G1 X114.825 Y106.340 E17.7104
G1 X115.391 Y106.340 E17.7292
G1 X122.711 Y113.660 E18.0735
G1 X123.277 Y113.660 E18.0923
G1 X115.957 Y106.340 E18.4366
G1 X116.522 Y106.340 E18.4555
G1 X123.842 Y113.660 E18.7998
G1 X124.408 Y113.660 E18.8186
G1 X117.088 Y106.340 E19.1629
G1 X117.654 Y106.340 E19.1817
G1 X124.974 Y113.660 E19.5260
G1 X125.539 Y113.660 E19.5448
G1 X118.219 Y106.340 E19.8891
G1 X118.785 Y106.340 E19.9080
G1 X126.105 Y113.660 E20.2523
G1 X126.671 Y113.660 E20.2711
G1 X119.351 Y106.340 E20.6154
G1 X119.916 Y106.340 E20.6342
G1 X127.236 Y113.660 E20.9785
G1 X127.802 Y113.660 E20.9973
G1 X120.482 Y106.340 E21.3417
G1 X121.048 Y106.340 E21.3605
G1 X128.368 Y113.660 E21.7048
G1 X128.660 Y113.660 E21.7145
G1 X128.660 Y113.386 E21.7236
G1 X121.614 Y106.340 E22.0550
G1 X122.179 Y106.340 E22.0738
G1 X128.660 Y112.821 E22.3787
G1 X128.660 Y112.255 E22.3975
G1 X122.745 Y106.340 E22.6757
G1 X123.311 Y106.340 E22.6945
G1 X128.660 Y111.689 E22.9462
G1 X128.660 Y111.124 E22.9650
G1 X123.876 Y106.340 E23.1900
G1 X124.442 Y106.340 E23.2088
G1 X128.660 Y110.558 E23.4072
G1 X128.660 Y109.992 E23.4260
G1 X125.008 Y106.340 E23.5978
G1 X125.573 Y106.340 E23.6166
G1 X128.660 Y109.427 E23.7618
G1 X128.660 Y108.861 E23.7806
G1 X126.139 Y106.340 E23.8992
G1 X126.705 Y106.340 E23.9180
G1 X128.660 Y108.295 E24.0100
G1 X128.660 Y107.730 E24.0288
G1 X127.270 Y106.340 E24.0942
G1 X127.836 Y106.340 E24.1130
G1 X128.660 Y107.164 E24.1518
G1 X128.660 Y106.598 E24.1706
G1 X128.402 Y106.340 E24.1827
G92 E0
G1 E-1.5000 F1800
; layer 2, Z = 0.380
M106 S255
; inner perimeter
G1 X129.000 Y106.000 F4800
G1 Z0.380 F1002
G1 E0.0000 F1800
G92 E0
G1 X129.000 Y114.000 E0.2661 F2700
G1 X91.000 Y114.000 E1.5300
G1 X91.000 Y106.000 E1.7960
G1 X129.000 Y106.000 E3.0599
G1 X129.400 Y105.600 F4800
G92 E0
G1 X129.400 Y114.400 E0.2927 F2700
G1 X90.600 Y114.400 E1.5832
G1 X90.600 Y105.600 E1.8759
G1 X129.400 Y105.600 E3.1664
; outer perimeter
G1 X129.800 Y105.200 F4800
G92 E0
G1 X129.800 Y114.800 E0.3193 F1800
G1 X90.200 Y114.800 E1.6364
G1 X90.200 Y105.200 E1.9557
G1 X129.800 Y105.200 E3.2728
; solid layer
G1 X128.660 Y113.402 F4800
G92 E0
G1 X128.402 Y113.660 E0.0121 F2880
G1 X127.836 Y113.660 E0.0310
G1 X128.660 Y112.836 E0.0697
G1 X128.660 Y112.270 E0.0885
G1 X127.270 Y113.660 E0.1539
G1 X126.705 Y113.660 E0.1727
G1 X128.660 Y111.705 E0.2647
G1 X128.660 Y111.139 E0.2835
G1 X126.139 Y113.660 E0.4021
G1 X125.573 Y113.660 E0.4209
G1 X128.660 Y110.573 E0.5661
G1 X128.660 Y110.008 E0.5849
G1 X125.008 Y113.660 E0.7567
G1 X124.442 Y113.660 E0.7755
G1 X128.660 Y109.442 E0.9739
G1 X128.660 Y108.876 E0.9927
G1 X123.876 Y113.660 E1.2177
G1 X123.311 Y113.660 E1.2365
G1 X128.660 Y108.311 E1.4882
G1 X128.660 Y107.745 E1.5070
G1 X122.745 Y113.660 E1.7852
G1 X122.179 Y113.660 E1.8040
G1 X128.660 Y107.179 E2.1089
G1 X128.660 Y106.614 E2.1277
G1 X121.614 Y113.660 E2.4591
G1 X121.048 Y113.660 E2.4779
G1 X128.368 Y106.340 E2.8222
G1 X127.802 Y106.340 E2.8411
G1 X120.482 Y113.660 E3.1854
G1 X119.916 Y113.660 E3.2042
G1 X127.236 Y106.340 E3.5485
G1 X126.671 Y106.340 E3.5673
G1 X119.351 Y113.660 E3.9116
G1 X118.785 Y113.660 E3.9304
G1 X126.105 Y106.340 E4.2747
G1 X125.539 Y106.340 E4.2936
G1 X118.219 Y113.660 E4.6379
G1 X117.654 Y113.660 E4.6567
G1 X124.974 Y106.340 E5.0010
G1 X124.408 Y106.340 E5.0198
G1 X117.088 Y113.660 E5.3641
G1 X116.522 Y113.660 E5.3829
G1 X123.842 Y106.340 E5.7272
G1 X123.277 Y106.340 E5.7461
G1 X115.957 Y113.660 E6.0904
G1 X115.391 Y113.660 E6.1092
G1 X122.711 Y106.340 E6.4535
G1 X122.145 Y106.340 E6.4723
G1 X114.825 Y113.660 E6.8166
G1 X114.260 Y113.660 E6.8354
G1 X121.580 Y106.340 E7.1797
G1 X121.014 Y106.340 E7.1986
G1 X113.694 Y113.660 E7.5429
G1 X113.128 Y113.660 E7.5617
G1 X120.448 Y106.340 E7.9060
G1 X119.883 Y106.340 E7.9248
G1 X112.563 Y113.660 E8.2691
G1 X111.997 Y113.660 E8.2879
G1 X119.317 Y106.340 E8.6322
G1 X118.751 Y106.340 E8.6511
G1 X111.431 Y113.660 E8.9954
G1 X110.866 Y113.660 E9.0142
G1 X118.186 Y106.340 E9.3585
G1 X117.620 Y106.340 E9.3773
G1 X110.300 Y113.660 E9.7216
G1 X109.734 Y113.660 E9.7404
G1 X117.054 Y106.340 E10.0847
G1 X116.488 Y106.340 E10.1036
G1 X109.168 Y113.660 E10.4479
G1 X108.603 Y113.660 E10.4667
G1 X115.923 Y106.340 E10.8110
G1 X115.357 Y106.340 E10.8298
G1 X108.037 Y113.660 E11.1741
G1 X107.471 Y113.660 E11.1929
G1 X114.791 Y106.340 E11.5372
G1 X114.226 Y106.340 E11.5561
