; generated by PrusaSlicer 2.2.0+win64 on 2020-05-21 at 16:18:28 UTC

; 

; external perimeters extrusion width = 0.45mm
; perimeters extrusion width = 0.45mm
; infill extrusion width = 0.45mm
; solid infill extrusion width = 0.45mm
; top infill extrusion width = 0.40mm
; first layer extrusion width = 0.42mm

M107
M190 S60 ; set bed temperature and wait for it to be reached
M104 S205 ; set temperature
G28 ; home all axes
G29 S1
G1 Z5 F5000 ; lift nozzle
M109 S205 ; set temperature and wait for it to be reached
G21 ; set units to millimeters
G90 ; use absolute coordinates
M82 ; use absolute distances for extrusion
G92 E0
; Filament gcode
G1 Z0.200 F7800.000
G10 ; retract
G92 E0
G1 X94.758 Y84.710
G11 ; unretract
G92 E0
G1 F1200.000
G1 X95.922 Y84.156 E0.04234
G1 X96.922 Y83.889 E0.07631
G1 X97.958 Y83.787 E0.11048
G1 X117.982 Y83.786 E0.76804
G1 X160.298 Y86.132 E2.15977
G1 X161.493 Y86.315 E2.19945
G1 X162.637 Y86.723 E2.23934
G1 X163.683 Y87.341 E2.27923
G1 X165.736 Y89.001 E2.36595
G1 X167.245 Y90.497 E2.43571
G1 X168.522 Y92.008 E2.50070
G1 X169.709 Y93.683 E2.56809
G1 X170.781 Y95.525 E2.63809
G1 X171.627 Y97.329 E2.70351
G1 X172.446 Y99.605 E2.78295
G1 X172.976 Y101.701 E2.85396
G1 X173.374 Y104.502 E2.94686
G1 X173.452 Y107.077 E3.03145
G1 X171.077 Y171.291 E5.14157
G1 X170.871 Y172.786 E5.19113
G1 X170.370 Y174.769 E5.25828
G1 X169.642 Y176.669 E5.32511
G1 X168.400 Y178.896 E5.40885
G1 X167.120 Y180.604 E5.47890
G1 X165.361 Y182.361 E5.56056
G1 X163.419 Y183.798 E5.63990
G1 X161.255 Y184.953 E5.72045
G1 X159.014 Y185.757 E5.79863
G1 X157.321 Y186.140 E5.85564
G1 X155.937 Y186.316 E5.90146
G1 X154.561 Y186.377 E5.94667
G1 X145.656 Y186.376 E6.23909
G1 X103.446 Y184.032 E7.62734
G1 X102.231 Y183.848 E7.66769
G1 X101.334 Y183.554 E7.69869
G1 X100.523 Y183.156 E7.72837
G1 X99.751 Y182.633 E7.75899
G1 X99.067 Y182.010 E7.78936
G1 X86.165 Y167.790 E8.41988
G1 X85.558 Y166.975 E8.45324
G1 X85.073 Y166.051 E8.48752
G1 X84.675 Y164.764 E8.53178
G1 X84.542 Y163.470 E8.57449
G1 X84.543 Y103.953 E10.52891
G1 X84.662 Y101.706 E10.60280
G1 X85.104 Y98.972 E10.69375
G1 X85.655 Y96.925 E10.76337
G1 X86.344 Y95.051 E10.82893
G1 X87.214 Y93.191 E10.89638
G1 X88.267 Y91.379 E10.96519
G1 X89.393 Y89.776 E11.02952
G1 X90.619 Y88.307 E11.09233
G1 X92.026 Y86.880 E11.15818
G1 X93.455 Y85.653 E11.21999
G1 X94.709 Y84.745 E11.27087
; printing object Blade_B.stl id:1 copy 0
G10 ; retract
G92 E0
G1 X93.940 Y145.672 F7800.000
G11 ; unretract
G92 E0
G1 F1200.000
G1 X94.122 Y145.701 E0.00606
G1 X94.580 Y145.864 E0.02203
G1 X94.740 Y145.953 E0.02802
G1 X95.118 Y146.270 E0.04424
G1 X95.236 Y146.407 E0.05017
G1 X95.479 Y146.832 E0.06624
G1 X95.541 Y146.999 E0.07210
G1 X95.624 Y147.458 E0.08741
G1 X95.626 Y147.633 E0.09314
G1 X95.553 Y148.091 E0.10839
G1 X95.495 Y148.261 E0.11426
G1 X95.260 Y148.690 E0.13033
G1 X95.146 Y148.831 E0.13630
G1 X94.769 Y149.158 E0.15269
G1 X94.611 Y149.252 E0.15873
G1 X94.147 Y149.424 E0.17497
G1 X93.966 Y149.457 E0.18101
G1 X93.487 Y149.459 E0.19673
G1 X93.305 Y149.427 E0.20280
G1 X92.844 Y149.261 E0.21891
G1 X92.685 Y149.167 E0.22496
G1 X92.315 Y148.858 E0.24079
G1 X92.199 Y148.714 E0.24686
G1 X91.945 Y148.281 E0.26335
G1 X91.802 Y147.566 E0.28730
G1 X91.946 Y146.849 E0.31129
G1 X92.216 Y146.395 E0.32863
G1 X92.333 Y146.253 E0.33467
G1 X92.700 Y145.955 E0.35020
G1 X92.857 Y145.863 E0.35620
G1 X93.288 Y145.708 E0.37123
G1 X93.469 Y145.674 E0.37726
G1 X93.880 Y145.672 E0.39077
G1 X94.046 Y145.520 F7800.000
G10 ; retract
G92 E0
G1 X106.337 Y164.824
G11 ; unretract
G92 E0
G1 F1200.000
G1 X106.873 Y163.875 E0.03581
G1 X107.053 Y163.629 E0.04579
G1 X107.824 Y162.955 E0.07944
G1 X108.065 Y162.795 E0.08892
G1 X109.036 Y162.404 E0.12330
G1 X109.327 Y162.337 E0.13310
G1 X110.417 Y162.298 E0.16893
G1 X110.715 Y162.338 E0.17881
G1 X111.723 Y162.669 E0.21364
G1 X111.984 Y162.804 E0.22330
G1 X112.795 Y163.432 E0.25698
G1 X112.992 Y163.646 E0.26652
G1 X113.559 Y164.521 E0.30077
G1 X113.674 Y164.795 E0.31053
G1 X113.918 Y165.855 E0.34624
G1 X113.932 Y166.156 E0.35613
G1 X113.792 Y167.227 E0.39163
G1 X113.703 Y167.511 E0.40140
G1 X113.211 Y168.452 E0.43626
G1 X113.034 Y168.684 E0.44585
G1 X112.274 Y169.389 E0.47988
G1 X112.019 Y169.550 E0.48979
G1 X110.996 Y169.980 E0.52624
G1 X110.695 Y170.042 E0.53632
G1 X109.625 Y170.084 E0.57148
G1 X109.319 Y170.038 E0.58165
G1 X108.305 Y169.707 E0.61668
G1 X108.028 Y169.557 E0.62702
G1 X107.188 Y168.886 E0.66231
G1 X106.974 Y168.654 E0.67269
G1 X106.319 Y167.517 E0.71577
G1 X106.087 Y166.185 E0.76016
G1 X106.326 Y164.883 E0.80364
G1 X106.696 Y164.954 F7800.000
G1 F1200.000
G1 X107.191 Y164.080 E0.83664
G1 X107.332 Y163.886 E0.84452
G1 X108.054 Y163.256 E0.87598
G1 X108.241 Y163.131 E0.88339
G1 X109.150 Y162.765 E0.91553
G1 X109.376 Y162.713 E0.92317
G1 X110.399 Y162.676 E0.95678
G1 X110.631 Y162.707 E0.96446
G1 X111.576 Y163.017 E0.99713
G1 X111.780 Y163.123 E1.00468
G1 X112.539 Y163.711 E1.03621
G1 X112.693 Y163.878 E1.04365
G1 X113.225 Y164.698 E1.07575
G1 X113.314 Y164.911 E1.08334
G1 X113.543 Y165.906 E1.11688
G1 X113.554 Y166.140 E1.12456
G1 X113.422 Y167.146 E1.15788
G1 X113.353 Y167.367 E1.16547
G1 X112.892 Y168.249 E1.19816
G1 X112.754 Y168.430 E1.20563
G1 X112.043 Y169.089 E1.23746
G1 X111.844 Y169.215 E1.24519
G1 X110.883 Y169.618 E1.27942
G1 X110.649 Y169.667 E1.28728
G1 X109.646 Y169.705 E1.32023
G1 X109.406 Y169.669 E1.32821
G1 X108.454 Y169.359 E1.36108
G1 X108.237 Y169.242 E1.36920
G1 X107.446 Y168.609 E1.40244
G1 X107.280 Y168.429 E1.41050
G1 X106.679 Y167.386 E1.45001
G1 X106.470 Y166.187 E1.48999
G1 X106.685 Y165.013 E1.52918
G1 X107.055 Y165.085 F7800.000
G1 F1200.000
G1 X107.508 Y164.284 E1.55937
G1 X107.612 Y164.142 E1.56515
G1 X108.283 Y163.556 E1.59442
G1 X108.418 Y163.466 E1.59974
G1 X109.263 Y163.126 E1.62966
G1 X109.426 Y163.088 E1.63514
G1 X110.381 Y163.054 E1.66652
G1 X110.547 Y163.076 E1.67201
G1 X111.429 Y163.366 E1.70252
G1 X111.576 Y163.442 E1.70795
G1 X112.284 Y163.990 E1.73733
G1 X112.394 Y164.109 E1.74268
G1 X112.890 Y164.875 E1.77263
G1 X112.954 Y165.027 E1.77805
G1 X113.168 Y165.958 E1.80941
G1 X113.176 Y166.124 E1.81488
G1 X113.052 Y167.065 E1.84603
G1 X113.003 Y167.222 E1.85144
G1 X112.573 Y168.046 E1.88196
G1 X112.474 Y168.175 E1.88731
G1 X111.813 Y168.789 E1.91693
G1 X111.670 Y168.879 E1.92249
G1 X110.771 Y169.256 E1.95450
G1 X110.603 Y169.291 E1.96012
G1 X109.667 Y169.327 E1.99088
G1 X109.493 Y169.301 E1.99666
G1 X108.603 Y169.011 E2.02739
G1 X108.446 Y168.926 E2.03327
G1 X107.704 Y168.333 E2.06447
G1 X107.585 Y168.204 E2.07021
G1 X107.039 Y167.256 E2.10614
G1 X106.853 Y166.189 E2.14172
G1 X107.045 Y165.144 E2.17660
G1 X106.797 Y164.779 F7800.000
G10 ; retract
G92 E0
G1 X98.955 Y97.895
G11 ; unretract
G92 E0
G1 F1200.000
G1 X117.083 Y97.895 E0.59530
G1 X117.083 Y92.023 E0.78814
G1 X117.888 Y91.558 E0.81866
G1 X118.761 Y92.297 E0.85623
G1 X119.801 Y93.338 E0.90453
G1 X120.584 Y94.267 E0.94441
G1 X121.393 Y95.404 E0.99026
G1 X122.203 Y96.806 E1.04343
G1 X122.778 Y98.060 E1.08873
G1 X123.235 Y99.340 E1.13335
G1 X123.611 Y100.775 E1.18208
G1 X123.776 Y101.686 E1.21247
G1 X123.864 Y102.371 E1.23515
G1 X123.943 Y103.478 E1.27160
G1 X123.951 Y104.215 E1.29579
G1 X122.021 Y106.145 E1.38543
G1 X120.859 Y105.252 E1.43355
G1 X119.466 Y104.395 E1.48725
G1 X119.279 Y104.288 E1.49431
G1 X117.810 Y103.619 E1.54734
G1 X116.308 Y103.130 E1.59920
G1 X114.587 Y102.772 E1.65694
G1 X113.090 Y102.638 E1.70628
G1 X111.383 Y102.670 E1.76234
G1 X109.791 Y102.882 E1.81510
G1 X107.946 Y103.364 E1.87772
G1 X106.523 Y103.916 E1.92782
G1 X105.046 Y104.688 E1.98254
G1 X103.734 Y105.571 E2.03449
G1 X102.516 Y106.602 E2.08690
G1 X101.387 Y107.799 E2.14091
G1 X100.425 Y109.078 E2.19346
G1 X99.670 Y110.332 E2.24156
G1 X99.008 Y111.750 E2.29293
G1 X98.469 Y113.349 E2.34835
G1 X98.120 Y114.994 E2.40357
G1 X97.983 Y116.284 E2.44618
G1 X97.955 Y117.172 E2.47533
G1 X97.955 Y132.597 E2.98186
G1 X97.994 Y133.472 E3.01064
G1 X98.173 Y134.655 E3.04993
G1 X98.544 Y135.961 E3.09451
G1 X99.241 Y137.495 E3.14982
G1 X100.109 Y138.797 E3.20124
G1 X101.149 Y139.929 E3.25170
G1 X102.179 Y140.769 E3.29536
G1 X102.963 Y141.273 E3.32596
G1 X110.163 Y145.429 E3.59895
G1 X110.662 Y145.750 E3.61843
G1 X111.237 Y146.219 E3.64281
G1 X111.931 Y146.982 E3.67666
G1 X112.565 Y148.013 E3.71642
G1 X112.936 Y149.003 E3.75112
G1 X113.109 Y149.882 E3.78056
G1 X113.155 Y150.620 E3.80482
G1 X113.155 Y155.990 E3.98119
G1 X117.644 Y160.480 E4.18966
G1 X121.123 Y160.480 E4.30389
G1 X121.371 Y160.529 E4.31221
G1 X121.502 Y160.613 E4.31731
G1 X121.588 Y160.734 E4.32221
G1 X121.655 Y161.039 E4.33247
G1 X121.655 Y167.393 E4.54111
G1 X121.627 Y168.110 E4.56468
G1 X121.519 Y168.973 E4.59323
G1 X121.283 Y169.978 E4.62715
G1 X120.868 Y171.106 E4.66660
G1 X120.277 Y172.219 E4.70799
G1 X119.530 Y173.248 E4.74976
G1 X118.518 Y174.279 E4.79720
G1 X117.431 Y175.088 E4.84169
G1 X116.311 Y175.692 E4.88347
G1 X115.141 Y176.127 E4.92447
G1 X114.023 Y176.383 E4.96211
G1 X113.183 Y176.479 E4.98989
G1 X112.550 Y176.501 E5.01068
G1 X104.785 Y176.500 E5.26566
G1 X104.783 Y174.084 E5.34499
G1 X104.640 Y173.211 E5.37404
G1 X104.519 Y172.932 E5.38403
G1 X104.227 Y172.392 E5.40421
G1 X104.035 Y172.133 E5.41478
G1 X103.440 Y171.594 E5.44117
G1 X102.869 Y171.190 E5.46411
G1 X102.344 Y170.754 E5.48655
G1 X101.594 Y169.986 E5.52177
G1 X100.772 Y168.845 E5.56797
G1 X100.228 Y167.770 E5.60754
G1 X99.897 Y166.818 E5.64063
G1 X99.721 Y166.061 E5.66614
G1 X99.605 Y165.233 E5.69362
G1 X99.327 Y164.258 E5.72691
G1 X98.640 Y163.354 E5.76418
G1 X98.363 Y163.134 E5.77578
G1 X97.737 Y162.767 E5.79964
G1 X97.425 Y162.647 E5.81060
G1 X96.565 Y162.501 E5.83926
G1 X92.084 Y162.499 E5.98638
G1 X92.084 Y149.689 E6.40704
G1 X92.522 Y149.946 E6.42372
G1 X93.110 Y150.158 E6.44424
G1 X93.422 Y150.214 E6.45466
G1 X94.035 Y150.210 E6.47479
G1 X94.347 Y150.155 E6.48518
G1 X94.937 Y149.935 E6.50585
G1 X95.211 Y149.773 E6.51633
G1 X95.690 Y149.357 E6.53715
G1 X95.889 Y149.112 E6.54753
G1 X96.188 Y148.566 E6.56797
G1 X96.288 Y148.274 E6.57810
G1 X96.381 Y147.687 E6.59760
G1 X96.377 Y147.386 E6.60747
G1 X96.272 Y146.800 E6.62705
G1 X96.164 Y146.511 E6.63718
G1 X95.855 Y145.971 E6.65761
G1 X95.650 Y145.732 E6.66793
G1 X95.169 Y145.329 E6.68854
G1 X94.893 Y145.175 E6.69892
G1 X94.311 Y144.967 E6.71923
G1 X93.998 Y144.917 E6.72962
G1 X93.396 Y144.920 E6.74940
G1 X93.090 Y144.978 E6.75964
G1 X92.537 Y145.177 E6.77892
G1 X92.269 Y145.333 E6.78912
G1 X92.084 Y145.483 E6.79693
G1 X92.083 Y104.079 E8.15658
G1 X92.102 Y103.319 E8.18157
G1 X92.146 Y102.677 E8.20270
G1 X92.292 Y101.504 E8.24150
G1 X92.489 Y100.498 E8.27516
G1 X92.846 Y99.200 E8.31937
G1 X93.341 Y97.866 E8.36611
G1 X93.896 Y96.689 E8.40884
G1 X94.634 Y95.421 E8.45699
G1 X95.379 Y94.364 E8.49946
G1 X96.355 Y93.212 E8.54904
G1 X97.265 Y92.308 E8.59119
G1 X98.151 Y91.559 E8.62929
G1 X98.955 Y92.023 E8.65977
G1 X98.955 Y97.835 E8.85064
G1 X99.332 Y97.518 F7800.000
G1 F1200.000
G1 X116.706 Y97.518 E9.42117
G1 X116.706 Y91.805 E9.60878
G1 X117.918 Y91.106 E9.65471
G1 X118.238 Y91.351 E9.66798
G1 X119.018 Y92.020 E9.70172
G1 X120.079 Y93.083 E9.75102
G1 X120.882 Y94.036 E9.79193
G1 X121.711 Y95.200 E9.83887
G1 X122.538 Y96.633 E9.89321
G1 X123.127 Y97.918 E9.93963
G1 X123.596 Y99.228 E9.98532
G1 X123.979 Y100.694 E10.03507
G1 X124.148 Y101.628 E10.06626
G1 X124.240 Y102.333 E10.08960
G1 X124.320 Y103.463 E10.12678
G1 X124.330 Y104.369 E10.15655
G1 X122.026 Y106.673 E10.26353
G1 X121.706 Y106.378 E10.27780
G1 X120.645 Y105.563 E10.32177
G1 X119.107 Y104.625 E10.38090
G1 X117.673 Y103.971 E10.43267
G1 X116.211 Y103.495 E10.48315
G1 X114.531 Y103.146 E10.53950
G1 X113.077 Y103.015 E10.58745
G1 X111.412 Y103.047 E10.64214
G1 X109.864 Y103.253 E10.69342
G1 X108.062 Y103.724 E10.75458
G1 X106.679 Y104.260 E10.80328
G1 X105.239 Y105.012 E10.85662
G1 X103.962 Y105.872 E10.90720
G1 X102.775 Y106.877 E10.95826
G1 X101.679 Y108.038 E11.01071
G1 X100.738 Y109.289 E11.06208
G1 X100.003 Y110.510 E11.10890
G1 X99.358 Y111.890 E11.15892
G1 X98.833 Y113.449 E11.21293
G1 X98.493 Y115.054 E11.26679
G1 X98.359 Y116.310 E11.30830
G1 X98.332 Y117.177 E11.33678
G1 X98.332 Y132.588 E11.84285
G1 X98.370 Y133.436 E11.87070
G1 X98.542 Y134.575 E11.90855
G1 X98.899 Y135.831 E11.95142
G1 X99.571 Y137.311 E12.00480
G1 X100.407 Y138.564 E12.05425
G1 X101.409 Y139.654 E12.10286
G1 X102.401 Y140.464 E12.14493
G1 X103.160 Y140.951 E12.17453
G1 X110.359 Y145.107 E12.44753
G1 X110.883 Y145.445 E12.46800
G1 X111.497 Y145.944 E12.49399
G1 X112.233 Y146.754 E12.52992
G1 X112.914 Y147.870 E12.57284
G1 X113.300 Y148.899 E12.60895
G1 X113.484 Y149.834 E12.64022
G1 X113.532 Y150.608 E12.66569
G1 X113.532 Y155.834 E12.83731
G1 X117.800 Y160.103 E13.03553
G1 X121.154 Y160.103 E13.14566
G1 X121.515 Y160.173 E13.15775
G1 X121.767 Y160.335 E13.16759
G1 X121.940 Y160.578 E13.17739
G1 X122.032 Y160.999 E13.19152
G1 X122.032 Y167.400 E13.40174
G1 X122.004 Y168.141 E13.42608
G1 X121.891 Y169.039 E13.45582
G1 X121.645 Y170.087 E13.49115
G1 X121.213 Y171.260 E13.53220
G1 X120.598 Y172.419 E13.57530
G1 X119.831 Y173.475 E13.61814
G1 X118.766 Y174.565 E13.66820
G1 X117.634 Y175.407 E13.71452
G1 X116.467 Y176.036 E13.75805
G1 X115.249 Y176.489 E13.80073
G1 X114.087 Y176.755 E13.83987
G1 X113.211 Y176.856 E13.86882
G1 X112.557 Y176.878 E13.89032
G1 X104.409 Y176.877 E14.15789
G1 X104.406 Y174.115 E14.24859
G1 X104.275 Y173.319 E14.27510
G1 X104.180 Y173.097 E14.28302
G1 X103.908 Y172.595 E14.30178
G1 X103.755 Y172.387 E14.31025
G1 X103.204 Y171.888 E14.33466
G1 X102.639 Y171.490 E14.35735
G1 X102.088 Y171.031 E14.38091
G1 X101.305 Y170.230 E14.41770
G1 X100.449 Y169.042 E14.46578
G1 X99.880 Y167.917 E14.50715
G1 X99.534 Y166.923 E14.54173
G1 X99.350 Y166.130 E14.56845
G1 X99.235 Y165.311 E14.59563
G1 X98.984 Y164.429 E14.62572
G1 X98.368 Y163.620 E14.65912
G1 X98.149 Y163.446 E14.66829
G1 X97.573 Y163.107 E14.69026
G1 X97.325 Y163.012 E14.69896
G1 X96.533 Y162.878 E14.72535
G1 X91.707 Y162.876 E14.88381
G1 X91.707 Y148.945 E15.34128
G1 X91.858 Y148.892 E15.34654
G1 X92.044 Y149.123 E15.35630
G1 X92.467 Y149.476 E15.37439
G1 X92.683 Y149.603 E15.38260
G1 X93.208 Y149.792 E15.40092
G1 X93.455 Y149.837 E15.40917
G1 X94.001 Y149.834 E15.42709
G1 X94.247 Y149.789 E15.43531
G1 X94.774 Y149.593 E15.45376
G1 X94.990 Y149.465 E15.46202
G1 X95.418 Y149.094 E15.48063
G1 X95.575 Y148.901 E15.48880
G1 X95.842 Y148.413 E15.50705
G1 X95.920 Y148.182 E15.51506
G1 X96.003 Y147.660 E15.53243
G1 X96.000 Y147.422 E15.54023
G1 X95.907 Y146.899 E15.55768
G1 X95.822 Y146.671 E15.56567
G1 X95.545 Y146.189 E15.58392
G1 X95.384 Y146.001 E15.59205
G1 X94.954 Y145.641 E15.61046
G1 X94.737 Y145.520 E15.61864
G1 X94.216 Y145.334 E15.63679
G1 X93.969 Y145.294 E15.64501
G1 X93.432 Y145.297 E15.66264
G1 X93.189 Y145.343 E15.67078
G1 X92.697 Y145.520 E15.68793
G1 X92.484 Y145.644 E15.69603
G1 X92.065 Y145.984 E15.71375
G1 X91.707 Y146.421 E15.73229
G1 X91.706 Y104.075 E17.12286
G1 X91.725 Y103.301 E17.14827
G1 X91.770 Y102.640 E17.17002
G1 X91.920 Y101.444 E17.20960
G1 X92.122 Y100.412 E17.24415
G1 X92.487 Y99.084 E17.28936
G1 X92.993 Y97.719 E17.33717
G1 X93.562 Y96.513 E17.38097
G1 X94.316 Y95.218 E17.43019
G1 X95.080 Y94.133 E17.47375
G1 X96.077 Y92.956 E17.52441
G1 X97.009 Y92.030 E17.56755
G1 X97.795 Y91.356 E17.60156
G1 X98.123 Y91.107 E17.61507
G1 X99.332 Y91.805 E17.66093
G1 X99.332 Y97.458 E17.84657
G1 X99.709 Y97.141 F7800.000
G1 F1200.000
G1 X116.329 Y97.141 E18.39234
G1 X116.329 Y91.587 E18.57471
G1 X117.947 Y90.653 E18.63606
G1 X118.476 Y91.058 E18.65794
G1 X119.275 Y91.744 E18.69249
G1 X120.357 Y92.828 E18.74279
G1 X121.180 Y93.804 E18.78474
G1 X122.028 Y94.996 E18.83277
G1 X122.874 Y96.460 E18.88828
G1 X123.477 Y97.776 E18.93581
G1 X123.956 Y99.117 E18.98259
G1 X124.348 Y100.612 E19.03335
G1 X124.521 Y101.571 E19.06533
G1 X124.615 Y102.295 E19.08933
G1 X124.697 Y103.447 E19.12725
G1 X124.708 Y104.524 E19.16260
G1 X122.037 Y107.195 E19.28665
G1 X121.463 Y106.667 E19.31226
G1 X120.430 Y105.874 E19.35503
G1 X118.936 Y104.961 E19.41253
G1 X117.536 Y104.323 E19.46306
