; generated by PrusaSlicer 2.2.0+win64 on 2020-05-21 at 16:17:01 UTC

; 

; external perimeters extrusion width = 0.45mm
; perimeters extrusion width = 0.45mm
; infill extrusion width = 0.45mm
; solid infill extrusion width = 0.45mm
; top infill extrusion width = 0.40mm
; first layer extrusion width = 0.42mm

M107
M190 S60 ; set bed temperature and wait for it to be reached
M104 S205 ; set temperature
G28 ; home all axes
G29 S1
G1 Z5 F5000 ; lift nozzle
M109 S205 ; set temperature and wait for it to be reached
G21 ; set units to millimeters
G90 ; use absolute coordinates
M82 ; use absolute distances for extrusion
G92 E0
; Filament gcode
G1 Z0.200 F7800.000
G10 ; retract
G92 E0
G1 X128.095 Y86.307
G11 ; unretract
G92 E0
G1 F1200.000
G1 X129.702 Y84.156 E0.08817
G1 X131.507 Y82.193 E0.17573
G1 X133.549 Y80.382 E0.26537
G1 X135.825 Y78.757 E0.35721
G1 X138.292 Y77.364 E0.45022
G1 X140.665 Y76.335 E0.53517
G1 X143.134 Y75.534 E0.62041
G1 X145.184 Y75.067 E0.68946
G1 X147.310 Y74.761 E0.75999
G1 X149.714 Y74.626 E0.83904
G1 X151.519 Y74.668 E0.89833
G1 X153.606 Y74.873 E0.96721
G1 X155.755 Y75.260 E1.03893
G1 X158.105 Y75.901 E1.11890
G1 X159.892 Y76.552 E1.18135
G1 X162.617 Y77.839 E1.28033
G1 X164.276 Y78.821 E1.34364
G1 X165.931 Y79.978 E1.40995
G1 X167.503 Y81.267 E1.47669
G1 X169.159 Y82.871 E1.55241
G1 X170.706 Y84.661 E1.63012
G1 X172.204 Y86.768 E1.71498
G1 X173.858 Y89.763 E1.82735
G1 X174.785 Y91.977 E1.90618
G1 X175.529 Y94.371 E1.98850
G1 X176.115 Y97.305 E2.08675
G1 X176.316 Y99.220 E2.14997
G1 X176.377 Y100.928 E2.20610
G1 X176.377 Y169.031 E4.44249
G1 X176.317 Y170.751 E4.49899
G1 X176.078 Y172.935 E4.57114
G1 X175.627 Y175.242 E4.64834
G1 X174.737 Y178.136 E4.74778
G1 X173.786 Y180.401 E4.82843
G1 X172.491 Y182.778 E4.91733
G1 X170.854 Y185.149 E5.01192
G1 X168.811 Y187.486 E5.11386
G1 X166.961 Y189.200 E5.19668
G1 X164.754 Y190.864 E5.28744
G1 X162.306 Y192.331 E5.38117
G1 X159.828 Y193.477 E5.47083
G1 X157.208 Y194.373 E5.56177
G1 X154.498 Y194.990 E5.65302
G1 X151.614 Y195.327 E5.74837
G1 X149.123 Y195.359 E5.83019
G1 X145.800 Y195.035 E5.93981
G1 X143.333 Y194.521 E6.02259
G1 X140.900 Y193.757 E6.10631
G1 X138.029 Y192.496 E6.20928
G1 X135.857 Y191.265 E6.29126
G1 X133.670 Y189.713 E6.37932
G1 X131.263 Y187.556 E6.48546
G1 X129.600 Y185.721 E6.56679
G1 X127.953 Y183.479 E6.65816
G1 X126.618 Y181.209 E6.74463
G1 X125.566 Y178.920 E6.82733
G1 X124.553 Y175.943 E6.93061
G1 X123.914 Y172.893 E7.03293
G1 X123.692 Y170.893 E7.09902
G1 X123.623 Y169.081 E7.15857
G1 X123.623 Y100.969 E9.39526
G1 X123.712 Y98.835 E9.46541
G1 X124.033 Y96.372 E9.54694
G1 X124.616 Y93.831 E9.63256
G1 X125.537 Y91.141 E9.72594
G1 X126.630 Y88.771 E9.81165
G1 X128.064 Y86.358 E9.90381
; printing object CoverTop_CapHead_M5.stl id:0 copy 0
G10 ; retract
G92 E0
G1 X153.798 Y86.008 F7800.000
G11 ; unretract
G92 E0
G1 F1200.000
G1 X153.570 Y87.282 E0.04251
G1 X153.469 Y87.494 E0.05020
G1 X152.949 Y88.379 E0.08392
G1 X152.781 Y88.561 E0.09206
G1 X152.010 Y89.204 E0.12502
G1 X151.795 Y89.334 E0.13327
G1 X150.847 Y89.684 E0.16644
G1 X150.601 Y89.740 E0.17476
G1 X149.503 Y89.746 E0.21079
G1 X149.245 Y89.711 E0.21936
G1 X148.246 Y89.354 E0.25421
G1 X148.028 Y89.228 E0.26247
G1 X147.225 Y88.576 E0.29641
G1 X147.060 Y88.379 E0.30487
G1 X146.512 Y87.469 E0.33974
G1 X146.421 Y87.228 E0.34821
G1 X146.222 Y86.199 E0.38263
G1 X146.215 Y85.941 E0.39110
G1 X146.392 Y84.866 E0.42686
G1 X146.475 Y84.618 E0.43546
G1 X147.010 Y83.685 E0.47079
G1 X147.170 Y83.485 E0.47918
G1 X147.978 Y82.799 E0.51399
G1 X148.199 Y82.675 E0.52231
G1 X149.226 Y82.295 E0.55827
G1 X149.477 Y82.253 E0.56662
G1 X150.575 Y82.260 E0.60268
G1 X150.814 Y82.304 E0.61067
G1 X151.805 Y82.671 E0.64537
G1 X152.014 Y82.800 E0.65343
G1 X152.828 Y83.482 E0.68833
G1 X152.977 Y83.667 E0.69611
G1 X153.500 Y84.560 E0.73008
G1 X153.582 Y84.771 E0.73754
G1 X153.788 Y85.949 E0.77680
G1 X153.415 Y86.007 F7800.000
G1 F1200.000
G1 X153.208 Y87.166 E0.81545
G1 X152.645 Y88.153 E0.85277
G1 X152.520 Y88.287 E0.85878
G1 X151.790 Y88.896 E0.89000
G1 X151.631 Y88.993 E0.89613
G1 X150.740 Y89.322 E0.92731
G1 X150.557 Y89.363 E0.93346
G1 X149.528 Y89.369 E0.96727
G1 X149.335 Y89.343 E0.97367
G1 X148.405 Y89.010 E1.00610
G1 X148.242 Y88.916 E1.01226
G1 X147.491 Y88.306 E1.04404
G1 X147.368 Y88.159 E1.05035
G1 X146.853 Y87.304 E1.08313
G1 X146.785 Y87.125 E1.08942
G1 X146.598 Y86.158 E1.12176
G1 X146.593 Y85.967 E1.12802
G1 X146.759 Y84.957 E1.16163
G1 X146.821 Y84.773 E1.16801
G1 X147.322 Y83.898 E1.20113
G1 X147.442 Y83.750 E1.20737
G1 X148.195 Y83.110 E1.23983
G1 X148.358 Y83.018 E1.24598
G1 X149.323 Y82.661 E1.27977
G1 X149.507 Y82.630 E1.28588
G1 X150.539 Y82.637 E1.31980
G1 X150.714 Y82.669 E1.32563
G1 X151.639 Y83.012 E1.35803
G1 X151.793 Y83.107 E1.36396
G1 X152.558 Y83.748 E1.39674
G1 X152.666 Y83.881 E1.40239
G1 X153.159 Y84.724 E1.43445
G1 X153.217 Y84.873 E1.43969
G1 X153.405 Y85.948 E1.47553
G1 X153.751 Y86.225 F7800.000
G10 ; retract
G92 E0
G1 X165.354 Y134.578
G11 ; unretract
G92 E0
G1 F1200.000
G1 X166.187 Y134.668 E0.02752
G1 X166.484 Y134.757 E0.03768
G1 X167.056 Y135.038 E0.05862
G1 X167.309 Y135.215 E0.06876
G1 X167.774 Y135.679 E0.09034
G1 X167.956 Y135.934 E0.10062
G1 X168.271 Y136.571 E0.12395
G1 X168.429 Y137.489 E0.15453
G1 X168.296 Y138.341 E0.18284
G1 X168.183 Y138.624 E0.19285
G1 X167.872 Y139.198 E0.21431
G1 X167.670 Y139.440 E0.22465
G1 X167.159 Y139.897 E0.24717
G1 X166.890 Y140.059 E0.25748
G1 X166.281 Y140.309 E0.27908
G1 X165.970 Y140.372 E0.28951
G1 X165.283 Y140.408 E0.31209
G1 X164.972 Y140.363 E0.32241
G1 X164.348 Y140.179 E0.34379
G1 X164.077 Y140.039 E0.35378
G1 X163.556 Y139.672 E0.37473
G1 X163.347 Y139.462 E0.38446
G1 X162.986 Y138.965 E0.40463
G1 X162.849 Y138.721 E0.41382
G1 X162.635 Y138.022 E0.43783
G1 X162.595 Y137.760 E0.44655
G1 X162.645 Y136.872 E0.47575
G1 X162.922 Y136.138 E0.50149
G1 X163.056 Y135.915 E0.51004
G1 X163.543 Y135.337 E0.53487
G1 X163.745 Y135.176 E0.54336
G1 X164.403 Y134.789 E0.56841
G1 X165.295 Y134.590 E0.59844
G1 X165.372 Y134.959 F7800.000
G1 F1200.000
G1 X166.112 Y135.039 E0.62287
G1 X166.345 Y135.109 E0.63087
G1 X166.864 Y135.364 E0.64985
G1 X167.066 Y135.505 E0.65795
G1 X167.485 Y135.924 E0.67742
G1 X167.632 Y136.128 E0.68567
G1 X167.908 Y136.689 E0.70619
G1 X168.047 Y137.492 E0.73295
G1 X167.930 Y138.240 E0.75782
G1 X167.841 Y138.463 E0.76571
G1 X167.558 Y138.985 E0.78521
G1 X167.398 Y139.177 E0.79341
G1 X166.934 Y139.592 E0.81386
G1 X166.720 Y139.721 E0.82207
G1 X166.171 Y139.947 E0.84154
G1 X165.923 Y139.997 E0.84986
G1 X165.301 Y140.030 E0.87031
G1 X165.053 Y139.993 E0.87854
G1 X164.489 Y139.828 E0.89785
G1 X164.273 Y139.716 E0.90582
G1 X163.800 Y139.383 E0.92483
G1 X163.635 Y139.217 E0.93252
G1 X163.304 Y138.762 E0.95099
G1 X163.198 Y138.572 E0.95813
G1 X163.004 Y137.937 E0.97993
G1 X162.973 Y137.741 E0.98645
G1 X163.018 Y136.951 E1.01245
G1 X163.262 Y136.304 E1.03516
G1 X163.364 Y136.135 E1.04162
G1 X163.807 Y135.609 E1.06423
G1 X163.960 Y135.487 E1.07062
G1 X164.545 Y135.143 E1.09293
G1 X165.313 Y134.971 E1.11878
G1 X165.390 Y135.340 F7800.000
G1 F1200.000
G1 X166.036 Y135.410 E1.14013
G1 X166.206 Y135.461 E1.14596
G1 X166.672 Y135.690 E1.16298
G1 X166.823 Y135.795 E1.16904
G1 X167.197 Y136.169 E1.18641
G1 X167.307 Y136.323 E1.19262
G1 X167.546 Y136.807 E1.21033
G1 X167.665 Y137.495 E1.23327
G1 X167.564 Y138.140 E1.25470
G1 X167.499 Y138.303 E1.26046
G1 X167.244 Y138.773 E1.27801
G1 X167.126 Y138.914 E1.28407
G1 X166.709 Y139.288 E1.30245
G1 X166.550 Y139.383 E1.30855
G1 X166.061 Y139.584 E1.32589
G1 X165.876 Y139.622 E1.33212
G1 X165.318 Y139.651 E1.35044
G1 X165.134 Y139.624 E1.35656
G1 X164.630 Y139.476 E1.37381
G1 X164.469 Y139.393 E1.37974
G1 X164.044 Y139.094 E1.39683
G1 X163.923 Y138.971 E1.40248
G1 X163.622 Y138.559 E1.41926
G1 X163.547 Y138.424 E1.42433
G1 X163.372 Y137.853 E1.44393
G1 X163.352 Y137.723 E1.44825
G1 X163.391 Y137.030 E1.47104
G1 X163.603 Y136.469 E1.49073
G1 X163.671 Y136.355 E1.49509
G1 X164.072 Y135.880 E1.51549
G1 X164.174 Y135.799 E1.51978
G1 X164.687 Y135.497 E1.53935
G1 X165.331 Y135.352 E1.56102
G1 X165.573 Y134.984 F7800.000
G10 ; retract
G92 E0
G1 X161.440 Y149.841
G11 ; unretract
G92 E0
G1 F1200.000
G1 X162.604 Y150.555 E0.04487
G1 X163.431 Y151.585 E0.08824
G1 X163.828 Y152.641 E0.12528
G1 X163.914 Y153.437 E0.15158
G1 X163.914 Y158.572 E0.32019
G1 X163.804 Y159.448 E0.34918
G1 X163.529 Y160.171 E0.37460
G1 X163.400 Y160.456 E0.38485
G1 X162.544 Y161.498 E0.42915
G1 X161.253 Y162.229 E0.47789
G1 X159.814 Y162.430 E0.52558
G1 X158.401 Y162.093 E0.57330
G1 X157.280 Y161.337 E0.61769
G1 X156.527 Y160.330 E0.65898
G1 X156.185 Y159.403 E0.69142
G1 X156.086 Y158.568 E0.71905
G1 X156.086 Y153.435 E0.88759
G1 X156.178 Y152.624 E0.91442
G1 X156.573 Y151.581 E0.95105
G1 X157.415 Y150.537 E0.99507
G1 X158.627 Y149.815 E1.04141
G1 X160.027 Y149.567 E1.08810
G1 X161.381 Y149.829 E1.13338
G1 X161.301 Y150.198 F7800.000
G1 F1200.000
G1 X162.351 Y150.842 E1.17384
G1 X163.099 Y151.774 E1.21308
G1 X163.458 Y152.729 E1.24658
G1 X163.537 Y153.458 E1.27065
G1 X163.537 Y158.548 E1.43781
G1 X163.435 Y159.356 E1.46454
G1 X163.077 Y160.255 E1.49633
G1 X162.297 Y161.205 E1.53668
G1 X161.130 Y161.866 E1.58075
G1 X159.833 Y162.047 E1.62375
G1 X158.555 Y161.742 E1.66689
G1 X157.544 Y161.060 E1.70693
G1 X156.862 Y160.148 E1.74433
G1 X156.554 Y159.315 E1.77351
G1 X156.463 Y158.546 E1.79894
G1 X156.463 Y153.457 E1.96605
G1 X156.547 Y152.713 E1.99063
G1 X156.904 Y151.771 E2.02372
G1 X157.666 Y150.827 E2.06355
G1 X158.761 Y150.174 E2.10543
G1 X160.023 Y149.951 E2.14751
G1 X161.242 Y150.186 E2.18827
G1 X161.162 Y150.555 F7800.000
G1 F1200.000
G1 X162.098 Y151.129 E2.22433
G1 X162.767 Y151.963 E2.25945
G1 X163.089 Y152.817 E2.28941
G1 X163.160 Y153.478 E2.31123
G1 X163.160 Y158.524 E2.47695
G1 X163.067 Y159.264 E2.50143
G1 X162.754 Y160.054 E2.52934
G1 X162.051 Y160.911 E2.56575
G1 X161.006 Y161.502 E2.60515
G1 X159.851 Y161.663 E2.64346
G1 X158.709 Y161.391 E2.68202
G1 X157.808 Y160.784 E2.71771
G1 X157.197 Y159.966 E2.75121
G1 X156.924 Y159.226 E2.77713
G1 X156.840 Y158.523 E2.80037
G1 X156.840 Y153.478 E2.96605
G1 X156.917 Y152.803 E2.98837
G1 X157.236 Y151.961 E3.01794
G1 X157.917 Y151.116 E3.05357
G1 X158.896 Y150.533 E3.09099
G1 X159.509 Y150.422 E3.11144
G1 X160.020 Y150.334 E3.12847
G1 X161.103 Y150.544 E3.16471
G1 X161.480 Y150.312 F7800.000
G10 ; retract
G92 E0
G1 X165.317 Y166.080
G11 ; unretract
G92 E0
G1 F1200.000
G1 X166.151 Y166.158 E0.02750
G1 X166.443 Y166.244 E0.03751
G1 X167.018 Y166.514 E0.05839
G1 X167.276 Y166.689 E0.06860
G1 X167.753 Y167.154 E0.09048
G1 X167.941 Y167.410 E0.10091
G1 X168.266 Y168.056 E0.12464
G1 X168.429 Y168.984 E0.15560
G1 X168.303 Y169.818 E0.18328
G1 X168.193 Y170.098 E0.19317
G1 X167.885 Y170.679 E0.21475
G1 X167.685 Y170.923 E0.22513
G1 X167.185 Y171.379 E0.24734
G1 X166.918 Y171.543 E0.25764
G1 X166.314 Y171.800 E0.27918
G1 X166.006 Y171.866 E0.28954
G1 X165.319 Y171.911 E0.31212
G1 X165.009 Y171.869 E0.32240
G1 X164.383 Y171.694 E0.34376
G1 X164.109 Y171.556 E0.35383
G1 X163.582 Y171.196 E0.37478
G1 X163.372 Y170.989 E0.38448
G1 X163.006 Y170.501 E0.40452
G1 X162.866 Y170.256 E0.41375
G1 X162.641 Y169.552 E0.43805
G1 X162.597 Y169.289 E0.44680
G1 X162.641 Y168.385 E0.47651
G1 X162.914 Y167.655 E0.50211
G1 X163.044 Y167.431 E0.51061
G1 X163.522 Y166.857 E0.53513
G1 X163.720 Y166.694 E0.54356
G1 X164.375 Y166.301 E0.56866
G1 X165.258 Y166.092 E0.59845
G1 X165.340 Y166.460 F7800.000
G1 F1200.000
G1 X166.079 Y166.530 E0.62285
G1 X166.309 Y166.597 E0.63070
G1 X166.831 Y166.843 E0.64964
G1 X167.036 Y166.983 E0.65780
G1 X167.468 Y167.402 E0.67756
G1 X167.618 Y167.608 E0.68592
G1 X167.904 Y168.175 E0.70680
G1 X168.046 Y168.989 E0.73392
G1 X167.936 Y169.720 E0.75818
G1 X167.850 Y169.941 E0.76598
G1 X167.570 Y170.469 E0.78561
G1 X167.410 Y170.663 E0.79386
G1 X166.957 Y171.076 E0.81400
G1 X166.744 Y171.207 E0.82221
G1 X166.200 Y171.439 E0.84163
G1 X165.954 Y171.491 E0.84990
G1 X165.332 Y171.532 E0.87035
G1 X165.085 Y171.499 E0.87853
G1 X164.520 Y171.341 E0.89782
G1 X164.301 Y171.231 E0.90587
G1 X163.823 Y170.904 E0.92487
G1 X163.657 Y170.740 E0.93255
G1 X163.322 Y170.293 E0.95088
G1 X163.214 Y170.104 E0.95804
G1 X163.008 Y169.462 E0.98016
G1 X162.975 Y169.267 E0.98668
G1 X163.015 Y168.462 E1.01312
G1 X163.256 Y167.817 E1.03575
G1 X163.354 Y167.648 E1.04216
G1 X163.789 Y167.126 E1.06448
G1 X163.938 Y167.003 E1.07082
G1 X164.521 Y166.653 E1.09315
G1 X165.281 Y166.473 E1.11880
G1 X165.363 Y166.841 F7800.000
G1 F1200.000
G1 X166.008 Y166.902 E1.14009
G1 X166.175 Y166.951 E1.14580
G1 X166.644 Y167.172 E1.16280
G1 X166.797 Y167.276 E1.16890
G1 X167.182 Y167.650 E1.18653
G1 X167.295 Y167.805 E1.19283
G1 X167.542 Y168.295 E1.21085
G1 X167.664 Y168.994 E1.23413
G1 X167.570 Y169.621 E1.25498
G1 X167.506 Y169.783 E1.26068
G1 X167.254 Y170.259 E1.27838
G1 X167.136 Y170.403 E1.28449
G1 X166.730 Y170.774 E1.30255
G1 X166.571 Y170.871 E1.30868
G1 X166.086 Y171.078 E1.32598
G1 X165.902 Y171.117 E1.33215
G1 X165.345 Y171.153 E1.35048
G1 X165.161 Y171.129 E1.35656
G1 X164.656 Y170.987 E1.37379
G1 X164.493 Y170.905 E1.37980
G1 X164.064 Y170.612 E1.39686
G1 X163.942 Y170.491 E1.40251
G1 X163.637 Y170.086 E1.41915
G1 X163.561 Y169.951 E1.42423
G1 X163.376 Y169.373 E1.44416
G1 X163.354 Y169.245 E1.44845
G1 X163.388 Y168.540 E1.47163
G1 X163.598 Y167.979 E1.49128
G1 X163.665 Y167.865 E1.49562
G1 X164.056 Y167.395 E1.51572
G1 X164.157 Y167.312 E1.51998
G1 X164.667 Y167.005 E1.53955
G1 X165.304 Y166.854 E1.56104
G1 X165.541 Y166.483 F7800.000
G10 ; retract
G92 E0
G1 X153.776 Y167.915
G11 ; unretract
G92 E0
G1 F1200.000
G1 X153.926 Y169.008 E0.03623
G1 X153.789 Y169.915 E0.06636
G1 X153.697 Y170.297 E0.07924
G1 X153.170 Y171.284 E0.11600
G1 X152.967 Y171.559 E0.12722
G1 X152.030 Y172.365 E0.16782
G1 X150.770 Y172.856 E0.21222
G1 X149.341 Y172.876 E0.25915
G1 X148.081 Y172.432 E0.30303
G1 X147.000 Y171.542 E0.34901
G1 X146.308 Y170.354 E0.39415
G1 X146.068 Y168.971 E0.44026
G1 X146.316 Y167.622 E0.48528
G1 X147.065 Y166.380 E0.53290
G1 X148.220 Y165.493 E0.58073
G1 X149.552 Y165.093 E0.62641
G1 X150.980 Y165.191 E0.67340
G1 X152.236 Y165.766 E0.71878
G1 X153.188 Y166.698 E0.76252
G1 X153.750 Y167.861 E0.80492
G1 X153.410 Y168.026 F7800.000
G1 F1200.000
G1 X153.545 Y169.005 E0.83741
G1 X153.418 Y169.843 E0.86522
G1 X153.342 Y170.162 E0.87599
G1 X152.851 Y171.082 E0.91023
G1 X152.689 Y171.300 E0.91916
G1 X151.833 Y172.037 E0.95626
G1 X150.697 Y172.480 E0.99630
G1 X149.403 Y172.498 E1.03879
G1 X148.269 Y172.098 E1.07827
G1 X147.292 Y171.294 E1.11984
G1 X146.668 Y170.223 E1.16054
G1 X146.451 Y168.973 E1.20221
G1 X146.675 Y167.758 E1.24276
G1 X147.351 Y166.636 E1.28579
G1 X148.395 Y165.834 E1.32902
G1 X149.593 Y165.474 E1.37010
G1 X150.886 Y165.562 E1.41264
G1 X152.019 Y166.082 E1.45360
G1 X152.877 Y166.922 E1.49301
G1 X153.384 Y167.971 E1.53130
G1 X153.045 Y168.136 F7800.000
G1 F1200.000
G1 X153.164 Y169.003 E1.56003
G1 X153.048 Y169.770 E1.58553
G1 X152.986 Y170.027 E1.59419
G1 X152.532 Y170.880 E1.62593
G1 X152.411 Y171.042 E1.63255
G1 X151.636 Y171.709 E1.66616
G1 X150.623 Y172.104 E1.70184
G1 X149.465 Y172.120 E1.73988
G1 X148.458 Y171.765 E1.77496
G1 X147.583 Y171.046 E1.81214
G1 X147.028 Y170.091 E1.84839
G1 X146.834 Y168.975 E1.88562
G1 X147.033 Y167.894 E1.92170
G1 X147.637 Y166.891 E1.96014
G1 X148.570 Y166.175 E1.99876
G1 X149.634 Y165.855 E2.03526
G1 X150.791 Y165.934 E2.07333
G1 X151.802 Y166.397 E2.10987
G1 X152.566 Y167.145 E2.14496
G1 X153.019 Y168.082 E2.17913
G1 X153.435 Y168.225 F7800.000
G10 ; retract
G92 E0
G1 X168.429 Y116.984
G11 ; unretract
G92 E0
G1 F1200.000
G1 X168.310 Y117.797 E0.02697
G1 X168.205 Y118.066 E0.03645
G1 X167.903 Y118.653 E0.05814
G1 X167.709 Y118.895 E0.06832
G1 X167.228 Y119.348 E0.09002
G1 X166.966 Y119.515 E0.10023
G1 X166.376 Y119.782 E0.12148
G1 X166.068 Y119.854 E0.13187
G1 X165.387 Y119.914 E0.15432
G1 X165.076 Y119.879 E0.16462
G1 X164.443 Y119.719 E0.18604
G1 X164.167 Y119.586 E0.19610
G1 X163.624 Y119.235 E0.21736
G1 X163.406 Y119.019 E0.22743
