; generated by PrusaSlicer 2.2.0+win64 on 2020-05-10 at 08:26:40 UTC

; 

; external perimeters extrusion width = 0.45mm
; perimeters extrusion width = 0.45mm
; infill extrusion width = 0.45mm
; solid infill extrusion width = 0.45mm
; top infill extrusion width = 0.40mm
; first layer extrusion width = 0.42mm

M107
M190 S60 ; set bed temperature and wait for it to be reached
M104 S205 ; set temperature
G28 ; home all axes
G29 S1
G1 Z5 F5000 ; lift nozzle
M109 S205 ; set temperature and wait for it to be reached
G21 ; set units to millimeters
G90 ; use absolute coordinates
M82 ; use absolute distances for extrusion
G92 E0
; Filament gcode
G1 Z0.200 F7800.000
G10 ; retract
G92 E0
G1 X127.619 Y87.053
G11 ; unretract
G92 E0
G1 F1200.000
G1 X129.166 Y84.823 E0.08913
G1 X131.085 Y82.620 E0.18508
G1 X132.703 Y81.090 E0.25821
G1 X134.016 Y80.019 E0.31383
G1 X135.390 Y79.040 E0.36922
G1 X137.225 Y77.925 E0.43975
G1 X140.098 Y76.552 E0.54431
G1 X142.079 Y75.840 E0.61344
G1 X144.369 Y75.238 E0.69118
G1 X146.734 Y74.830 E0.77001
G1 X148.767 Y74.652 E0.83700
G1 X150.426 Y74.629 E0.89150
G1 X152.610 Y74.753 E0.96335
G1 X154.657 Y75.038 E1.03122
G1 X156.901 Y75.542 E1.10674
G1 X159.243 Y76.301 E1.18757
G1 X162.505 Y77.776 E1.30512
G1 X165.505 Y79.663 E1.42152
G1 X168.302 Y82.017 E1.54155
G1 X170.173 Y84.007 E1.63126
G1 X171.852 Y86.235 E1.72286
G1 X173.793 Y89.614 E1.85083
G1 X175.090 Y92.891 E1.96659
G1 X175.916 Y96.117 E2.07592
G1 X176.280 Y98.751 E2.16324
G1 X176.376 Y100.894 E2.23368
G1 X176.377 Y169.031 E4.47119
G1 X176.276 Y171.289 E4.54540
G1 X175.877 Y174.100 E4.63865
G1 X175.164 Y176.904 E4.73364
G1 X174.022 Y179.883 E4.83843
G1 X172.630 Y182.538 E4.93685
G1 X172.183 Y183.251 E4.96449
G1 X170.235 Y185.920 E5.07300
G1 X168.184 Y188.101 E5.17133
G1 X165.527 Y190.322 E5.28504
G1 X162.940 Y191.972 E5.38579
G1 X162.146 Y192.403 E5.41547
G1 X159.362 Y193.658 E5.51576
G1 X155.848 Y194.710 E5.63619
G1 X153.017 Y195.204 E5.73058
G1 X149.882 Y195.376 E5.83367
G1 X146.534 Y195.147 E5.94387
G1 X143.268 Y194.490 E6.05327
G1 X142.388 Y194.246 E6.08326
G1 X139.053 Y192.985 E6.20036
G1 X136.215 Y191.488 E6.30572
G1 X133.694 Y189.731 E6.40663
G1 X130.825 Y187.112 E6.53417
G1 X128.415 Y184.154 E6.65947
G1 X126.627 Y181.208 E6.77265
G1 X125.486 Y178.736 E6.86207
G1 X124.658 Y176.316 E6.94603
G1 X124.153 Y174.260 E7.01557
G1 X123.844 Y172.396 E7.07762
G1 X123.671 Y170.590 E7.13720
G1 X123.624 Y169.088 E7.18655
G1 X123.623 Y100.969 E9.42346
G1 X123.719 Y98.758 E9.49613
G1 X124.103 Y95.998 E9.58762
G1 X124.808 Y93.185 E9.68286
G1 X125.895 Y90.302 E9.78404
G1 X127.591 Y87.106 E9.90285
; printing object CoverBottom_M3NutTraps.stl id:0 copy 0
G10 ; retract
G92 E0
G1 X136.782 Y139.333 F7800.000
G11 ; unretract
G92 E0
G1 F1200.000
G1 X136.082 Y139.965 E0.03098
G1 X135.195 Y140.336 E0.06255
G1 X134.864 Y140.385 E0.07353
G1 X134.175 Y140.398 E0.09616
G1 X133.859 Y140.340 E0.10670
G1 X133.228 Y140.121 E0.12865
G1 X132.943 Y139.965 E0.13930
G1 X132.247 Y139.373 E0.16930
G1 X131.748 Y138.509 E0.20208
G1 X131.567 Y137.497 E0.23584
G1 X131.758 Y136.478 E0.26988
G1 X132.114 Y135.837 E0.29396
G1 X132.307 Y135.575 E0.30466
G1 X132.832 Y135.118 E0.32753
G1 X133.105 Y134.935 E0.33830
G1 X133.757 Y134.689 E0.36118
G1 X134.075 Y134.612 E0.37194
G1 X134.775 Y134.602 E0.39492
G1 X135.110 Y134.651 E0.40603
G1 X135.795 Y134.885 E0.42980
G1 X136.089 Y135.066 E0.44116
G1 X136.677 Y135.544 E0.46603
G1 X137.214 Y136.396 E0.49912
G1 X137.432 Y137.405 E0.53300
G1 X137.264 Y138.470 E0.56842
G1 X136.811 Y139.281 E0.59890
G1 X136.483 Y139.095 F7800.000
G1 F1200.000
G1 X135.877 Y139.642 E0.62572
G1 X135.093 Y139.970 E0.65363
G1 X134.833 Y140.009 E0.66226
G1 X134.206 Y140.020 E0.68285
G1 X133.956 Y139.974 E0.69121
G1 X133.381 Y139.775 E0.71117
G1 X133.158 Y139.653 E0.71952
G1 X132.541 Y139.128 E0.74611
G1 X132.107 Y138.377 E0.77459
G1 X131.950 Y137.498 E0.80391
G1 X132.117 Y136.608 E0.83367
G1 X132.431 Y136.041 E0.85494
G1 X132.586 Y135.832 E0.86348
G1 X133.062 Y135.418 E0.88420
G1 X133.279 Y135.273 E0.89277
G1 X133.869 Y135.050 E0.91347
G1 X134.123 Y134.988 E0.92207
G1 X134.750 Y134.980 E0.94268
G1 X135.021 Y135.019 E0.95166
G1 X135.633 Y135.228 E0.97288
G1 X135.870 Y135.375 E0.98206
G1 X136.391 Y135.797 E1.00409
G1 X136.859 Y136.541 E1.03294
G1 X137.048 Y137.416 E1.06233
G1 X136.902 Y138.345 E1.09324
G1 X136.513 Y139.043 E1.11946
G1 X136.184 Y138.857 F7800.000
G1 F1200.000
G1 X135.672 Y139.319 E1.14212
G1 X134.990 Y139.604 E1.16638
G1 X134.801 Y139.632 E1.17266
G1 X134.237 Y139.642 E1.19120
G1 X134.052 Y139.609 E1.19737
G1 X133.535 Y139.429 E1.21535
G1 X133.373 Y139.340 E1.22141
G1 X132.835 Y138.883 E1.24459
G1 X132.467 Y138.246 E1.26875
G1 X132.333 Y137.500 E1.29364
G1 X132.476 Y136.737 E1.31912
G1 X132.749 Y136.245 E1.33759
G1 X132.864 Y136.089 E1.34396
G1 X133.291 Y135.718 E1.36254
G1 X133.452 Y135.610 E1.36891
G1 X133.980 Y135.411 E1.38743
G1 X134.171 Y135.365 E1.39387
G1 X134.726 Y135.357 E1.41210
G1 X134.932 Y135.387 E1.41895
G1 X135.471 Y135.571 E1.43763
G1 X135.652 Y135.683 E1.44462
G1 X136.105 Y136.051 E1.46380
G1 X136.505 Y136.686 E1.48843
G1 X136.665 Y137.427 E1.51333
G1 X136.540 Y138.220 E1.53971
G1 X136.214 Y138.804 E1.56168
G1 X136.333 Y139.228 F7800.000
G10 ; retract
G92 E0
G1 X138.634 Y149.813
G11 ; unretract
G92 E0
G1 F1200.000
G1 X139.972 Y149.571 E0.04464
G1 X141.311 Y149.793 E0.08920
G1 X142.506 Y150.472 E0.13432
G1 X143.366 Y151.477 E0.17778
G1 X143.802 Y152.533 E0.21529
G1 X143.914 Y153.428 E0.24492
G1 X143.914 Y158.559 E0.41342
G1 X143.837 Y159.276 E0.43710
G1 X143.772 Y159.542 E0.44608
G1 X143.413 Y160.442 E0.47790
G1 X142.582 Y161.464 E0.52116
G1 X141.453 Y162.152 E0.56456
G1 X140.138 Y162.428 E0.60869
G1 X138.807 Y162.244 E0.65283
G1 X137.647 Y161.648 E0.69567
G1 X136.716 Y160.659 E0.74027
G1 X136.208 Y159.517 E0.78129
G1 X136.086 Y158.575 E0.81248
G1 X136.086 Y153.431 E0.98142
G1 X136.189 Y152.567 E1.01000
G1 X136.607 Y151.520 E1.04703
G1 X137.438 Y150.518 E1.08976
G1 X138.583 Y149.843 E1.13340
G1 X138.769 Y150.171 F7800.000
G1 F1200.000
G1 X139.971 Y149.953 E1.17350
G1 X141.183 Y150.154 E1.21386
G1 X142.262 Y150.767 E1.25461
G1 X143.041 Y151.677 E1.29393
G1 X143.434 Y152.630 E1.32780
G1 X143.537 Y153.452 E1.35499
G1 X143.537 Y158.539 E1.52205
G1 X143.465 Y159.211 E1.54425
G1 X143.412 Y159.427 E1.55154
G1 X143.084 Y160.249 E1.58060
G1 X142.330 Y161.176 E1.61985
G1 X141.312 Y161.797 E1.65899
G1 X140.125 Y162.046 E1.69883
G1 X138.922 Y161.880 E1.73871
G1 X137.877 Y161.342 E1.77730
G1 X137.035 Y160.447 E1.81767
G1 X136.575 Y159.414 E1.85479
G1 X136.463 Y158.551 E1.88337
G1 X136.463 Y153.453 E2.05078
G1 X136.557 Y152.660 E2.07699
G1 X136.935 Y151.715 E2.11044
G1 X137.686 Y150.809 E2.14906
G1 X138.717 Y150.202 E2.18836
G1 X138.903 Y150.530 F7800.000
G1 F1200.000
G1 X139.969 Y150.335 E2.22394
G1 X141.055 Y150.515 E2.26009
G1 X142.019 Y151.062 E2.29648
G1 X142.715 Y151.876 E2.33165
G1 X143.067 Y152.727 E2.36188
G1 X143.160 Y153.475 E2.38664
G1 X143.160 Y158.519 E2.55226
G1 X143.092 Y159.146 E2.57297
G1 X143.052 Y159.311 E2.57857
G1 X142.755 Y160.056 E2.60488
G1 X142.078 Y160.888 E2.64011
G1 X141.172 Y161.441 E2.67498
G1 X140.112 Y161.663 E2.71055
G1 X139.037 Y161.515 E2.74617
G1 X138.107 Y161.037 E2.78051
G1 X137.353 Y160.235 E2.81665
G1 X136.942 Y159.311 E2.84986
G1 X136.840 Y158.527 E2.87584
G1 X136.840 Y153.475 E3.04171
G1 X136.926 Y152.754 E3.06556
G1 X137.264 Y151.910 E3.09543
G1 X137.934 Y151.101 E3.12993
G1 X138.852 Y150.560 E3.16490
G1 X138.971 Y150.135 F7800.000
G10 ; retract
G92 E0
G1 X131.565 Y169.005
G11 ; unretract
G92 E0
G1 F1200.000
G1 X131.763 Y167.965 E0.03476
G1 X132.131 Y167.309 E0.05947
G1 X132.331 Y167.050 E0.07022
G1 X132.858 Y166.596 E0.09306
G1 X133.135 Y166.424 E0.10376
G1 X133.773 Y166.179 E0.12620
G1 X134.095 Y166.114 E0.13700
G1 X134.803 Y166.103 E0.16023
G1 X135.127 Y166.154 E0.17101
G1 X135.774 Y166.380 E0.19352
G1 X136.060 Y166.539 E0.20425
G1 X136.597 Y166.978 E0.22705
G1 X136.809 Y167.222 E0.23764
G1 X137.159 Y167.811 E0.26016
G1 X137.275 Y168.110 E0.27068
G1 X137.405 Y168.782 E0.29314
G1 X137.412 Y169.106 E0.30381
G1 X137.303 Y169.792 E0.32659
G1 X137.199 Y170.098 E0.33721
G1 X136.872 Y170.692 E0.35948
G1 X136.671 Y170.942 E0.37001
G1 X136.165 Y171.391 E0.39224
G1 X135.886 Y171.562 E0.40296
G1 X135.225 Y171.821 E0.42629
G1 X134.894 Y171.886 E0.43738
G1 X134.186 Y171.896 E0.46062
G1 X133.864 Y171.843 E0.47135
G1 X133.211 Y171.613 E0.49406
G1 X132.922 Y171.448 E0.50500
G1 X132.370 Y170.990 E0.52857
G1 X132.159 Y170.729 E0.53959
G1 X131.779 Y170.078 E0.56432
G1 X131.576 Y169.064 E0.59829
G1 X131.949 Y169.003 F7800.000
G1 F1200.000
G1 X132.122 Y168.096 E0.62861
G1 X132.447 Y167.518 E0.65040
G1 X132.607 Y167.311 E0.65899
G1 X133.082 Y166.901 E0.67962
G1 X133.304 Y166.763 E0.68817
G1 X133.879 Y166.543 E0.70840
G1 X134.136 Y166.491 E0.71702
G1 X134.776 Y166.481 E0.73806
G1 X135.035 Y166.521 E0.74665
G1 X135.619 Y166.725 E0.76697
G1 X135.847 Y166.852 E0.77553
G1 X136.334 Y167.250 E0.79618
G1 X136.502 Y167.444 E0.80460
G1 X136.819 Y167.977 E0.82497
G1 X136.911 Y168.215 E0.83335
G1 X137.028 Y168.822 E0.85365
G1 X137.034 Y169.081 E0.86216
G1 X136.936 Y169.701 E0.88278
G1 X136.853 Y169.945 E0.89124
G1 X136.557 Y170.481 E0.91136
G1 X136.397 Y170.681 E0.91976
G1 X135.940 Y171.087 E0.93984
G1 X135.718 Y171.223 E0.94838
G1 X135.119 Y171.458 E0.96950
G1 X134.855 Y171.510 E0.97836
G1 X134.215 Y171.519 E0.99938
G1 X133.958 Y171.476 E1.00792
G1 X133.369 Y171.269 E1.02842
G1 X133.138 Y171.137 E1.03717
G1 X132.639 Y170.723 E1.05843
G1 X132.470 Y170.514 E1.06728
G1 X132.137 Y169.943 E1.08900
G1 X131.961 Y169.062 E1.11848
G1 X132.333 Y169.002 F7800.000
G1 F1200.000
G1 X132.481 Y168.227 E1.14437
G1 X132.762 Y167.726 E1.16324
G1 X132.882 Y167.571 E1.16967
G1 X133.306 Y167.205 E1.18808
G1 X133.472 Y167.102 E1.19449
G1 X133.984 Y166.906 E1.21250
G1 X134.177 Y166.867 E1.21895
G1 X134.750 Y166.858 E1.23778
G1 X134.943 Y166.888 E1.24419
G1 X135.464 Y167.071 E1.26231
G1 X135.634 Y167.165 E1.26872
G1 X136.070 Y167.522 E1.28721
G1 X136.195 Y167.665 E1.29346
G1 X136.479 Y168.143 E1.31168
G1 X136.547 Y168.319 E1.31792
G1 X136.652 Y168.862 E1.33606
G1 X136.656 Y169.055 E1.34240
G1 X136.568 Y169.610 E1.36085
G1 X136.507 Y169.792 E1.36717
G1 X136.243 Y170.271 E1.38512
G1 X136.123 Y170.420 E1.39142
G1 X135.714 Y170.783 E1.40934
G1 X135.549 Y170.884 E1.41570
G1 X135.013 Y171.094 E1.43462
G1 X134.815 Y171.133 E1.44124
G1 X134.243 Y171.141 E1.46004
G1 X134.052 Y171.110 E1.46639
G1 X133.527 Y170.925 E1.48468
G1 X133.353 Y170.826 E1.49123
G1 X132.909 Y170.457 E1.51019
G1 X132.781 Y170.299 E1.51686
G1 X132.494 Y169.807 E1.53557
G1 X132.345 Y169.061 E1.56057
G1 X131.990 Y168.797 F7800.000
G10 ; retract
G92 E0
G1 X146.071 Y169.013
G11 ; unretract
G92 E0
G1 F1200.000
G1 X146.247 Y167.857 E0.03840
G1 X146.705 Y166.902 E0.07316
G1 X146.881 Y166.628 E0.08385
G1 X147.557 Y165.958 E0.11511
G1 X147.776 Y165.764 E0.12472
G1 X148.993 Y165.198 E0.16879
G1 X150.423 Y165.091 E0.21588
G1 X151.737 Y165.471 E0.26081
G1 X152.898 Y166.339 E0.30839
G1 X153.661 Y167.563 E0.35575
G1 X153.931 Y168.899 E0.40053
G1 X153.715 Y170.288 E0.44668
G1 X153.049 Y171.483 E0.49162
G1 X151.992 Y172.389 E0.53733
G1 X150.734 Y172.860 E0.58142
G1 X149.325 Y172.874 E0.62770
G1 X148.055 Y172.415 E0.67205
G1 X147.023 Y171.568 E0.71590
G1 X146.296 Y170.318 E0.76338
G1 X146.081 Y169.072 E0.80491
G1 X146.453 Y169.009 F7800.000
G1 F1200.000
G1 X146.612 Y167.969 E0.83946
G1 X147.035 Y167.086 E0.87161
G1 X147.176 Y166.867 E0.88017
G1 X147.815 Y166.234 E0.90971
G1 X147.985 Y166.083 E0.91718
G1 X149.090 Y165.569 E0.95720
G1 X150.382 Y165.471 E0.99973
G1 X151.566 Y165.814 E1.04023
G1 X152.615 Y166.598 E1.08323
G1 X153.305 Y167.704 E1.12603
G1 X153.548 Y168.908 E1.16636
G1 X153.353 Y170.163 E1.20808
G1 X152.752 Y171.241 E1.24858
G1 X151.796 Y172.060 E1.28993
G1 X150.669 Y172.484 E1.32947
G1 X149.389 Y172.496 E1.37149
G1 X148.244 Y172.083 E1.41148
G1 X147.314 Y171.320 E1.45097
G1 X146.656 Y170.187 E1.49399
G1 X146.463 Y169.068 E1.53128
G1 X146.835 Y169.005 F7800.000
G1 F1200.000
G1 X146.976 Y168.081 E1.56197
G1 X147.365 Y167.270 E1.59151
G1 X147.471 Y167.105 E1.59794
G1 X148.073 Y166.509 E1.62577
G1 X148.194 Y166.402 E1.63108
G1 X149.187 Y165.939 E1.66707
G1 X150.340 Y165.852 E1.70504
G1 X151.396 Y166.158 E1.74112
G1 X152.333 Y166.858 E1.77953
G1 X152.948 Y167.846 E1.81776
G1 X153.165 Y168.917 E1.85364
G1 X152.991 Y170.039 E1.89093
G1 X152.456 Y170.998 E1.92700
G1 X151.600 Y171.731 E1.96398
G1 X150.603 Y172.107 E1.99898
G1 X149.453 Y172.118 E2.03674
G1 X148.433 Y171.750 E2.07237
G1 X147.606 Y171.071 E2.10750
G1 X147.016 Y170.056 E2.14605
G1 X146.845 Y169.065 E2.17910
G1 X146.485 Y168.812 F7800.000
G10 ; retract
G92 E0
G1 X131.565 Y117.003
G11 ; unretract
G92 E0
G1 F1200.000
G1 X131.764 Y115.965 E0.03470
G1 X132.135 Y115.304 E0.05961
G1 X132.339 Y115.042 E0.07050
G1 X132.875 Y114.584 E0.09365
G1 X133.156 Y114.413 E0.10447
G1 X133.801 Y114.172 E0.12707
G1 X134.123 Y114.111 E0.13785
G1 X134.830 Y114.105 E0.16106
G1 X135.158 Y114.161 E0.17197
G1 X135.819 Y114.402 E0.19507
G1 X136.105 Y114.569 E0.20597
G1 X136.638 Y115.021 E0.22892
G1 X136.847 Y115.273 E0.23965
G1 X137.190 Y115.884 E0.26266
G1 X137.301 Y116.195 E0.27350
G1 X137.410 Y116.874 E0.29608
G1 X137.407 Y117.198 E0.30674
G1 X137.281 Y117.865 E0.32904
G1 X137.171 Y118.164 E0.33950
G1 X136.834 Y118.742 E0.36146
G1 X136.629 Y118.988 E0.37198
G1 X136.115 Y119.426 E0.39415
G1 X135.832 Y119.590 E0.40490
G1 X135.168 Y119.836 E0.42815
G1 X134.840 Y119.893 E0.43909
G1 X134.138 Y119.891 E0.46214
G1 X133.816 Y119.832 E0.47289
G1 X133.166 Y119.591 E0.49564
G1 X132.884 Y119.422 E0.50645
G1 X132.349 Y118.968 E0.52948
G1 X132.144 Y118.708 E0.54034
G1 X131.773 Y118.064 E0.56474
G1 X131.576 Y117.062 E0.59829
G1 X131.949 Y117.002 F7800.000
G1 F1200.000
G1 X132.122 Y116.096 E0.62857
G1 X132.449 Y115.513 E0.65052
G1 X132.613 Y115.304 E0.65924
G1 X133.097 Y114.891 E0.68014
G1 X133.322 Y114.754 E0.68879
G1 X133.903 Y114.536 E0.70917
G1 X134.160 Y114.487 E0.71777
G1 X134.800 Y114.483 E0.73876
G1 X135.061 Y114.527 E0.74747
G1 X135.658 Y114.744 E0.76833
G1 X135.887 Y114.878 E0.77703
G1 X136.369 Y115.287 E0.79781
G1 X136.535 Y115.487 E0.80633
G1 X136.845 Y116.041 E0.82718
G1 X136.934 Y116.289 E0.83583
G1 X137.032 Y116.902 E0.85623
G1 X137.031 Y117.162 E0.86475
G1 X136.916 Y117.765 E0.88490
G1 X136.829 Y118.003 E0.89325
G1 X136.525 Y118.525 E0.91308
G1 X136.360 Y118.722 E0.92150
G1 X135.897 Y119.116 E0.94149
G1 X135.671 Y119.247 E0.95007
G1 X135.069 Y119.470 E0.97114
G1 X134.808 Y119.516 E0.97985
G1 X134.173 Y119.514 E1.00070
G1 X133.916 Y119.467 E1.00926
G1 X133.330 Y119.249 E1.02981
G1 X133.104 Y119.114 E1.03845
G1 X132.622 Y118.705 E1.05920
G1 X132.458 Y118.496 E1.06793
G1 X132.131 Y117.930 E1.08939
G1 X131.961 Y117.061 E1.11848
G1 X132.333 Y117.001 F7800.000
G1 F1200.000
G1 X132.481 Y116.227 E1.14435
G1 X132.764 Y115.723 E1.16334
G1 X132.887 Y115.567 E1.16987
G1 X133.318 Y115.197 E1.18853
G1 X133.487 Y115.095 E1.19501
G1 X134.005 Y114.901 E1.21317
G1 X134.197 Y114.864 E1.21959
G1 X134.769 Y114.860 E1.23837
G1 X134.964 Y114.893 E1.24486
G1 X135.497 Y115.087 E1.26349
G1 X135.668 Y115.187 E1.26999
G1 X136.100 Y115.553 E1.28859
G1 X136.223 Y115.701 E1.29490
G1 X136.501 Y116.198 E1.31360
G1 X136.568 Y116.383 E1.32006
G1 X136.655 Y116.931 E1.33828
G1 X136.654 Y117.125 E1.34465
G1 X136.552 Y117.664 E1.36266
G1 X136.486 Y117.842 E1.36889
G1 X136.215 Y118.308 E1.38660
G1 X136.091 Y118.456 E1.39292
G1 X135.678 Y118.807 E1.41073
G1 X135.509 Y118.905 E1.41714
G1 X134.970 Y119.105 E1.43602
G1 X134.776 Y119.139 E1.44250
G1 X134.208 Y119.137 E1.46116
G1 X134.017 Y119.102 E1.46754
G1 X133.493 Y118.907 E1.48588
G1 X133.324 Y118.807 E1.49235
G1 X132.895 Y118.442 E1.51082
G1 X132.771 Y118.285 E1.51742
G1 X132.489 Y117.796 E1.53593
G1 X132.345 Y117.060 E1.56057
G1 X131.990 Y116.795 F7800.000
G10 ; retract
G92 E0
G1 X153.746 Y114.834
G11 ; unretract
G92 E0
G1 F1200.000
G1 X156.458 Y117.684 E0.12919
G1 X157.810 Y120.737 E0.23885
G1 X158.164 Y123.424 E0.32784
