; generated by PrusaSlicer 2.2.0+win64 on 2020-05-22 at 12:49:15 UTC

; 

; external perimeters extrusion width = 0.45mm
; perimeters extrusion width = 0.45mm
; infill extrusion width = 0.45mm
; solid infill extrusion width = 0.45mm
; top infill extrusion width = 0.40mm
; first layer extrusion width = 0.42mm

M107
M190 S60 ; set bed temperature and wait for it to be reached
M104 S205 ; set temperature
G28 ; home all axes
G29 S1
G1 Z5 F5000 ; lift nozzle
M109 S205 ; set temperature and wait for it to be reached
G21 ; set units to millimeters
G90 ; use absolute coordinates
M82 ; use absolute distances for extrusion
G92 E0
; Filament gcode
G1 Z0.200 F7800.000
G10 ; retract
G92 E0
G1 X124.728 Y93.458
G11 ; unretract
G92 E0
G1 F1200.000
G1 X126.078 Y89.905 E0.12483
G1 X127.335 Y87.510 E0.21364
G1 X128.840 Y85.272 E0.30220
G1 X130.918 Y82.794 E0.40843
G1 X132.273 Y81.469 E0.47065
G1 X133.891 Y80.117 E0.53988
G1 X135.439 Y79.010 E0.60237
G1 X138.063 Y77.483 E0.70209
G1 X139.711 Y76.714 E0.76180
G1 X141.503 Y76.031 E0.82478
G1 X143.457 Y75.449 E0.89173
G1 X145.648 Y74.985 E0.96528
G1 X147.721 Y74.722 E1.03390
G1 X150.003 Y74.623 E1.10891
G1 X151.847 Y74.688 E1.16948
G1 X153.746 Y74.891 E1.23220
G1 X155.836 Y75.277 E1.30200
G1 X157.874 Y75.833 E1.37137
G1 X160.818 Y76.943 E1.47469
G1 X163.517 Y78.353 E1.57469
G1 X166.236 Y80.220 E1.68299
G1 X168.004 Y81.723 E1.75918
G1 X169.761 Y83.531 E1.84198
G1 X171.729 Y86.053 E1.94702
G1 X172.942 Y87.987 E2.02201
G1 X173.467 Y89.299 E2.06842
G1 X173.694 Y90.770 E2.11727
G1 X176.361 Y169.810 E4.71430
G1 X176.028 Y173.193 E4.82593
G1 X175.868 Y174.121 E4.85685
G1 X175.117 Y177.058 E4.95640
G1 X173.870 Y180.219 E5.06799
G1 X172.332 Y183.037 E5.17340
G1 X170.830 Y185.176 E5.25925
G1 X169.330 Y186.948 E5.33549
G1 X167.930 Y188.343 E5.40040
G1 X165.609 Y190.262 E5.49928
G1 X163.303 Y191.766 E5.58968
G1 X159.978 Y193.416 E5.71156
G1 X156.203 Y194.628 E5.84177
G1 X153.233 Y195.178 E5.94097
G1 X150.156 Y195.376 E6.04221
G1 X146.983 Y195.204 E6.14658
G1 X143.957 Y194.663 E6.24752
G1 X143.125 Y194.459 E6.27565
G1 X140.414 Y193.573 E6.36930
G1 X137.570 Y192.264 E6.47212
G1 X135.091 Y190.751 E6.56748
G1 X131.843 Y188.126 E6.70463
G1 X129.697 Y185.837 E6.80765
G1 X127.811 Y183.239 E6.91308
G1 X127.356 Y182.515 E6.94115
G1 X126.000 Y179.931 E7.03699
G1 X125.050 Y177.555 E7.12102
G1 X124.353 Y175.152 E7.20316
G1 X123.901 Y172.772 E7.28274
G1 X123.685 Y170.787 E7.34830
G1 X123.624 Y169.010 E7.40669
G1 X123.624 Y100.906 E9.64309
G1 X123.721 Y98.749 E9.71401
G1 X124.019 Y96.484 E9.78901
G1 X124.714 Y93.517 E9.88910
; printing object CoverBottom_B_NoNuts.stl id:0 copy 0
G10 ; retract
G92 E0
G1 X132.003 Y138.482 F7800.000
G11 ; unretract
G92 E0
G1 F1200.000
G1 X131.820 Y137.520 E0.03218
G1 X131.951 Y136.711 E0.05909
G1 X132.065 Y136.431 E0.06902
G1 X132.377 Y135.885 E0.08967
G1 X132.580 Y135.660 E0.09963
G1 X133.036 Y135.270 E0.11931
G1 X133.305 Y135.124 E0.12939
G1 X133.869 Y134.909 E0.14918
G1 X134.183 Y134.858 E0.15963
G1 X134.796 Y134.851 E0.17977
G1 X135.099 Y134.905 E0.18987
G1 X135.658 Y135.099 E0.20930
G1 X135.922 Y135.248 E0.21926
G1 X136.400 Y135.631 E0.23936
G1 X136.601 Y135.863 E0.24946
G1 X136.922 Y136.387 E0.26965
G1 X137.034 Y136.676 E0.27982
G1 X137.157 Y137.284 E0.30019
G1 X137.163 Y137.598 E0.31050
G1 X137.066 Y138.220 E0.33116
G1 X136.966 Y138.510 E0.34123
G1 X136.677 Y139.039 E0.36105
G1 X136.487 Y139.273 E0.37093
G1 X136.036 Y139.680 E0.39089
G1 X135.769 Y139.841 E0.40112
G1 X135.187 Y140.076 E0.42172
G1 X134.879 Y140.135 E0.43203
G1 X134.262 Y140.156 E0.45231
G1 X133.945 Y140.102 E0.46286
G1 X133.325 Y139.893 E0.48436
G1 X133.052 Y139.733 E0.49473
G1 X132.527 Y139.307 E0.51693
G1 X132.035 Y138.533 E0.54705
G1 X132.360 Y138.341 F7800.000
G1 F1200.000
G1 X132.203 Y137.514 E0.57469
G1 X132.316 Y136.813 E0.59801
G1 X132.405 Y136.596 E0.60571
G1 X132.684 Y136.107 E0.62419
G1 X132.844 Y135.931 E0.63202
G1 X133.251 Y135.582 E0.64960
G1 X133.463 Y135.467 E0.65754
G1 X133.967 Y135.275 E0.67526
G1 X134.215 Y135.235 E0.68351
G1 X134.765 Y135.229 E0.70157
G1 X135.004 Y135.271 E0.70952
G1 X135.502 Y135.445 E0.72685
G1 X135.711 Y135.562 E0.73471
G1 X136.137 Y135.903 E0.75267
G1 X136.296 Y136.086 E0.76061
G1 X136.583 Y136.555 E0.77865
G1 X136.670 Y136.782 E0.78666
G1 X136.780 Y137.325 E0.80486
G1 X136.785 Y137.572 E0.81296
G1 X136.698 Y138.129 E0.83146
G1 X136.620 Y138.357 E0.83939
G1 X136.362 Y138.828 E0.85703
G1 X136.213 Y139.013 E0.86482
G1 X135.810 Y139.376 E0.88261
G1 X135.600 Y139.502 E0.89068
G1 X135.080 Y139.713 E0.90910
G1 X134.837 Y139.759 E0.91723
G1 X134.287 Y139.778 E0.93528
G1 X134.037 Y139.735 E0.94360
G1 X133.482 Y139.548 E0.96285
G1 X133.268 Y139.422 E0.97102
G1 X132.812 Y139.053 E0.99026
G1 X132.392 Y138.392 E1.01599
G1 X132.717 Y138.200 F7800.000
G1 F1200.000
G1 X132.585 Y137.509 E1.03908
G1 X132.682 Y136.916 E1.05881
G1 X132.745 Y136.762 E1.06429
G1 X132.991 Y136.330 E1.08061
G1 X133.107 Y136.202 E1.08630
G1 X133.466 Y135.895 E1.10179
G1 X133.621 Y135.811 E1.10759
G1 X134.066 Y135.641 E1.12322
G1 X134.248 Y135.611 E1.12927
G1 X134.734 Y135.606 E1.14526
G1 X134.908 Y135.637 E1.15106
G1 X135.347 Y135.790 E1.16630
G1 X135.499 Y135.875 E1.17205
G1 X135.875 Y136.176 E1.18786
G1 X135.991 Y136.310 E1.19366
G1 X136.243 Y136.722 E1.20954
G1 X136.307 Y136.888 E1.21538
G1 X136.404 Y137.367 E1.23141
G1 X136.407 Y137.546 E1.23731
G1 X136.331 Y138.038 E1.25366
G1 X136.274 Y138.205 E1.25943
G1 X136.048 Y138.618 E1.27489
G1 X135.938 Y138.752 E1.28059
G1 X135.585 Y139.071 E1.29623
G1 X135.431 Y139.164 E1.30213
G1 X134.972 Y139.349 E1.31836
G1 X134.794 Y139.383 E1.32431
G1 X134.313 Y139.400 E1.34014
G1 X134.130 Y139.369 E1.34623
G1 X133.640 Y139.203 E1.36322
G1 X133.483 Y139.111 E1.36919
G1 X133.097 Y138.799 E1.38548
G1 X132.749 Y138.250 E1.40682
G1 X132.322 Y138.134 F7800.000
G10 ; retract
G92 E0
G1 X138.618 Y149.819
G11 ; unretract
G92 E0
G1 F1200.000
G1 X139.945 Y149.569 E0.04435
G1 X141.296 Y149.787 E0.08928
G1 X142.498 Y150.464 E0.13457
G1 X143.363 Y151.469 E0.17813
G1 X143.807 Y152.550 E0.21651
G1 X143.915 Y153.430 E0.24562
G1 X143.915 Y158.575 E0.41458
G1 X143.795 Y159.506 E0.44540
G1 X143.315 Y160.609 E0.48491
G1 X142.435 Y161.585 E0.52807
G1 X141.314 Y162.204 E0.57013
G1 X140.014 Y162.431 E0.61344
G1 X138.714 Y162.213 E0.65674
G1 X137.583 Y161.598 E0.69900
G1 X136.694 Y160.621 E0.74240
G1 X136.208 Y159.511 E0.78219
G1 X136.087 Y158.575 E0.81316
G1 X136.087 Y153.432 E0.98205
G1 X136.185 Y152.585 E1.01005
G1 X136.601 Y151.533 E1.04721
G1 X137.431 Y150.525 E1.09010
G1 X138.566 Y149.850 E1.13347
G1 X138.753 Y150.177 F7800.000
G1 F1200.000
G1 X139.950 Y149.951 E1.17345
G1 X141.169 Y150.149 E1.21401
G1 X142.255 Y150.760 E1.25493
G1 X143.038 Y151.669 E1.29431
G1 X143.439 Y152.646 E1.32901
G1 X143.538 Y153.453 E1.35570
G1 X143.538 Y158.551 E1.52311
G1 X143.428 Y159.405 E1.55138
G1 X142.994 Y160.402 E1.58711
G1 X142.197 Y161.286 E1.62617
G1 X141.187 Y161.844 E1.66408
G1 X140.013 Y162.048 E1.70320
G1 X138.838 Y161.852 E1.74231
G1 X137.819 Y161.297 E1.78040
G1 X137.014 Y160.413 E1.81968
G1 X136.575 Y159.409 E1.85566
G1 X136.464 Y158.551 E1.88407
G1 X136.464 Y153.454 E2.05144
G1 X136.554 Y152.678 E2.07710
G1 X136.930 Y151.727 E2.11069
G1 X137.681 Y150.815 E2.14947
G1 X138.702 Y150.208 E2.18848
G1 X138.889 Y150.535 F7800.000
G1 F1200.000
G1 X139.955 Y150.334 E2.22410
G1 X141.043 Y150.510 E2.26030
G1 X142.013 Y151.056 E2.29683
G1 X142.712 Y151.868 E2.33204
G1 X143.071 Y152.742 E2.36307
G1 X143.161 Y153.476 E2.38733
G1 X143.161 Y158.527 E2.55319
G1 X143.061 Y159.303 E2.57891
G1 X142.673 Y160.196 E2.61086
G1 X141.959 Y160.986 E2.64582
G1 X141.060 Y161.483 E2.67958
G1 X140.012 Y161.666 E2.71451
G1 X138.963 Y161.490 E2.74942
G1 X138.056 Y160.996 E2.78336
G1 X137.335 Y160.205 E2.81851
G1 X136.942 Y159.307 E2.85068
G1 X136.841 Y158.527 E2.87653
G1 X136.841 Y153.476 E3.04238
G1 X136.923 Y152.771 E3.06570
G1 X137.259 Y151.921 E3.09571
G1 X137.930 Y151.106 E3.13038
G1 X138.837 Y150.566 E3.16505
G1 X138.954 Y150.141 F7800.000
G10 ; retract
G92 E0
G1 X132.001 Y169.977
G11 ; unretract
G92 E0
G1 F1200.000
G1 X131.819 Y169.013 E0.03222
G1 X131.969 Y168.128 E0.06168
G1 X132.339 Y167.442 E0.08730
G1 X132.549 Y167.187 E0.09815
G1 X132.983 Y166.812 E0.11700
G1 X133.241 Y166.651 E0.12697
G1 X133.801 Y166.430 E0.14674
G1 X134.111 Y166.364 E0.15713
G1 X134.730 Y166.347 E0.17749
G1 X135.041 Y166.391 E0.18780
G1 X135.619 Y166.582 E0.20778
G1 X135.891 Y166.728 E0.21792
G1 X136.377 Y167.108 E0.23817
G1 X136.584 Y167.340 E0.24840
G1 X136.911 Y167.863 E0.26864
G1 X137.027 Y168.156 E0.27897
G1 X137.155 Y168.765 E0.29943
G1 X137.163 Y169.083 E0.30987
G1 X137.069 Y169.707 E0.33060
G1 X136.970 Y170.000 E0.34076
G1 X136.683 Y170.531 E0.36057
G1 X136.491 Y170.769 E0.37063
G1 X136.028 Y171.184 E0.39102
G1 X135.762 Y171.345 E0.40124
G1 X135.189 Y171.575 E0.42153
G1 X134.886 Y171.635 E0.43165
G1 X134.269 Y171.656 E0.45193
G1 X133.954 Y171.604 E0.46241
G1 X133.339 Y171.401 E0.48367
G1 X133.067 Y171.241 E0.49407
G1 X132.523 Y170.804 E0.51698
G1 X132.033 Y170.028 E0.54711
G1 X132.358 Y169.837 F7800.000
G1 F1200.000
G1 X132.202 Y169.009 E0.57474
G1 X132.330 Y168.253 E0.59995
G1 X132.653 Y167.653 E0.62231
G1 X132.820 Y167.452 E0.63090
G1 X133.208 Y167.116 E0.64774
G1 X133.411 Y166.990 E0.65562
G1 X133.911 Y166.793 E0.67324
G1 X134.156 Y166.740 E0.68147
G1 X134.709 Y166.725 E0.69966
G1 X134.955 Y166.759 E0.70782
G1 X135.469 Y166.930 E0.72561
G1 X135.684 Y167.045 E0.73361
G1 X136.118 Y167.384 E0.75169
G1 X136.281 Y167.567 E0.75976
G1 X136.573 Y168.034 E0.77781
G1 X136.664 Y168.265 E0.78597
G1 X136.779 Y168.809 E0.80424
G1 X136.785 Y169.060 E0.81247
G1 X136.701 Y169.618 E0.83102
G1 X136.623 Y169.849 E0.83903
G1 X136.367 Y170.321 E0.85664
G1 X136.216 Y170.509 E0.86458
G1 X135.803 Y170.880 E0.88281
G1 X135.593 Y171.007 E0.89085
G1 X135.081 Y171.212 E0.90896
G1 X134.843 Y171.259 E0.91694
G1 X134.293 Y171.278 E0.93500
G1 X134.045 Y171.237 E0.94328
G1 X133.496 Y171.056 E0.96226
G1 X133.281 Y170.930 E0.97043
G1 X132.808 Y170.549 E0.99037
G1 X132.390 Y169.887 E1.01607
G1 X132.715 Y169.696 F7800.000
G1 F1200.000
G1 X132.585 Y169.006 E1.03914
G1 X132.691 Y168.377 E1.06009
G1 X132.967 Y167.865 E1.07919
G1 X133.090 Y167.716 E1.08552
G1 X133.432 Y167.421 E1.10034
G1 X133.581 Y167.328 E1.10613
G1 X134.020 Y167.155 E1.12161
G1 X134.201 Y167.116 E1.12768
G1 X134.688 Y167.103 E1.14370
G1 X134.869 Y167.128 E1.14969
G1 X135.320 Y167.278 E1.16530
G1 X135.478 Y167.362 E1.17117
G1 X135.859 Y167.660 E1.18707
G1 X135.979 Y167.795 E1.19298
G1 X136.235 Y168.204 E1.20885
G1 X136.302 Y168.374 E1.21483
G1 X136.403 Y168.853 E1.23092
G1 X136.408 Y169.036 E1.23693
G1 X136.333 Y169.529 E1.25330
G1 X136.276 Y169.698 E1.25915
G1 X136.052 Y170.111 E1.27458
G1 X135.941 Y170.249 E1.28040
G1 X135.577 Y170.576 E1.29645
G1 X135.424 Y170.668 E1.30232
G1 X134.974 Y170.849 E1.31826
G1 X134.800 Y170.883 E1.32409
G1 X134.318 Y170.900 E1.33993
G1 X134.135 Y170.870 E1.34600
G1 X133.652 Y170.710 E1.36271
G1 X133.496 Y170.619 E1.36865
G1 X133.094 Y170.295 E1.38562
G1 X132.747 Y169.747 E1.40691
G1 X132.321 Y169.630 F7800.000
G10 ; retract
G92 E0
G1 X146.071 Y169.014
G11 ; unretract
G92 E0
G1 F1200.000
G1 X146.250 Y167.850 E0.03868
G1 X146.731 Y166.865 E0.07465
G1 X146.914 Y166.586 E0.08561
G1 X147.607 Y165.921 E0.11716
G1 X147.830 Y165.729 E0.12682
G1 X149.035 Y165.188 E0.17020
G1 X150.475 Y165.096 E0.21760
G1 X151.805 Y165.507 E0.26331
G1 X152.881 Y166.323 E0.30765
G1 X153.639 Y167.507 E0.35381
G1 X153.930 Y168.844 E0.39876
G1 X153.732 Y170.245 E0.44521
G1 X153.056 Y171.475 E0.49130
G1 X152.051 Y172.354 E0.53516
G1 X150.762 Y172.855 E0.58057
G1 X149.352 Y172.878 E0.62687
G1 X148.069 Y172.423 E0.67158
G1 X147.035 Y171.582 E0.71536
G1 X146.302 Y170.336 E0.76281
G1 X146.082 Y169.073 E0.80492
G1 X146.454 Y169.010 F7800.000
G1 F1200.000
G1 X146.614 Y167.963 E0.83969
G1 X147.059 Y167.052 E0.87299
G1 X147.206 Y166.829 E0.88177
G1 X147.860 Y166.200 E0.91157
G1 X148.034 Y166.051 E0.91910
G1 X149.128 Y165.560 E0.95846
G1 X150.429 Y165.476 E1.00128
G1 X151.631 Y165.847 E1.04258
G1 X152.600 Y166.583 E1.08253
G1 X153.285 Y167.653 E1.12427
G1 X153.548 Y168.858 E1.16477
G1 X153.368 Y170.124 E1.20673
G1 X152.758 Y171.235 E1.24837
G1 X151.852 Y172.027 E1.28791
G1 X150.693 Y172.479 E1.32873
G1 X149.414 Y172.500 E1.37074
G1 X148.257 Y172.090 E1.41108
G1 X147.326 Y171.332 E1.45049
G1 X146.662 Y170.204 E1.49347
G1 X146.464 Y169.069 E1.53130
G1 X146.836 Y169.006 F7800.000
G1 F1200.000
G1 X146.978 Y168.077 E1.56216
G1 X147.387 Y167.239 E1.59279
G1 X147.498 Y167.071 E1.59938
G1 X148.114 Y166.479 E1.62745
G1 X148.238 Y166.372 E1.63284
G1 X149.220 Y165.931 E1.66817
G1 X150.382 Y165.857 E1.70642
G1 X151.456 Y166.188 E1.74331
G1 X152.318 Y166.843 E1.77887
G1 X152.931 Y167.800 E1.81619
G1 X153.165 Y168.872 E1.85224
G1 X153.005 Y170.002 E1.88972
G1 X152.460 Y170.995 E1.92691
G1 X151.652 Y171.701 E1.96212
G1 X150.625 Y172.103 E1.99836
G1 X149.476 Y172.122 E2.03608
G1 X148.444 Y171.756 E2.07204
G1 X147.616 Y171.082 E2.10709
G1 X147.022 Y170.072 E2.14559
G1 X146.846 Y169.065 E2.17915
G1 X146.486 Y168.812 F7800.000
G10 ; retract
G92 E0
G1 X131.820 Y117.023
G11 ; unretract
G92 E0
G1 F1200.000
G1 X131.941 Y116.248 E0.02576
G1 X132.052 Y115.957 E0.03599
G1 X132.352 Y115.429 E0.05592
G1 X132.545 Y115.188 E0.06605
G1 X133.015 Y114.791 E0.08625
G1 X133.272 Y114.634 E0.09615
G1 X133.855 Y114.416 E0.11660
G1 X134.158 Y114.358 E0.12672
G1 X134.780 Y114.350 E0.14714
G1 X135.090 Y114.402 E0.15746
G1 X135.688 Y114.616 E0.17831
G1 X135.958 Y114.769 E0.18852
G1 X136.426 Y115.158 E0.20851
G1 X136.624 Y115.392 E0.21856
G1 X136.941 Y115.929 E0.23904
G1 X137.047 Y116.217 E0.24914
G1 X137.160 Y116.822 E0.26934
G1 X137.161 Y117.130 E0.27943
G1 X137.060 Y117.745 E0.29992
G1 X136.954 Y118.037 E0.31011
G1 X136.642 Y118.587 E0.33088
G1 X136.440 Y118.825 E0.34113
G1 X135.957 Y119.232 E0.36188
G1 X135.682 Y119.387 E0.37223
G1 X135.081 Y119.601 E0.39318
G1 X134.773 Y119.650 E0.40342
G1 X134.152 Y119.642 E0.42382
G1 X133.853 Y119.583 E0.43383
G1 X133.273 Y119.366 E0.45416
G1 X133.015 Y119.209 E0.46408
G1 X132.544 Y118.813 E0.48428
G1 X132.351 Y118.566 E0.49459
G1 X131.999 Y117.951 E0.51785
G1 X131.832 Y117.082 E0.54691
G1 X132.203 Y117.016 F7800.000
G1 F1200.000
G1 X132.308 Y116.345 E0.56922
G1 X132.394 Y116.118 E0.57720
G1 X132.665 Y115.641 E0.59519
G1 X132.816 Y115.452 E0.60314
G1 X133.236 Y115.098 E0.62117
G1 X133.438 Y114.975 E0.62895
G1 X133.958 Y114.780 E0.64718
G1 X134.196 Y114.734 E0.65515
G1 X134.751 Y114.728 E0.67337
G1 X134.994 Y114.768 E0.68148
G1 X135.530 Y114.960 E0.70015
G1 X135.743 Y115.080 E0.70818
G1 X136.160 Y115.427 E0.72600
G1 X136.316 Y115.611 E0.73391
G1 X136.598 Y116.091 E0.75221
G1 X136.682 Y116.318 E0.76015
G1 X136.783 Y116.858 E0.77819
G1 X136.784 Y117.100 E0.78612
G1 X136.693 Y117.649 E0.80441
G1 X136.610 Y117.878 E0.81241
G1 X136.331 Y118.370 E0.83099
G1 X136.173 Y118.557 E0.83903
G1 X135.741 Y118.921 E0.85758
G1 X135.525 Y119.042 E0.86570
G1 X134.987 Y119.234 E0.88446
G1 X134.746 Y119.272 E0.89249
G1 X134.191 Y119.265 E0.91071
G1 X133.956 Y119.219 E0.91857
G1 X133.438 Y119.025 E0.93673
G1 X133.235 Y118.902 E0.94453
G1 X132.817 Y118.550 E0.96248
G1 X132.664 Y118.355 E0.97062
G1 X132.357 Y117.818 E0.99091
G1 X132.214 Y117.075 E1.01576
G1 X132.586 Y117.009 F7800.000
G1 F1200.000
G1 X132.674 Y116.442 E1.03462
G1 X132.736 Y116.279 E1.04035
G1 X132.978 Y115.854 E1.05640
G1 X133.087 Y115.717 E1.06216
G1 X133.457 Y115.405 E1.07803
G1 X133.603 Y115.316 E1.08367
G1 X134.060 Y115.145 E1.09970
G1 X134.234 Y115.111 E1.10552
G1 X134.722 Y115.105 E1.12153
G1 X134.899 Y115.135 E1.12744
G1 X135.372 Y115.304 E1.14392
G1 X135.527 Y115.392 E1.14978
G1 X135.894 Y115.696 E1.16542
G1 X136.007 Y115.830 E1.17120
G1 X136.256 Y116.253 E1.18732
G1 X136.317 Y116.419 E1.19310
G1 X136.406 Y116.894 E1.20896
G1 X136.407 Y117.069 E1.21474
G1 X136.327 Y117.553 E1.23085
G1 X136.267 Y117.720 E1.23666
G1 X136.021 Y118.154 E1.25303
G1 X135.906 Y118.289 E1.25887
G1 X135.525 Y118.610 E1.27521
G1 X135.369 Y118.698 E1.28111
